;FLAVOR:RepRap
;TIME:1713
;Generated with Cura_SteamEngine 2.3.1
M190 S60
M104 S200
M109 S200
G21 ;metric values
G90 ;absolute positioning
G92 E0 ;zero the extruded length
M107 ;start with the fan off
G1 X90 Y200 F6000 ;go to the middle of the front

G92 E0 ;zero the extruded length
G1 X150 E10 F300 ; make a thick line to prime extruder
G92 E0 ; reset extruder
;LAYER_COUNT:235
;LAYER:0
M107
G1 F1500 E-6.5
G0 F3600 X73.307 Y84.599 Z.299
;TYPE:SKIRT
G1 F1500 E0
G1 F1800 X73.749 Y84.296 E0.02665
G1 X74.232 Y84.062 E0.05333
G1 X74.498 Y83.968 E0.06736
G1 X82.252 Y81.577 E0.47083
G1 X87.41 Y79.749 E0.74294
G1 X92.483 Y77.62 E1.0165
G1 X94.908 Y76.48 E1.14974
G1 X99.129 Y74.303 E1.3859
G1 X99.622 Y74.093 E1.41254
G1 X100.141 Y73.959 E1.4392
G1 X100.675 Y73.904 E1.46589
G1 X101.062 Y73.913 E1.48514
G1 X107.488 Y74.419 E1.80565
G1 X112.924 Y74.52 E2.076
G1 X118.37 Y74.314 E2.34699
G1 X122.894 Y73.912 E2.57283
G1 X123.431 Y73.905 E2.59953
G1 X123.962 Y73.977 E2.62618
G1 X124.477 Y74.127 E2.65285
G1 X124.964 Y74.352 E2.67952
G1 X125.411 Y74.647 E2.70615
G1 X125.687 Y74.883 E2.72421
G1 X126.171 Y75.341 E2.75734
G1 X126.532 Y75.738 E2.78402
G1 X126.83 Y76.184 E2.8107
G1 X127.059 Y76.669 E2.83737
G1 X127.213 Y77.182 E2.864
G1 X127.291 Y77.745 E2.89226
G1 X127.83 Y86.921 E3.34931
G1 X127.821 Y87.457 E3.37597
G1 X127.761 Y87.863 E3.39638
G1 X126.677 Y93.089 E3.66176
G1 X125.872 Y98.469 E3.93226
G1 X125.371 Y103.905 E4.2037
G1 X125.178 Y109.363 E4.47526
G1 X125.294 Y114.842 E4.74776
G1 X125.555 Y119.158 E4.96276
G1 X125.548 Y119.695 E4.98947
G1 X125.461 Y120.224 E5.01612
G1 X125.205 Y120.938 E5.05384
G1 X125.021 Y121.32 E5.07492
G1 X124.753 Y121.785 E5.10161
G1 X124.419 Y122.204 E5.12825
G1 X123.838 Y122.71 E5.16656
G1 X123.365 Y123.04 E5.19524
G1 X122.903 Y123.314 E5.22195
G1 X122.406 Y123.515 E5.24861
G1 X121.885 Y123.641 E5.27526
G1 X121.617 Y123.674 E5.28869
G1 X114.572 Y124.287 E5.64032
G1 X109.176 Y125.073 E5.91146
G1 X103.824 Y126.164 E6.18305
G1 X101.311 Y126.785 E6.31177
G1 X100.782 Y126.874 E6.33844
G1 X100.454 Y126.89 E6.35477
G1 X97.506 Y126.896 E6.50136
G1 X97.33 Y126.892 E6.51011
G1 X92.115 Y126.647 E6.76971
G1 X86.596 Y126.57 E7.04416
G1 X78.415 Y126.897 E7.45128
G1 X78.258 Y126.9 E7.45908
G1 X75.545 Y126.89 E7.59399
G1 X75.01 Y126.848 E7.62067
G1 X74.488 Y126.727 E7.64731
G1 X73.989 Y126.53 E7.67399
G1 X73.525 Y126.261 E7.70066
G1 X73.106 Y125.926 E7.72733
G1 X72.742 Y125.533 E7.75397
G1 X72.44 Y125.089 E7.78067
G1 X72.207 Y124.606 E7.80733
G1 X72.049 Y124.094 E7.83398
G1 X71.968 Y123.564 E7.86064
G1 X71.958 Y123.289 E7.87432
G1 X71.959 Y120.407 E8.01762
G1 X71.987 Y119.961 E8.03985
G1 X72.622 Y114.889 E8.29401
G1 X73.006 Y109.45 E8.56514
G1 X73.084 Y103.99 E8.83666
G1 X72.852 Y98.534 E9.10819
G1 X72.31 Y93.089 E9.38028
G1 X71.992 Y90.783 E9.49603
G1 X71.958 Y90.29 E9.5206
G1 X71.959 Y87.407 E9.66395
G1 X71.999 Y86.872 E9.69063
G1 X72.118 Y86.349 E9.7173
G1 X72.314 Y85.85 E9.74396
G1 X72.581 Y85.385 E9.77062
G1 X72.915 Y84.965 E9.7973
G1 X73.307 Y84.599 E9.82397
G0 F3600 X73.696 Y84.806
G1 F1800 X74.129 Y84.545 E9.84911
G1 X74.616 Y84.35 E9.87519
G1 X82.384 Y81.955 E10.27939
G1 X87.556 Y80.121 E10.55225
G1 X92.639 Y77.988 E10.82635
G1 X95.072 Y76.845 E10.96001
G1 X99.312 Y74.658 E11.19724
G1 X99.778 Y74.463 E11.22236
G1 X100.269 Y74.343 E11.24749
G1 X100.773 Y74.302 E11.27263
G1 X101.03 Y74.312 E11.28542
G1 X107.465 Y74.819 E11.60639
G1 X112.914 Y74.92 E11.87738
G1 X118.421 Y74.712 E12.1514
G1 X122.93 Y74.311 E12.37649
G1 X123.435 Y74.306 E12.4016
G1 X123.935 Y74.381 E12.42674
G1 X124.417 Y74.533 E12.45187
G1 X124.869 Y74.76 E12.47703
G1 X125.412 Y75.174 E12.51098
G1 X125.896 Y75.632 E12.54411
G1 X126.235 Y76.007 E12.56925
G1 X126.51 Y76.431 E12.59438
G1 X126.715 Y76.893 E12.61951
G1 X126.845 Y77.382 E12.64467
G1 X126.891 Y77.768 E12.664
G1 X127.43 Y86.944 E13.12105
G1 X127.42 Y87.45 E13.14622
G1 X127.369 Y87.782 E13.16292
G1 X126.286 Y93.003 E13.42805
G1 X125.472 Y98.442 E13.70151
G1 X124.972 Y103.872 E13.97266
G1 X124.778 Y109.357 E14.24556
G1 X124.893 Y114.841 E14.51831
G1 X125.156 Y119.183 E14.7346
G1 X125.147 Y119.688 E14.75972
G1 X125.058 Y120.186 E14.78487
G1 X124.845 Y120.765 E14.81555
G1 X124.661 Y121.147 E14.83663
G1 X124.406 Y121.583 E14.86175
G1 X124.086 Y121.975 E14.88691
G1 X123.609 Y122.382 E14.91809
G1 X123.136 Y122.712 E14.94677
G1 X122.7 Y122.968 E14.97191
G1 X122.229 Y123.152 E14.99705
G1 X121.582 Y123.276 E15.02981
G1 X114.531 Y123.889 E15.38173
G1 X109.093 Y124.681 E15.65499
G1 X103.745 Y125.772 E15.92639
G1 X101.215 Y126.397 E16.05597
G1 X100.716 Y126.479 E16.08111
G1 X100.454 Y126.49 E16.09415
G1 X97.506 Y126.496 E16.24074
G1 X97.349 Y126.492 E16.24855
G1 X92.14 Y126.248 E16.50784
G1 X86.586 Y126.17 E16.78404
G1 X78.399 Y126.497 E17.19145
G1 X78.259 Y126.5 E17.19842
G1 X75.546 Y126.49 E17.33332
G1 X75.042 Y126.448 E17.35847
G1 X74.551 Y126.328 E17.3836
G1 X74.086 Y126.131 E17.40871
G1 X73.656 Y125.864 E17.43388
G1 X73.275 Y125.532 E17.45901
G1 X72.95 Y125.145 E17.48413
G1 X72.691 Y124.711 E17.50926
G1 X72.503 Y124.241 E17.53444
G1 X72.391 Y123.748 E17.55957
G1 X72.358 Y123.289 E17.58246
G1 X72.359 Y120.407 E17.72576
G1 X72.384 Y120.011 E17.74549
G1 X73.021 Y114.917 E18.00076
G1 X73.406 Y109.466 E18.27248
G1 X73.484 Y103.979 E18.54534
G1 X73.252 Y98.514 E18.81733
G1 X72.708 Y93.044 E19.09066
G1 X72.388 Y90.728 E19.20691
G1 X72.358 Y90.29 E19.22874
G1 X72.359 Y87.407 E19.3721
G1 X72.399 Y86.903 E19.39723
G1 X72.518 Y86.412 E19.42236
G1 X72.713 Y85.945 E19.44752
G1 X72.979 Y85.515 E19.47266
G1 X73.309 Y85.132 E19.4978
G1 X73.696 Y84.806 E19.52296
G0 F3600 X75.749 Y87.6
;TYPE:SUPPORT
G1 F1800 X79.333 Y87.599 E19.70117
G1 X79.732 Y87.2 E19.72923
G1 X79.732 Y86.351 E19.77144
G1 X82.332 Y86.351 E19.90073
G1 X82.332 Y87.216 E19.94374
G1 X82.731 Y87.615 E19.9718
G1 X93.195 Y87.614 E20.49211
G1 X93.634 Y87.6 E20.51395
G1 X97.115 Y87.6 E20.68704
G1 X97.15 Y87.599 E20.68878
G1 X99.727 Y87.599 E20.81692
G1 X100.15 Y87.273 E20.84347
G1 X101.809 Y80.883 E21.17174
G1 X101.836 Y80.932 E21.17452
G1 X102.008 Y81.142 E21.18802
G1 X102.218 Y81.314 E21.20152
G1 X102.467 Y81.448 E21.21558
G1 X102.724 Y81.525 E21.22892
G1 X103 Y81.553 E21.24271
G1 X103.276 Y81.525 E21.25651
G1 X103.532 Y81.448 E21.2698
G1 X103.781 Y81.314 E21.28386
G1 X103.991 Y81.142 E21.29736
G1 X104.163 Y80.932 E21.31085
G1 X104.297 Y80.683 E21.32491
G1 X104.374 Y80.427 E21.33821
G1 X104.402 Y80.151 E21.352
G1 X104.384 Y79.976 E21.36075
G1 X104.629 Y80.151 E21.37572
G1 X119.365 Y80.151 E22.10845
G1 X119.616 Y79.971 E22.12381
G1 X119.598 Y80.151 E22.1328
G1 X119.625 Y80.425 E22.14649
G1 X119.702 Y80.683 E22.15988
G1 X119.836 Y80.932 E22.17394
G1 X120.008 Y81.142 E22.18744
G1 X120.218 Y81.314 E22.20094
G1 X120.467 Y81.448 E22.215
G1 X120.724 Y81.525 E22.22834
G1 X121 Y81.553 E22.24213
G1 X121.276 Y81.525 E22.25593
G1 X121.532 Y81.448 E22.26922
G1 X121.781 Y81.314 E22.28328
G1 X121.991 Y81.142 E22.29678
G1 X122.163 Y80.932 E22.31027
G1 X122.206 Y80.852 E22.31479
G1 X123.999 Y86.852 E22.62617
G1 X100.638 Y87.821 E23.78877
G1 X100.251 Y88.225 E23.81659
G1 X100.251 Y90.102 E23.90992
G1 X96.967 Y90.102 E24.07321
G1 X96.933 Y90.101 E24.0749
G1 X93.635 Y90.102 E24.23889
G1 X93.17 Y90.087 E24.26203
G1 X82.832 Y90.087 E24.77607
G1 X82.367 Y90.102 E24.79921
G1 X75.749 Y90.102 E25.12828
G1 X75.749 Y87.6 E25.25269
G0 F3600 X100.553 Y77.981
G1 F1800 X100.796 Y77.75 E25.26936
G1 X102.352 Y78.915 E25.36601
G1 X102.218 Y78.987 E25.37358
G1 X102.008 Y79.159 E25.38707
G1 X101.836 Y79.369 E25.40057
G1 X101.702 Y79.618 E25.41463
G1 X101.684 Y79.677 E25.4177
G1 X100.553 Y77.981 E25.51906
G1 F1500 E19.01906
G0 F3600 X121.325 Y78.515
G0 X121.633 Y78.609
G0 X121.781 Y78.987
G1 F1500 E25.51906
G1 F1800 X121.649 Y78.916 E25.52651
G1 X123.202 Y77.749 E25.62311
G1 X123.447 Y77.982 E25.63992
G1 X122.315 Y79.679 E25.74135
G1 X122.297 Y79.618 E25.74451
G1 X122.163 Y79.369 E25.75858
G1 X121.991 Y79.159 E25.77207
G1 X121.781 Y78.987 E25.78557
G1 F1500 E19.28557
G0 F3600 X122.636 Y78.91
G1 F1500 E25.78557
G1 F1800 X122.636 Y78.375 E25.81217
G1 F1500 E19.31217
G0 F3600 X120.674 Y78.515
G0 X120.071 Y78.765
G0 X119.614 Y79.222
G0 X119.364 Y79.825
G0 X119.364 Y80.476
G0 X119.614 Y81.079
G0 X119.904 Y81.4
G0 X119.97 Y81.319
G1 F1500 E25.81217
G1 F1800 X119.97 Y86.859 E26.08764
G1 F1500 E19.58764
G0 F3600 X117.304 Y86.969
G1 F1500 E26.08764
G1 F1800 X117.304 Y80.311 E26.4187
G1 F1500 E19.9187
G0 F3600 X114.638 Y80.311
G1 F1500 E26.4187
G1 F1800 X114.638 Y87.08 E26.75529
G1 F1500 E20.25529
G0 F3600 X111.972 Y87.191
G1 F1500 E26.75529
G1 F1800 X111.972 Y80.311 E27.09739
G1 F1500 E20.59739
G0 F3600 X109.306 Y80.311
G1 F1500 E27.09739
G1 F1800 X109.306 Y87.301 E27.44496
G1 F1500 E20.94496
G0 F3600 X106.64 Y87.412
G1 F1500 E27.44496
G1 F1800 X106.64 Y80.311 E27.79805
G1 F1500 E21.29805
G0 F3600 X104.179 Y81.33
G0 X103.974 Y81.363
G1 F1500 E27.79805
G1 F1800 X103.974 Y87.522 E28.10429
G1 F1500 E21.60429
G0 F3600 X101.308 Y87.633
G1 F1500 E28.10429
G1 F1800 X101.308 Y83.45 E28.31229
G1 F1500 E21.81229
G0 F3600 X101.516 Y82.646
G1 F1500 E28.31229
G1 F1800 X122.575 Y82.646 E29.35943
G0 F3600 X122.636 Y82.849
G1 F1800 X122.636 Y86.748 E29.5533
G1 F1500 E23.0533
G0 F3600 X123.372 Y85.312
G1 F1500 E29.5533
G1 F1800 X100.824 Y85.312 E30.67447
G1 F1500 E24.17447
G0 F3600 X100.264 Y87.978
G1 F1500 E30.67447
G1 F1800 X75.908 Y87.978 E31.88555
G1 F1500 E25.38555
G0 F3600 X77.314 Y87.759
G1 F1500 E31.88555
G1 F1800 X77.314 Y89.942 E31.9941
G1 F1500 E25.4941
G0 F3600 X79.98 Y89.942
G1 F1500 E31.9941
G1 F1800 X79.98 Y86.511 E32.1647
G0 F3600 X82.646 Y87.757
G1 F1800 X82.646 Y89.933 E32.2729
G1 F1500 E25.7729
G0 F3600 X85.312 Y89.927
G1 F1500 E32.2729
G1 F1800 X85.312 Y87.774 E32.37995
G1 F1500 E25.87995
G0 F3600 X87.978 Y87.774
G1 F1500 E32.37995
G1 F1800 X87.978 Y89.927 E32.48701
G1 F1500 E25.98701
G0 F3600 X90.644 Y89.927
G1 F1500 E32.48701
G1 F1800 X90.644 Y87.774 E32.59406
G1 F1500 E26.09406
G0 F3600 X93.31 Y87.77
G1 F1500 E32.59406
G1 F1800 X93.31 Y89.931 E32.70152
G1 F1500 E26.20152
G0 F3600 X95.976 Y89.942
G1 F1500 E32.70152
G1 F1800 X95.976 Y87.76 E32.81002
G1 F1500 E26.31002
G0 F3600 X98.642 Y87.759
G1 F1500 E32.81002
G1 F1800 X98.642 Y89.942 E32.91856
G0 F3600 X101.308 Y78.824
G1 F1800 X101.308 Y78.333 E32.94298
G1 F1500 E26.44298
G0 F3600 X102.746 Y79.897
G0 X102.788 Y79.939
G0 X102.718 Y79.869
;TYPE:WALL-INNER
G1 F1500 E32.94298
G1 F1800 X102.773 Y79.824 E32.94651
G1 X102.851 Y79.783 E32.95089
G1 X102.923 Y79.761 E32.95464
G1 X103 Y79.754 E32.95848
G1 X103.075 Y79.761 E32.96223
G1 X103.148 Y79.783 E32.96602
G1 X103.226 Y79.824 E32.9704
G1 X103.281 Y79.869 E32.97393
G1 X103.326 Y79.924 E32.97747
G1 X103.367 Y80.002 E32.98185
G1 X103.389 Y80.075 E32.98564
G1 X103.397 Y80.15 E32.98939
G1 X103.389 Y80.227 E32.99324
G1 X103.367 Y80.299 E32.99698
G1 X103.326 Y80.377 E33.00136
G1 X103.281 Y80.432 E33.0049
G1 X103.226 Y80.477 E33.00843
G1 X103.148 Y80.518 E33.01281
G1 X103.076 Y80.54 E33.01656
G1 X102.999 Y80.548 E33.02041
G1 X102.924 Y80.54 E33.02416
G1 X102.851 Y80.518 E33.02795
G1 X102.773 Y80.477 E33.03233
G1 X102.718 Y80.432 E33.03586
G1 X102.673 Y80.377 E33.0394
G1 X102.632 Y80.299 E33.04378
G1 X102.61 Y80.226 E33.04757
G1 X102.603 Y80.151 E33.05131
G1 X102.61 Y80.074 E33.05516
G1 X102.632 Y80.002 E33.0589
G1 X102.673 Y79.924 E33.06328
G1 X102.718 Y79.869 E33.06682
G0 F3600 X102.434 Y79.585
;TYPE:WALL-OUTER
G1 F1800 X102.552 Y79.488 E33.07441
G1 X102.698 Y79.411 E33.08262
G1 X102.842 Y79.367 E33.09011
G1 X103 Y79.352 E33.098
G1 X103.157 Y79.367 E33.10584
G1 X103.301 Y79.411 E33.11333
G1 X103.447 Y79.488 E33.12154
G1 X103.565 Y79.585 E33.12913
G1 X103.662 Y79.703 E33.13673
G1 X103.739 Y79.849 E33.14493
G1 X103.783 Y79.993 E33.15242
G1 X103.799 Y80.151 E33.16032
G1 X103.783 Y80.308 E33.16816
G1 X103.739 Y80.452 E33.17565
G1 X103.662 Y80.598 E33.18386
G1 X103.565 Y80.716 E33.19145
G1 X103.447 Y80.813 E33.19905
G1 X103.301 Y80.89 E33.20726
G1 X103.157 Y80.934 E33.21474
G1 X103 Y80.95 E33.22259
G1 X102.842 Y80.934 E33.23049
G1 X102.698 Y80.89 E33.23797
G1 X102.552 Y80.813 E33.24618
G1 X102.434 Y80.716 E33.25378
G1 X102.337 Y80.598 E33.26137
G1 X102.26 Y80.452 E33.26958
G1 X102.216 Y80.308 E33.27707
G1 X102.201 Y80.151 E33.28491
G1 X102.216 Y79.993 E33.2928
G1 X102.26 Y79.849 E33.30029
G1 X102.337 Y79.703 E33.3085
G1 X102.434 Y79.585 E33.31609
G0 F3600 X102.999 Y80.143
G1 F1500 E26.81609
G0 F3600 X102.999 Y80.508
G0 X103.128 Y81.805
G0 X103.127 Y89.195
G0 X102.999 Y90.493
G0 X102.943 Y90.559
G0 X102.924 Y90.461
;TYPE:WALL-INNER
G1 F1500 E33.31609
G1 F1800 X102.999 Y90.453 E33.31984
G1 X103.076 Y90.461 E33.32369
G1 X103.148 Y90.483 E33.32743
G1 X103.226 Y90.524 E33.33182
G1 X103.281 Y90.569 E33.33535
G1 X103.326 Y90.624 E33.33888
G1 X103.367 Y90.702 E33.34327
G1 X103.389 Y90.774 E33.34701
G1 X103.397 Y90.85 E33.35081
G1 X103.389 Y90.926 E33.35461
G1 X103.367 Y90.999 E33.3584
G1 X103.326 Y91.077 E33.36278
G1 X103.281 Y91.132 E33.36631
G1 X103.226 Y91.177 E33.36985
G1 X103.148 Y91.218 E33.37423
G1 X103.075 Y91.24 E33.37802
G1 X103 Y91.247 E33.38177
G1 X102.923 Y91.24 E33.38561
G1 X102.851 Y91.218 E33.38935
G1 X102.773 Y91.177 E33.39374
G1 X102.718 Y91.132 E33.39727
G1 X102.673 Y91.077 E33.4008
G1 X102.632 Y90.999 E33.40518
G1 X102.61 Y90.927 E33.40893
G1 X102.603 Y90.85 E33.41277
G1 X102.61 Y90.775 E33.41652
G1 X102.632 Y90.702 E33.42031
G1 X102.673 Y90.624 E33.42469
G1 X102.718 Y90.569 E33.42822
G1 X102.773 Y90.524 E33.43176
G1 X102.851 Y90.483 E33.43614
G1 X102.924 Y90.461 E33.43993
G0 F3600 X102.698 Y90.111
;TYPE:WALL-OUTER
G1 F1800 X102.842 Y90.067 E33.44742
G1 X103 Y90.051 E33.45531
G1 X103.157 Y90.067 E33.46316
G1 X103.301 Y90.111 E33.47065
G1 X103.447 Y90.188 E33.47886
G1 X103.565 Y90.285 E33.48645
G1 X103.662 Y90.403 E33.49405
G1 X103.739 Y90.549 E33.50225
G1 X103.783 Y90.693 E33.50974
G1 X103.799 Y90.85 E33.51759
G1 X103.783 Y91.008 E33.52549
G1 X103.739 Y91.152 E33.53297
G1 X103.662 Y91.298 E33.54118
G1 X103.565 Y91.416 E33.54877
G1 X103.447 Y91.513 E33.55637
G1 X103.301 Y91.59 E33.56458
G1 X103.157 Y91.634 E33.57206
G1 X103 Y91.649 E33.57991
G1 X102.842 Y91.634 E33.5878
G1 X102.698 Y91.59 E33.59529
G1 X102.552 Y91.513 E33.60349
G1 X102.434 Y91.416 E33.61109
G1 X102.337 Y91.298 E33.61868
G1 X102.26 Y91.152 E33.62689
G1 X102.216 Y91.008 E33.63438
G1 X102.201 Y90.85 E33.64227
G1 X102.216 Y90.693 E33.65011
G1 X102.26 Y90.549 E33.6576
G1 X102.337 Y90.403 E33.66581
G1 X102.434 Y90.285 E33.6734
G1 X102.552 Y90.188 E33.681
G1 X102.698 Y90.111 E33.68921
G0 F3600 X102.999 Y90.844
G1 F1500 E27.18921
G0 F3600 X103.357 Y90.85
G0 X104.654 Y90.721
G0 X119.345 Y90.977
G0 X120.643 Y90.851
G0 X120.703 Y90.851
G0 X120.603 Y90.851
;TYPE:WALL-INNER
G1 F1500 E33.68921
G1 F1800 X120.61 Y90.774 E33.69305
G1 X120.632 Y90.702 E33.69679
G1 X120.673 Y90.624 E33.70117
G1 X120.718 Y90.569 E33.70471
G1 X120.773 Y90.524 E33.70824
G1 X120.851 Y90.483 E33.71262
G1 X120.923 Y90.461 E33.71637
G1 X121 Y90.454 E33.72021
G1 X121.075 Y90.461 E33.72396
G1 X121.148 Y90.483 E33.72775
G1 X121.226 Y90.524 E33.73213
G1 X121.281 Y90.569 E33.73566
G1 X121.326 Y90.624 E33.7392
G1 X121.367 Y90.702 E33.74358
G1 X121.389 Y90.775 E33.74737
G1 X121.397 Y90.85 E33.75112
G1 X121.389 Y90.927 E33.75497
G1 X121.367 Y90.999 E33.75871
G1 X121.326 Y91.077 E33.76309
G1 X121.281 Y91.132 E33.76663
G1 X121.226 Y91.177 E33.77016
G1 X121.148 Y91.218 E33.77454
G1 X121.076 Y91.24 E33.77829
G1 X120.999 Y91.248 E33.78214
G1 X120.924 Y91.24 E33.78589
G1 X120.851 Y91.218 E33.78968
