;FLAVOR:RepRap
;TIME:855
;Generated with Cura_SteamEngine 2.3.1
M190 S60
M104 S200
M109 S200
G21 ;metric values
G90 ;absolute positioning
G92 E0 ;zero the extruded length
M107 ;start with the fan off
G1 X90 Y200 F6000 ;go to the middle of the front

G92 E0 ;zero the extruded length
G1 X150 E10 F300 ; make a thick line to prime extruder
G92 E0 ; reset extruder
;LAYER_COUNT:10
;LAYER:0
M107
G1 F1500 E-6.5
G0 F3600 X89.169 Y62.872 Z.299
;TYPE:SKIRT
G1 F1500 E0
G1 F1800 X90.367 Y61.415 E0.09379
G1 X90.863 Y60.919 E0.12867
G1 X92.332 Y59.712 E0.22321
G1 X92.918 Y59.32 E0.25827
G1 X94.594 Y58.423 E0.35279
G1 X95.253 Y58.151 E0.38824
G1 X97.082 Y57.599 E0.48324
G1 X97.771 Y57.462 E0.51817
G1 X99.628 Y57.28 E0.61095
G1 X100.326 Y57.28 E0.64565
G1 X102.248 Y57.466 E0.74167
G1 X102.958 Y57.608 E0.77767
G1 X104.797 Y58.173 E0.87333
G1 X105.455 Y58.449 E0.90881
G1 X107.147 Y59.366 E1.00451
G1 X107.727 Y59.758 E1.03932
G1 X109.171 Y60.953 E1.13252
G1 X109.661 Y61.445 E1.16704
G1 X110.839 Y62.883 E1.25947
G1 X111.228 Y63.466 E1.29432
G1 X112.123 Y65.139 E1.38867
G1 X112.393 Y65.79 E1.42371
G1 X112.946 Y67.609 E1.51825
G1 X113.064 Y68.132 E1.54491
G1 X113.094 Y68.413 E1.55896
G1 X113.291 Y71.329 E1.70428
G1 X113.299 Y71.572 E1.71637
G1 X113.293 Y129.257 E4.5847
G1 X113.278 Y129.585 E4.60102
G1 X113.088 Y131.663 E4.70478
G1 X112.949 Y132.378 E4.741
G1 X112.397 Y134.202 E4.83576
G1 X112.125 Y134.857 E4.87102
G1 X111.231 Y136.528 E4.96526
G1 X110.839 Y137.115 E5.00035
G1 X109.625 Y138.593 E5.09546
G1 X109.127 Y139.091 E5.13048
G1 X107.671 Y140.286 E5.22414
G1 X107.085 Y140.677 E5.25917
G1 X105.403 Y141.577 E5.35402
G1 X104.748 Y141.849 E5.38929
G1 X102.934 Y142.398 E5.48353
G1 X102.245 Y142.535 E5.51846
G1 X100.352 Y142.722 E5.61304
G1 X99.645 Y142.722 E5.6482
G1 X97.759 Y142.536 E5.74243
G1 X97.07 Y142.399 E5.77736
G1 X95.252 Y141.849 E5.87181
G1 X94.596 Y141.577 E5.90712
G1 X92.914 Y140.677 E6.00198
G1 X92.325 Y140.283 E6.03721
G1 X90.855 Y139.074 E6.13185
G1 X90.358 Y138.577 E6.1668
G1 X89.164 Y137.121 E6.26043
G1 X88.774 Y136.537 E6.29535
G1 X87.871 Y134.85 E6.39049
G1 X87.599 Y134.194 E6.4258
G1 X87.051 Y132.383 E6.51989
G1 X86.912 Y131.673 E6.55586
G1 X86.73 Y129.716 E6.65359
G1 X86.733 Y129.022 E6.6881
G1 X86.918 Y127.185 E6.7799
G1 X87.014 Y126.649 E6.80698
G1 X88.353 Y121.445 E7.07417
G1 X88.92 Y118.795 E7.20892
G1 X89.406 Y116.145 E7.34289
G1 X90.169 Y110.723 E7.61515
G1 X90.622 Y105.284 E7.88653
G1 X90.768 Y99.823 E8.15817
G1 X90.605 Y94.401 E8.4279
G1 X90.131 Y88.941 E8.70041
G1 X89.355 Y83.552 E8.97114
G1 X88.271 Y78.198 E9.24276
G1 X87.621 Y75.564 E9.37766
G1 X87.019 Y73.354 E9.49156
G1 X86.909 Y72.758 E9.52169
G1 X86.727 Y70.896 E9.61472
G1 X86.727 Y70.193 E9.64967
G1 X86.912 Y68.315 E9.74351
G1 X87.053 Y67.614 E9.77906
G1 X87.622 Y65.756 E9.87568
G1 X87.891 Y65.109 E9.91053
G1 X88.777 Y63.457 E10.00374
G1 X89.169 Y62.872 E10.03875
G0 F3600 X89.478 Y63.126
G1 F1800 X90.676 Y61.669 E10.13255
G1 X91.117 Y61.229 E10.16352
G1 X92.586 Y60.022 E10.25806
G1 X93.107 Y59.673 E10.28924
G1 X94.783 Y58.776 E10.38376
G1 X95.368 Y58.533 E10.41526
G1 X97.197 Y57.981 E10.51026
G1 X97.81 Y57.86 E10.54133
G1 X99.667 Y57.678 E10.63411
G1 X100.287 Y57.678 E10.66494
G1 X102.209 Y57.864 E10.76095
G1 X102.841 Y57.99 E10.793
G1 X104.68 Y58.555 E10.88866
G1 X105.265 Y58.801 E10.92021
G1 X106.957 Y59.718 E11.01591
G1 X107.472 Y60.066 E11.04681
G1 X108.916 Y61.261 E11.14001
G1 X109.351 Y61.698 E11.17067
G1 X110.529 Y63.136 E11.2631
G1 X110.876 Y63.655 E11.29415
G1 X111.771 Y65.328 E11.38849
G1 X112.011 Y65.906 E11.41961
G1 X112.564 Y67.725 E11.51415
G1 X112.695 Y68.44 E11.55029
G1 X112.892 Y71.356 E11.69562
G1 X112.899 Y71.572 E11.70636
G1 X112.893 Y129.257 E14.57469
G1 X112.88 Y129.548 E14.58917
G1 X112.69 Y131.626 E14.69293
G1 X112.566 Y132.262 E14.72515
G1 X112.014 Y134.086 E14.81991
G1 X111.773 Y134.669 E14.85127
G1 X110.879 Y136.34 E14.94551
G1 X110.53 Y136.861 E14.97669
G1 X109.316 Y138.339 E15.07179
G1 X108.873 Y138.782 E15.10295
G1 X107.417 Y139.977 E15.19661
G1 X106.897 Y140.324 E15.22769
G1 X105.215 Y141.224 E15.32255
G1 X104.632 Y141.466 E15.35393
G1 X102.818 Y142.015 E15.44817
G1 X102.206 Y142.136 E15.47919
G1 X100.313 Y142.323 E15.57378
G1 X99.684 Y142.324 E15.60505
G1 X97.798 Y142.138 E15.69929
G1 X97.185 Y142.016 E15.73037
G1 X95.367 Y141.466 E15.82481
G1 X94.784 Y141.224 E15.8562
G1 X93.102 Y140.324 E15.95105
G1 X92.579 Y139.974 E15.98235
G1 X91.109 Y138.765 E16.07699
G1 X90.668 Y138.323 E16.10803
G1 X89.474 Y136.867 E16.20166
G1 X89.127 Y136.348 E16.2327
G1 X88.224 Y134.661 E16.32785
G1 X87.982 Y134.078 E16.35924
G1 X87.434 Y132.267 E16.45332
G1 X87.311 Y131.636 E16.48529
G1 X87.129 Y129.679 E16.58302
G1 X87.131 Y129.062 E16.6137
G1 X87.316 Y127.225 E16.7055
G1 X87.401 Y126.748 E16.72959
G1 X88.744 Y121.531 E16.99746
G1 X89.319 Y118.84 E17.13429
G1 X89.799 Y116.227 E17.26639
G1 X90.568 Y110.76 E17.54091
G1 X91.021 Y105.31 E17.81284
G1 X91.167 Y99.84 E18.08492
G1 X91.002 Y94.355 E18.35778
G1 X90.529 Y88.901 E18.62999
G1 X89.75 Y83.488 E18.90192
G1 X88.662 Y78.115 E19.17451
G1 X88.014 Y75.489 E19.309
G1 X87.404 Y73.249 E19.42444
G1 X87.307 Y72.719 E19.45123
G1 X87.125 Y70.857 E19.54426
G1 X87.125 Y70.232 E19.57534
G1 X87.31 Y68.354 E19.66917
G1 X87.435 Y67.731 E19.70076
G1 X88.004 Y65.873 E19.79739
G1 X88.244 Y65.298 E19.82837
G1 X89.13 Y63.646 E19.92158
G1 X89.478 Y63.126 E19.95269
G1 F1500 E13.45269
G0 F3600 X91.46 Y64.694
G0 X92.469 Y65.521
G0 X92.519 Y65.554
G0 X92.436 Y65.499
;TYPE:WALL-INNER
G1 F1500 E19.95269
G1 F1800 X93.568 Y64.118 E20.04148
G1 X94.948 Y62.986 E20.13024
G1 X96.519 Y62.145 E20.21884
G1 X98.225 Y61.628 E20.30748
G1 X100 Y61.454 E20.39616
G1 X101.775 Y61.628 E20.48484
G1 X103.481 Y62.145 E20.57348
G1 X105.052 Y62.986 E20.66209
G1 X106.432 Y64.118 E20.75084
G1 X107.564 Y65.499 E20.83963
G1 X108.405 Y67.07 E20.92824
G1 X108.922 Y68.775 E21.01683
G1 X109.099 Y70.58 E21.10701
G1 X109.1 Y129.417 E24.03261
G1 X108.922 Y131.225 E24.12295
G1 X108.405 Y132.93 E24.21154
G1 X107.564 Y134.501 E24.30015
G1 X106.432 Y135.882 E24.38894
G1 X105.053 Y137.013 E24.47762
G1 X103.481 Y137.855 E24.56629
G1 X101.775 Y138.372 E24.65493
G1 X100 Y138.546 E24.74361
G1 X98.225 Y138.372 E24.83229
G1 X96.519 Y137.855 E24.92093
G1 X94.947 Y137.013 E25.00961
G1 X93.568 Y135.882 E25.09829
G1 X92.436 Y134.501 E25.18708
G1 X91.595 Y132.93 E25.27568
G1 X91.078 Y131.225 E25.36427
G1 X90.904 Y129.449 E25.45301
G1 X91.078 Y127.674 E25.54169
G1 X91.595 Y125.968 E25.63033
G1 X92.449 Y124.37 E25.72042
G1 X93.953 Y121.874 E25.86532
G1 X95.298 Y119.148 E26.01647
G1 X96.457 Y116.241 E26.17208
G1 X97.419 Y113.18 E26.33163
G1 X98.176 Y109.996 E26.49436
G1 X98.723 Y106.717 E26.65966
G1 X99.053 Y103.374 E26.82669
G1 X99.163 Y100 E26.99455
G1 X99.053 Y96.626 E27.16241
G1 X98.723 Y93.283 E27.32944
G1 X98.176 Y90.004 E27.49474
G1 X97.419 Y86.82 E27.65748
G1 X96.457 Y83.759 E27.81702
G1 X95.298 Y80.852 E27.97263
G1 X93.953 Y78.126 E28.12378
G1 X92.449 Y75.63 E28.26868
G1 X91.595 Y74.032 E28.35878
G1 X91.078 Y72.326 E28.44741
G1 X90.903 Y70.551 E28.5361
G1 X91.078 Y68.775 E28.62484
G1 X91.595 Y67.07 E28.71343
G1 X92.436 Y65.499 E28.80204
G0 F3600 X92.519 Y65.554
G0 X93.636 Y68.89
G0 X93.657 Y68.987
G1 F1800 X93.361 Y69.083 E28.81751
G1 X93.085 Y69.236 E28.8332
G1 X92.846 Y69.442 E28.84889
G1 X92.652 Y69.687 E28.86443
G1 X92.51 Y69.967 E28.88004
G1 X92.424 Y70.269 E28.89565
G1 X92.4 Y70.583 E28.91131
G1 X92.437 Y70.894 E28.92689
G1 X92.533 Y71.19 E28.94236
G1 X92.686 Y71.465 E28.95801
G1 X92.891 Y71.705 E28.9737
G1 X93.136 Y71.898 E28.98921
G1 X93.416 Y72.042 E29.00487
G1 X93.72 Y72.128 E29.02057
G1 X94.033 Y72.152 E29.03618
G1 X94.344 Y72.115 E29.05176
G1 X94.642 Y72.018 E29.06734
G1 X94.916 Y71.865 E29.08294
G1 X95.155 Y71.66 E29.0986
G1 X95.349 Y71.413 E29.11422
G1 X95.491 Y71.134 E29.12978
G1 X95.577 Y70.835 E29.14526
G1 X95.602 Y70.519 E29.16102
G1 X95.563 Y70.207 E29.17665
G1 X95.468 Y69.911 E29.19211
G1 X95.315 Y69.635 E29.2078
G1 X95.11 Y69.397 E29.22342
G1 X94.865 Y69.203 E29.23896
G1 X94.584 Y69.06 E29.25464
G1 X94.283 Y68.974 E29.2702
G1 X93.968 Y68.95 E29.28591
G1 X93.657 Y68.987 E29.30148
G0 F3600 X93.636 Y68.89
G0 X94.29 Y68.935
G0 X97.84 Y70.12
G0 X97.938 Y70.139
G1 F1800 X97.897 Y70.551 E29.32207
G1 X97.938 Y70.961 E29.34256
G1 X98.058 Y71.356 E29.36309
G1 X98.252 Y71.72 E29.3836
G1 X98.514 Y72.037 E29.40405
G1 X98.831 Y72.299 E29.4245
G1 X99.195 Y72.495 E29.44505
G1 X99.591 Y72.613 E29.4656
G1 X100 Y72.654 E29.48604
G1 X100.409 Y72.613 E29.50648
G1 X100.805 Y72.495 E29.52702
G1 X101.169 Y72.299 E29.54758
G1 X101.486 Y72.037 E29.56803
G1 X101.748 Y71.72 E29.58848
G1 X101.942 Y71.356 E29.60899
G1 X102.062 Y70.96 E29.62956
G1 X102.102 Y70.551 E29.65
G1 X102.062 Y70.141 E29.67048
G1 X101.942 Y69.746 E29.69101
G1 X101.748 Y69.382 E29.71152
G1 X101.486 Y69.063 E29.73204
G1 X101.169 Y68.803 E29.75243
G1 X100.805 Y68.607 E29.77299
G1 X100.409 Y68.489 E29.79353
G1 X100 Y68.448 E29.81397
G1 X99.591 Y68.489 E29.83441
G1 X99.195 Y68.607 E29.85496
G1 X98.831 Y68.803 E29.87551
G1 X98.514 Y69.063 E29.8959
G1 X98.252 Y69.382 E29.91643
G1 X98.058 Y69.746 E29.93693
G1 X97.938 Y70.139 E29.95737
G0 F3600 X97.84 Y70.12
G0 X99.38 Y66.135
G0 X99.416 Y66.042
G1 F1800 X99.718 Y66.128 E29.97298
G1 X100.032 Y66.152 E29.98864
G1 X100.343 Y66.115 E30.00421
G1 X100.641 Y66.018 E30.0198
G1 X100.915 Y65.865 E30.0354
G1 X101.154 Y65.66 E30.05106
G1 X101.348 Y65.413 E30.06667
G1 X101.49 Y65.134 E30.08224
G1 X101.576 Y64.833 E30.09781
G1 X101.6 Y64.519 E30.11347
G1 X101.563 Y64.208 E30.12904
G1 X101.467 Y63.911 E30.14456
G1 X101.314 Y63.635 E30.16025
G1 X101.109 Y63.397 E30.17587
G1 X100.864 Y63.203 E30.19141
G1 X100.583 Y63.06 E30.20709
G1 X100.282 Y62.974 E30.22265
G1 X99.968 Y62.95 E30.23831
G1 X99.657 Y62.987 E30.25388
G1 X99.361 Y63.083 E30.26936
G1 X99.085 Y63.236 E30.28505
G1 X98.846 Y63.442 E30.30074
G1 X98.652 Y63.687 E30.31628
G1 X98.51 Y63.967 E30.33189
G1 X98.424 Y64.267 E30.34741
G1 X98.399 Y64.583 E30.36317
G1 X98.438 Y64.895 E30.3788
G1 X98.533 Y65.19 E30.39421
G1 X98.686 Y65.465 E30.40986
G1 X98.891 Y65.705 E30.42555
G1 X99.136 Y65.898 E30.44106
G1 X99.416 Y66.042 E30.45672
G0 F3600 X99.38 Y66.135
G0 X104.567 Y69.634
G0 X104.651 Y69.687
G1 F1800 X104.509 Y69.967 E30.47233
G1 X104.423 Y70.267 E30.48785
G1 X104.398 Y70.583 E30.50361
G1 X104.437 Y70.895 E30.51924
G1 X104.532 Y71.19 E30.53465
G1 X104.685 Y71.465 E30.5503
G1 X104.89 Y71.705 E30.566
G1 X105.135 Y71.898 E30.58151
G1 X105.415 Y72.042 E30.59716
G1 X105.718 Y72.128 E30.61282
G1 X106.032 Y72.152 E30.62848
G1 X106.343 Y72.115 E30.64405
G1 X106.641 Y72.018 E30.65964
G1 X106.915 Y71.865 E30.67524
G1 X107.154 Y71.66 E30.6909
G1 X107.348 Y71.413 E30.70652
G1 X107.49 Y71.134 E30.72208
G1 X107.576 Y70.833 E30.73765
G1 X107.6 Y70.519 E30.75331
G1 X107.563 Y70.208 E30.76888
G1 X107.467 Y69.911 E30.7844
G1 X107.314 Y69.635 E30.80009
G1 X107.109 Y69.397 E30.81571
G1 X106.864 Y69.203 E30.83125
G1 X106.582 Y69.06 E30.84697
G1 X106.281 Y68.974 E30.86254
G1 X105.967 Y68.95 E30.8782
G1 X105.656 Y68.987 E30.89377
G1 X105.36 Y69.083 E30.90924
G1 X105.084 Y69.236 E30.92493
G1 X104.845 Y69.442 E30.94062
G1 X104.651 Y69.687 E30.95616
G0 F3600 X104.567 Y69.634
G0 X100.917 Y75.119
G0 X100.864 Y75.203
G1 F1800 X100.583 Y75.06 E30.97184
G1 X100.282 Y74.974 E30.98741
G1 X99.968 Y74.95 E31.00307
G1 X99.657 Y74.987 E31.01864
G1 X99.361 Y75.083 E31.03411
G1 X99.085 Y75.236 E31.0498
G1 X98.846 Y75.442 E31.06549
G1 X98.652 Y75.687 E31.08103
G1 X98.51 Y75.967 E31.09664
G1 X98.424 Y76.267 E31.11216
G1 X98.399 Y76.583 E31.12792
G1 X98.438 Y76.895 E31.14356
G1 X98.533 Y77.19 E31.15897
G1 X98.686 Y77.465 E31.17461
G1 X98.891 Y77.705 E31.19031
G1 X99.136 Y77.898 E31.20582
G1 X99.416 Y78.042 E31.22147
G1 X99.718 Y78.128 E31.23709
G1 X100.032 Y78.152 E31.25275
G1 X100.343 Y78.115 E31.26832
G1 X100.641 Y78.018 E31.2839
G1 X100.915 Y77.865 E31.29951
G1 X101.154 Y77.66 E31.31516
G1 X101.348 Y77.413 E31.33078
G1 X101.49 Y77.134 E31.34635
G1 X101.576 Y76.833 E31.36191
G1 X101.6 Y76.519 E31.37757
G1 X101.563 Y76.208 E31.39314
G1 X101.467 Y75.911 E31.40867
G1 X101.314 Y75.635 E31.42436
G1 X101.109 Y75.397 E31.43998
G1 X100.864 Y75.203 E31.45551
G0 F3600 X100.917 Y75.119
G0 X101.346 Y75.613
G0 X101.602 Y76.2
G0 X101.615 Y76.84
G0 X99.966 Y121.749
G0 X99.968 Y121.848
G1 F1800 X99.657 Y121.885 E31.47109
G1 X99.359 Y121.982 E31.48667
G1 X99.085 Y122.135 E31.50228
G1 X98.846 Y122.34 E31.51793
G1 X98.652 Y122.587 E31.53355
G1 X98.51 Y122.866 E31.54912
G1 X98.424 Y123.165 E31.56459
G1 X98.399 Y123.481 E31.58035
G1 X98.438 Y123.793 E31.59598
G1 X98.533 Y124.089 E31.61144
G1 X98.686 Y124.365 E31.62713
G1 X98.891 Y124.603 E31.64275
G1 X99.136 Y124.797 E31.65829
G1 X99.417 Y124.94 E31.67397
G1 X99.718 Y125.026 E31.68953
G1 X100.032 Y125.05 E31.70519
G1 X100.343 Y125.013 E31.72077
G1 X100.639 Y124.917 E31.73624
G1 X100.915 Y124.764 E31.75193
G1 X101.154 Y124.558 E31.76762
G1 X101.348 Y124.313 E31.78316
G1 X101.49 Y124.033 E31.79877
G1 X101.576 Y123.731 E31.81438
G1 X101.6 Y123.417 E31.83004
G1 X101.563 Y123.106 E31.84561
G1 X101.467 Y122.81 E31.86109
G1 X101.314 Y122.535 E31.87674
G1 X101.109 Y122.295 E31.89243
G1 X100.864 Y122.102 E31.90794
G1 X100.584 Y121.958 E31.92359
G1 X100.282 Y121.872 E31.93921
G1 X99.968 Y121.848 E31.95487
G0 F3600 X99.966 Y121.749
G0 X99.343 Y121.946
G0 X98.818 Y122.313
G0 X98.473 Y122.852
G0 X98.36 Y123.481
G0 X98.497 Y124.104
G0 X100 Y127.246
G0 X100 Y127.346
G1 F1800 X99.591 Y127.387 E31.97531
G1 X99.195 Y127.505 E31.99585
G1 X98.831 Y127.701 E32.01641
G1 X98.514 Y127.963 E32.03686
G1 X98.252 Y128.28 E32.05731
G1 X98.058 Y128.644 E32.07782
G1 X97.938 Y129.039 E32.09834
G1 X97.897 Y129.449 E32.11883
G1 X97.938 Y129.861 E32.13942
G1 X98.058 Y130.254 E32.15985
G1 X98.252 Y130.618 E32.18036
G1 X98.514 Y130.937 E32.20089
G1 X98.831 Y131.197 E32.22127
G1 X99.195 Y131.393 E32.24183
G1 X99.591 Y131.511 E32.26238
G1 X100 Y131.552 E32.28282
G1 X100.409 Y131.511 E32.30326
G1 X100.805 Y131.393 E32.3238
G1 X101.169 Y131.197 E32.34436
G1 X101.486 Y130.937 E32.36474
G1 X101.748 Y130.618 E32.38527
G1 X101.942 Y130.254 E32.40578
G1 X102.062 Y129.859 E32.42631
G1 X102.102 Y129.449 E32.44679
G1 X102.062 Y129.04 E32.46722
G1 X101.942 Y128.644 E32.4878
G1 X101.748 Y128.28 E32.50831
G1 X101.486 Y127.963 E32.52876
G1 X101.169 Y127.701 E32.54921
G1 X100.805 Y127.505 E32.56976
G1 X100.409 Y127.387 E32.59031
G1 X100 Y127.346 E32.61075
G0 F3600 X100 Y127.246
G0 X99.18 Y127.469
G0 X95.559 Y128.771
G0 X95.468 Y128.81
G1 F1800 X95.315 Y128.535 E32.6264
G1 X95.11 Y128.295 E32.64209
G1 X94.865 Y128.102 E32.6576
G1 X94.585 Y127.958 E32.67326
G1 X94.282 Y127.872 E32.68892
G1 X93.968 Y127.848 E32.70458
G1 X93.657 Y127.885 E32.72015
G1 X93.359 Y127.982 E32.73573
G1 X93.085 Y128.135 E32.75134
G1 X92.846 Y128.34 E32.76699
G1 X92.652 Y128.587 E32.78261
G1 X92.51 Y128.866 E32.79818
G1 X92.424 Y129.167 E32.81374
G1 X92.4 Y129.481 E32.8294
G1 X92.437 Y129.792 E32.84498
G1 X92.533 Y130.089 E32.8605
G1 X92.686 Y130.365 E32.87619
G1 X92.891 Y130.603 E32.89181
G1 X93.136 Y130.797 E32.90735
G1 X93.418 Y130.94 E32.92307
G1 X93.719 Y131.026 E32.93863
G1 X94.033 Y131.05 E32.95429
G1 X94.344 Y131.013 E32.96987
G1 X94.64 Y130.917 E32.98534
G1 X94.916 Y130.764 E33.00103
G1 X95.155 Y130.558 E33.01672
G1 X95.349 Y130.313 E33.03226
G1 X95.491 Y130.033 E33.04787
G1 X95.577 Y129.733 E33.06339
G1 X95.602 Y129.417 E33.07915
G1 X95.563 Y129.105 E33.09478
G1 X95.468 Y128.81 E33.11019
G0 F3600 X95.559 Y128.771
G0 X99.028 Y134.053
