;FLAVOR:RepRap
;TIME:2928
;Generated with Cura_SteamEngine 2.3.1
M190 S60
M104 S200
M109 S200
G21 ;metric values
G90 ;absolute positioning
G92 E0 ;zero the extruded length
M107 ;start with the fan off
G1 X90 Y200 F6000 ;go to the middle of the front

G92 E0 ;zero the extruded length
G1 X150 E10 F300 ; make a thick line to prime extruder
G92 E0 ; reset extruder
;LAYER_COUNT:235
;LAYER:0
M107
G1 F1500 E-6.5
G0 F3600 X72.314 Y41.83 Z.299
;TYPE:SKIRT
G1 F1500 E0
G1 F1800 X72.581 Y41.365 E0.02666
G1 X72.915 Y40.945 E0.05334
G1 X73.307 Y40.579 E0.08001
G1 X73.749 Y40.276 E0.10666
G1 X74.232 Y40.042 E0.13334
G1 X74.753 Y39.879 E0.16049
G1 X80.442 Y38.572 E0.45074
G1 X83.031 Y37.857 E0.58429
G1 X88.245 Y36.176 E0.85669
G1 X93.319 Y34.217 E1.12714
G1 X98.514 Y31.861 E1.41078
G1 X99.018 Y31.677 E1.43746
G1 X99.543 Y31.569 E1.46411
G1 X100.001 Y31.54 E1.48693
G1 X123.991 Y31.539 E2.67981
G1 X124.526 Y31.579 E2.70649
G1 X125.049 Y31.698 E2.73316
G1 X125.548 Y31.893 E2.75979
G1 X126.013 Y32.16 E2.78646
G1 X126.433 Y32.494 E2.81314
G1 X126.799 Y32.886 E2.83981
G1 X127.102 Y33.328 E2.86645
G1 X127.337 Y33.81 E2.89312
G1 X127.497 Y34.322 E2.91979
G1 X127.58 Y34.852 E2.94646
G1 X127.591 Y35.139 E2.96075
G1 X127.591 Y80.12 E5.19738
G1 X127.551 Y80.655 E5.22405
G1 X127.432 Y81.178 E5.25072
G1 X127.237 Y81.677 E5.27736
G1 X126.969 Y82.142 E5.30405
G1 X126.636 Y82.562 E5.3307
G1 X126.244 Y82.928 E5.35737
G1 X125.802 Y83.231 E5.38401
G1 X125.319 Y83.466 E5.41072
G1 X124.808 Y83.626 E5.43735
G1 X124.278 Y83.709 E5.46402
G1 X123.991 Y83.72 E5.4783
G1 X99.989 Y83.718 E6.67178
G1 X99.608 Y83.698 E6.69075
G1 X92.442 Y82.935 E7.04908
G1 X87.009 Y82.706 E7.31947
G1 X75.606 Y82.857 E7.88653
G1 X75.07 Y82.824 E7.91323
G1 X74.546 Y82.712 E7.93987
G1 X74.044 Y82.523 E7.96654
G1 X73.575 Y82.262 E7.99323
G1 X73.151 Y81.934 E8.01989
G1 X72.78 Y81.547 E8.04654
G1 X72.471 Y81.109 E8.0732
G1 X72.23 Y80.63 E8.09986
G1 X72.063 Y80.12 E8.12654
G1 X71.974 Y79.591 E8.15322
G1 X71.958 Y79.215 E8.17193
G1 X71.998 Y75.795 E8.342
G1 X72.006 Y75.594 E8.352
G1 X72.314 Y71.039 E8.57901
G1 X72.4 Y66.961 E8.78183
G1 X72.36 Y52.977 E9.47717
G1 X71.965 Y46.489 E9.80038
G1 X71.958 Y46.269 E9.81132
G1 X71.959 Y43.387 E9.95463
G1 X71.999 Y42.852 E9.9813
G1 X72.118 Y42.329 E10.00797
G1 X72.314 Y41.83 E10.03463
G0 F3600 X72.713 Y41.925
G1 F1800 X72.979 Y41.495 E10.05977
G1 X73.309 Y41.112 E10.08491
G1 X73.696 Y40.786 E10.11007
G1 X74.129 Y40.525 E10.13521
G1 X74.597 Y40.336 E10.16031
G1 X74.842 Y40.269 E10.17294
G1 X80.53 Y38.962 E10.46314
G1 X83.141 Y38.241 E10.59783
G1 X88.385 Y36.55 E10.8718
G1 X93.485 Y34.581 E11.14364
G1 X98.679 Y32.226 E11.42721
G1 X99.155 Y32.054 E11.45237
G1 X99.651 Y31.959 E11.47749
G1 X100.001 Y31.94 E11.49491
G1 X123.991 Y31.939 E12.68779
G1 X124.495 Y31.979 E12.71293
G1 X124.986 Y32.098 E12.73805
G1 X125.453 Y32.292 E12.7632
G1 X125.883 Y32.558 E12.78834
G1 X126.266 Y32.888 E12.81348
G1 X126.592 Y33.275 E12.83864
G1 X126.853 Y33.708 E12.86378
G1 X127.043 Y34.176 E12.88889
G1 X127.156 Y34.669 E12.91404
G1 X127.191 Y35.139 E12.93748
G1 X127.191 Y80.12 E15.17411
G1 X127.151 Y80.624 E15.19925
G1 X127.032 Y81.115 E15.22437
G1 X126.838 Y81.582 E15.24951
G1 X126.572 Y82.012 E15.27466
G1 X126.242 Y82.395 E15.29979
G1 X125.855 Y82.721 E15.32495
G1 X125.422 Y82.982 E15.35009
G1 X124.954 Y83.172 E15.37521
G1 X124.461 Y83.285 E15.40036
G1 X123.991 Y83.32 E15.42379
G1 X99.989 Y83.318 E16.61727
G1 X99.65 Y83.3 E16.63415
G1 X92.47 Y82.536 E16.99318
G1 X87.02 Y82.306 E17.26442
G1 X75.6 Y82.457 E17.83231
G1 X75.096 Y82.423 E17.85743
G1 X74.603 Y82.311 E17.88257
G1 X74.134 Y82.123 E17.90769
G1 X73.7 Y81.863 E17.93285
G1 X73.313 Y81.537 E17.95801
G1 X72.982 Y81.155 E17.98314
G1 X72.715 Y80.726 E18.00827
G1 X72.519 Y80.26 E18.03341
G1 X72.399 Y79.769 E18.05854
G1 X72.358 Y79.22 E18.08591
G1 X72.398 Y75.8 E18.25598
G1 X72.405 Y75.621 E18.26489
G1 X72.714 Y71.052 E18.4926
G1 X72.8 Y66.969 E18.69566
G1 X72.76 Y52.969 E19.3918
G1 X72.364 Y46.465 E19.71581
G1 X72.358 Y46.269 E19.72556
G1 X72.359 Y43.387 E19.86886
G1 X72.399 Y42.883 E19.894
G1 X72.518 Y42.392 E19.91912
G1 X72.713 Y41.925 E19.94429
G1 F1500 E13.44429
G0 F3600 X75.335 Y44.457
G0 X76.628 Y44.457
G0 X76.67 Y44.499
G0 X76.6 Y44.429
;TYPE:WALL-INNER
G1 F1500 E19.94429
G1 F1800 X100.6 Y44.429 E21.13766
G1 X100.6 Y35.729 E21.57026
G1 X123.4 Y35.729 E22.70396
G1 X123.4 Y79.529 E24.88187
G1 X100.6 Y79.529 E26.01557
G1 X100.6 Y78.229 E26.08021
G1 X76.6 Y78.229 E27.27359
G1 X76.6 Y44.429 E28.95426
G0 F3600 X76.67 Y44.499
G0 X100.628 Y44.457
G0 X101.33 Y38.462
G0 X101.428 Y38.443
G1 F1800 X101.519 Y38.742 E28.9698
G1 X101.667 Y39.018 E28.98537
G1 X101.866 Y39.262 E29.00103
G1 X102.11 Y39.461 E29.01668
G1 X102.386 Y39.609 E29.03225
G1 X102.685 Y39.7 E29.04779
G1 X102.999 Y39.732 E29.06349
G1 X103.314 Y39.7 E29.07923
G1 X103.613 Y39.609 E29.09477
G1 X103.889 Y39.461 E29.11035
G1 X104.133 Y39.262 E29.126
G1 X104.332 Y39.018 E29.14166
G1 X104.48 Y38.742 E29.15723
G1 X104.571 Y38.441 E29.17287
G1 X104.602 Y38.129 E29.18846
G1 X104.571 Y37.816 E29.2041
G1 X104.48 Y37.515 E29.21973
G1 X104.344 Y37.26 E29.2341
G1 X104.155 Y37.02 E29.24929
G1 X103.915 Y36.815 E29.26499
G1 X103.641 Y36.663 E29.28057
G1 X103.319 Y36.557 E29.29742
G1 X102.999 Y36.526 E29.31341
G1 X102.687 Y36.557 E29.329
G1 X102.386 Y36.648 E29.34464
G1 X102.11 Y36.796 E29.36021
G1 X101.866 Y36.995 E29.37586
G1 X101.667 Y37.239 E29.39152
G1 X101.519 Y37.515 E29.40709
G1 X101.428 Y37.814 E29.42263
G1 X101.396 Y38.129 E29.43838
G1 X101.428 Y38.443 E29.45407
G0 F3600 X101.33 Y38.462
G0 X101.634 Y39.04
G0 X102.088 Y39.494
G0 X102.678 Y39.739
G0 X103.321 Y39.739
G0 X119.297 Y38.129
G0 X119.397 Y38.129
G1 F1800 X119.428 Y38.441 E29.46966
G1 X119.519 Y38.742 E29.4853
G1 X119.667 Y39.018 E29.50087
G1 X119.866 Y39.262 E29.51653
G1 X120.11 Y39.461 E29.53218
G1 X120.386 Y39.609 E29.54775
G1 X120.685 Y39.7 E29.5633
G1 X121 Y39.732 E29.57904
G1 X121.314 Y39.7 E29.59473
G1 X121.613 Y39.609 E29.61027
G1 X121.868 Y39.473 E29.62464
G1 X122.108 Y39.284 E29.63983
G1 X122.313 Y39.044 E29.65553
G1 X122.465 Y38.77 E29.67111
G1 X122.571 Y38.45 E29.68787
G1 X122.603 Y38.129 E29.70391
G1 X122.571 Y37.814 E29.71965
G1 X122.48 Y37.515 E29.7352
G1 X122.332 Y37.239 E29.75077
G1 X122.133 Y36.995 E29.76642
G1 X121.889 Y36.796 E29.78208
G1 X121.613 Y36.648 E29.79765
G1 X121.312 Y36.557 E29.81329
G1 X121 Y36.526 E29.82888
G1 X120.687 Y36.557 E29.84452
G1 X120.386 Y36.648 E29.86015
G1 X120.11 Y36.796 E29.87573
G1 X119.866 Y36.995 E29.89138
G1 X119.667 Y37.239 E29.90704
G1 X119.519 Y37.515 E29.92261
G1 X119.428 Y37.816 E29.93825
G1 X119.397 Y38.129 E29.95389
G0 F3600 X119.297 Y38.129
G0 X121 Y64.726
G0 X121 Y64.826
G1 F1800 X120.687 Y64.857 E29.96953
G1 X120.386 Y64.948 E29.98516
G1 X120.11 Y65.096 E30.00073
G1 X119.866 Y65.295 E30.01639
G1 X119.667 Y65.539 E30.03205
G1 X119.519 Y65.815 E30.04762
G1 X119.428 Y66.116 E30.06326
G1 X119.397 Y66.429 E30.0789
G1 X119.428 Y66.741 E30.09449
G1 X119.519 Y67.042 E30.11012
G1 X119.667 Y67.318 E30.12569
G1 X119.866 Y67.562 E30.14135
G1 X120.11 Y67.761 E30.15701
G1 X120.386 Y67.909 E30.17258
G1 X120.685 Y68 E30.18812
G1 X121 Y68.032 E30.20386
G1 X121.314 Y68 E30.21956
G1 X121.587 Y67.917 E30.23375
G1 X121.861 Y67.779 E30.249
G1 X122.109 Y67.584 E30.26469
G1 X122.313 Y67.344 E30.28035
G1 X122.465 Y67.07 E30.29593
G1 X122.571 Y66.75 E30.31269
G1 X122.603 Y66.429 E30.32873
G1 X122.571 Y66.114 E30.34448
G1 X122.48 Y65.815 E30.36002
G1 X122.332 Y65.539 E30.37559
G1 X122.133 Y65.295 E30.39124
G1 X121.889 Y65.096 E30.4069
G1 X121.613 Y64.948 E30.42247
G1 X121.312 Y64.857 E30.43811
G1 X121 Y64.826 E30.4537
G0 F3600 X121 Y64.726
G0 X120.371 Y64.912
G0 X119.838 Y65.267
G0 X119.483 Y65.8
G0 X119.357 Y66.429
G0 X121 Y75.426
G0 X121 Y75.526
G1 F1800 X120.687 Y75.557 E30.46934
G1 X120.386 Y75.648 E30.48498
G1 X120.11 Y75.796 E30.50055
G1 X119.866 Y75.995 E30.5162
G1 X119.667 Y76.239 E30.53186
G1 X119.519 Y76.515 E30.54743
G1 X119.428 Y76.816 E30.56307
G1 X119.397 Y77.129 E30.57871
G1 X119.428 Y77.441 E30.5943
G1 X119.519 Y77.742 E30.60993
G1 X119.667 Y78.018 E30.62551
G1 X119.866 Y78.262 E30.64116
G1 X120.11 Y78.461 E30.65682
G1 X120.386 Y78.609 E30.67239
G1 X120.662 Y78.693 E30.68674
G1 X120.965 Y78.729 E30.70191
G1 X121.28 Y78.706 E30.71761
G1 X121.582 Y78.62 E30.73323
G1 X121.861 Y78.478 E30.74879
G1 X122.108 Y78.284 E30.76441
G1 X122.313 Y78.044 E30.7801
G1 X122.465 Y77.77 E30.79569
G1 X122.571 Y77.45 E30.81245
G1 X122.603 Y77.129 E30.82849
G1 X122.571 Y76.814 E30.84423
G1 X122.48 Y76.515 E30.85977
G1 X122.332 Y76.239 E30.87534
G1 X122.133 Y75.995 E30.891
G1 X121.889 Y75.796 E30.90666
G1 X121.613 Y75.648 E30.92223
G1 X121.312 Y75.557 E30.93787
G1 X121 Y75.526 E30.95346
G0 F3600 X121 Y75.426
G0 X104.702 Y77.129
G0 X104.602 Y77.129
G1 F1800 X104.571 Y76.816 E30.96909
G1 X104.48 Y76.515 E30.98473
G1 X104.332 Y76.239 E31.0003
G1 X104.133 Y75.995 E31.01596
G1 X103.889 Y75.796 E31.03162
G1 X103.613 Y75.648 E31.04719
G1 X103.312 Y75.557 E31.06282
G1 X102.999 Y75.526 E31.07846
G1 X102.687 Y75.557 E31.09405
G1 X102.386 Y75.648 E31.10969
G1 X102.11 Y75.796 E31.12526
G1 X101.866 Y75.995 E31.14092
G1 X101.667 Y76.239 E31.15657
G1 X101.519 Y76.515 E31.17215
G1 X101.428 Y76.814 E31.18769
G1 X101.396 Y77.129 E31.20343
G1 X101.428 Y77.443 E31.21913
G1 X101.519 Y77.742 E31.23467
G1 X101.667 Y78.018 E31.25024
G1 X101.866 Y78.262 E31.26589
G1 X102.11 Y78.461 E31.28155
G1 X102.386 Y78.609 E31.29712
G1 X102.685 Y78.7 E31.31266
G1 X102.973 Y78.73 E31.32706
G1 X103.28 Y78.706 E31.34237
G1 X103.582 Y78.62 E31.35799
G1 X103.861 Y78.478 E31.37355
G1 X104.108 Y78.284 E31.38917
G1 X104.313 Y78.044 E31.40487
G1 X104.465 Y77.77 E31.42045
G1 X104.571 Y77.448 E31.4373
G1 X104.602 Y77.129 E31.45324
G0 F3600 X104.702 Y77.129
G0 X103.333 Y68.098
G0 X103.314 Y68
G1 F1800 X103.613 Y67.909 E31.46878
G1 X103.889 Y67.761 E31.48435
G1 X104.133 Y67.562 E31.50001
G1 X104.332 Y67.318 E31.51566
G1 X104.48 Y67.042 E31.53124
G1 X104.571 Y66.741 E31.54687
G1 X104.602 Y66.429 E31.56246
G1 X104.571 Y66.116 E31.5781
G1 X104.48 Y65.815 E31.59374
G1 X104.332 Y65.539 E31.60931
G1 X104.133 Y65.295 E31.62497
G1 X103.889 Y65.096 E31.64062
G1 X103.613 Y64.948 E31.6562
G1 X103.312 Y64.857 E31.67183
G1 X102.999 Y64.826 E31.68747
G1 X102.687 Y64.857 E31.70306
G1 X102.386 Y64.948 E31.7187
G1 X102.11 Y65.096 E31.73427
G1 X101.866 Y65.295 E31.74993
G1 X101.666 Y65.539 E31.76561
G1 X101.53 Y65.794 E31.77998
G1 X101.428 Y66.109 E31.79645
G1 X101.396 Y66.429 E31.81244
G1 X101.428 Y66.743 E31.82813
G1 X101.519 Y67.042 E31.84367
G1 X101.667 Y67.318 E31.85925
G1 X101.866 Y67.562 E31.8749
G1 X102.11 Y67.761 E31.89056
G1 X102.386 Y67.909 E31.90613
G1 X102.685 Y68 E31.92167
G1 X102.999 Y68.032 E31.93736
G1 X103.314 Y68 E31.95311
G0 F3600 X102.999 Y67.63
;TYPE:WALL-OUTER
G1 F1800 X103.235 Y67.606 E31.9649
G1 X103.459 Y67.538 E31.97654
G1 X103.666 Y67.427 E31.98822
G1 X103.849 Y67.278 E31.99996
G1 X103.998 Y67.095 E32.01169
G1 X104.109 Y66.888 E32.02337
G1 X104.177 Y66.663 E32.03506
G1 X104.2 Y66.429 E32.04675
G1 X104.177 Y66.194 E32.05849
G1 X104.109 Y65.969 E32.07018
G1 X103.998 Y65.762 E32.08186
G1 X103.849 Y65.579 E32.09359
G1 X103.666 Y65.43 E32.10533
G1 X103.459 Y65.319 E32.11701
G1 X103.234 Y65.251 E32.12869
G1 X102.999 Y65.228 E32.14043
G1 X102.765 Y65.251 E32.15213
G1 X102.54 Y65.319 E32.16381
G1 X102.333 Y65.43 E32.17549
G1 X102.15 Y65.579 E32.18723
G1 X102.001 Y65.762 E32.19896
G1 X101.9 Y65.951 E32.20962
G1 X101.822 Y66.192 E32.22221
G1 X101.798 Y66.429 E32.23406
G1 X101.822 Y66.664 E32.2458
G1 X101.89 Y66.888 E32.25744
G1 X102.001 Y67.095 E32.26912
G1 X102.15 Y67.278 E32.28086
G1 X102.333 Y67.427 E32.29259
G1 X102.54 Y67.538 E32.30427
G1 X102.764 Y67.606 E32.31591
G1 X102.999 Y67.63 E32.32766
G0 F3600 X102.949 Y68.126
G0 X103.047 Y75.431
G0 X102.999 Y75.928
G1 F1800 X102.765 Y75.951 E32.33935
G1 X102.54 Y76.019 E32.35103
G1 X102.333 Y76.13 E32.36271
G1 X102.15 Y76.279 E32.37445
G1 X102.001 Y76.462 E32.38618
G1 X101.89 Y76.669 E32.39786
G1 X101.822 Y76.893 E32.4095
G1 X101.798 Y77.129 E32.4213
G1 X101.822 Y77.364 E32.43304
G1 X101.89 Y77.588 E32.44468
G1 X102.001 Y77.795 E32.45636
G1 X102.15 Y77.978 E32.4681
G1 X102.333 Y78.127 E32.47983
G1 X102.54 Y78.238 E32.49151
G1 X102.764 Y78.306 E32.50315
G1 X102.978 Y78.328 E32.51385
G1 X103.209 Y78.31 E32.52537
G1 X103.435 Y78.246 E32.53705
G1 X103.645 Y78.139 E32.54877
G1 X103.83 Y77.994 E32.56046
G1 X103.983 Y77.815 E32.57216
G1 X104.097 Y77.609 E32.58387
G1 X104.177 Y77.365 E32.59664
G1 X104.2 Y77.129 E32.60843
G1 X104.177 Y76.894 E32.62017
G1 X104.109 Y76.669 E32.63186
G1 X103.998 Y76.462 E32.64354
G1 X103.849 Y76.279 E32.65527
G1 X103.666 Y76.13 E32.66701
G1 X103.459 Y76.019 E32.67869
G1 X103.234 Y75.951 E32.69037
G1 X102.999 Y75.928 E32.70211
G0 F3600 X103.047 Y75.431
G0 X102.371 Y75.612
G0 X101.838 Y75.967
G0 X101.483 Y76.5
G0 X100.7 Y78.629
G0 X100.2 Y78.629
G1 F1800 X76.2 Y78.629 E33.89549
G1 X76.2 Y44.029 E35.61593
G1 X100.2 Y44.029 E36.80931
G1 X100.2 Y35.329 E37.24191
G1 X123.8 Y35.329 E38.41539
G1 X123.8 Y79.929 E40.63308
G1 X100.2 Y79.929 E41.80656
G1 X100.2 Y78.629 E41.8712
G0 F3600 X100.7 Y78.629
G0 X103.287 Y78.745
G0 X119.302 Y77.081
G0 X119.799 Y77.129
G1 F1800 X119.822 Y77.363 E41.88289
G1 X119.89 Y77.588 E41.89458
G1 X120.001 Y77.795 E41.90626
G1 X120.15 Y77.978 E41.91799
G1 X120.333 Y78.127 E41.92973
G1 X120.54 Y78.238 E41.94141
G1 X120.744 Y78.3 E41.95201
G1 X120.974 Y78.327 E41.96352
G1 X121.21 Y78.31 E41.97529
G1 X121.435 Y78.246 E41.98692
G1 X121.645 Y78.139 E41.99864
G1 X121.83 Y77.994 E42.01033
G1 X121.983 Y77.815 E42.02204
G1 X122.097 Y77.609 E42.03374
G1 X122.177 Y77.366 E42.04647
G1 X122.201 Y77.129 E42.05831
G1 X122.177 Y76.893 E42.07011
G1 X122.109 Y76.669 E42.08175
G1 X121.998 Y76.462 E42.09342
G1 X121.849 Y76.279 E42.10516
G1 X121.666 Y76.13 E42.11689
G1 X121.459 Y76.019 E42.12857
G1 X121.234 Y75.951 E42.14026
G1 X121 Y75.928 E42.15195
G1 X120.765 Y75.951 E42.16369
G1 X120.54 Y76.019 E42.17538
G1 X120.333 Y76.13 E42.18706
G1 X120.15 Y76.279 E42.19879
G1 X120.001 Y76.462 E42.21053
G1 X119.89 Y76.669 E42.22221
G1 X119.822 Y76.894 E42.23389
G1 X119.799 Y77.129 E42.24564
G0 F3600 X119.302 Y77.081
G0 X120.95 Y68.126
G0 X121 Y67.63
G1 F1800 X121.235 Y67.606 E42.25738
G1 X121.438 Y67.544 E42.26794
G1 X121.645 Y67.44 E42.27945
G1 X121.83 Y67.294 E42.29117
G1 X121.983 Y67.115 E42.30288
G1 X122.097 Y66.909 E42.31459
G1 X122.177 Y66.666 E42.32731
G1 X122.201 Y66.429 E42.33915
G1 X122.177 Y66.193 E42.35095
G1 X122.109 Y65.969 E42.36259
G1 X121.998 Y65.762 E42.37427
G1 X121.849 Y65.579 E42.386
G1 X121.666 Y65.43 E42.39774
G1 X121.459 Y65.319 E42.40942
G1 X121.234 Y65.251 E42.4211
G1 X121 Y65.228 E42.4328
G1 X120.765 Y65.251 E42.44454
G1 X120.54 Y65.319 E42.45622
G1 X120.333 Y65.43 E42.4679
G1 X120.15 Y65.579 E42.47964
G1 X120.001 Y65.762 E42.49137
G1 X119.89 Y65.969 E42.50305
G1 X119.822 Y66.194 E42.51474
G1 X119.799 Y66.429 E42.52648
G1 X119.822 Y66.663 E42.53817
G1 X119.89 Y66.888 E42.54986
G1 X120.001 Y67.095 E42.56154
G1 X120.15 Y67.278 E42.57327
G1 X120.333 Y67.427 E42.58501
G1 X120.54 Y67.538 E42.59669
G1 X120.764 Y67.606 E42.60833
G1 X121 Y67.63 E42.62012
G0 F3600 X120.95 Y68.126
G0 X120.371 Y67.945
G0 X119.838 Y67.59
G0 X119.483 Y67.057
G0 X119.357 Y66.429
G0 X120.95 Y39.826
G0 X121 Y39.33
G1 F1800 X121.235 Y39.306 E42.63187
G1 X121.459 Y39.238 E42.64351
G1 X121.648 Y39.137 E42.65416
G1 X121.83 Y38.994 E42.66567
G1 X121.983 Y38.815 E42.67738
G1 X122.097 Y38.609 E42.68909
