;FLAVOR:RepRap
;TIME:142
;Generated with Cura_SteamEngine 2.3.1
M190 S60
M104 S200
M109 S200
G21 ;metric values
G90 ;absolute positioning
G92 E0 ;zero the extruded length
M107 ;start with the fan off
G1 X90 Y200 F6000 ;go to the middle of the front

G92 E0 ;zero the extruded length
G1 X150 E10 F300 ; make a thick line to prime extruder
G92 E0 ; reset extruder
;LAYER_COUNT:5
;LAYER:0
M107
G1 F1500 E-6.5
G0 F3600 X90.585 Y90.085 Z.299
;TYPE:SKIRT
G1 F1500 E0
G1 F1800 X92.067 Y88.861 E0.09557
G1 X92.728 Y88.418 E0.13514
G1 X94.4 Y87.524 E0.22942
G1 X95.126 Y87.223 E0.2685
G1 X96.961 Y86.667 E0.36384
G1 X97.729 Y86.514 E0.40278
G1 X99.598 Y86.33 E0.49616
G1 X100.381 Y86.33 E0.53509
G1 X102.287 Y86.517 E0.63032
G1 X103.057 Y86.67 E0.66936
G1 X104.867 Y87.219 E0.76341
G1 X105.592 Y87.519 E0.80242
G1 X107.268 Y88.415 E0.89692
G1 X107.934 Y88.863 E0.93683
G1 X109.44 Y90.111 E1.03409
G1 X109.992 Y90.668 E1.07308
G1 X111.184 Y92.134 E1.16703
G1 X111.61 Y92.776 E1.20534
G1 X112.485 Y94.418 E1.29786
G1 X112.784 Y95.141 E1.33676
G1 X113.331 Y96.95 E1.43073
G1 X113.482 Y97.712 E1.46936
G1 X113.67 Y99.603 E1.56385
G1 X113.671 Y100.393 E1.60313
G1 X113.484 Y102.281 E1.69747
G1 X113.327 Y103.06 E1.73698
G1 X112.756 Y104.922 E1.83383
G1 X112.458 Y105.638 E1.87239
G1 X111.583 Y107.271 E1.96451
G1 X111.149 Y107.919 E2.00329
G1 X109.96 Y109.368 E2.09649
G1 X109.415 Y109.915 E2.13489
G1 X107.933 Y111.139 E2.23046
G1 X107.272 Y111.582 E2.27003
G1 X105.6 Y112.476 E2.3643
G1 X104.867 Y112.779 E2.40374
G1 X103.01 Y113.338 E2.50017
G1 X102.247 Y113.489 E2.53885
G1 X100.387 Y113.671 E2.63178
G1 X99.602 Y113.67 E2.67081
G1 X97.718 Y113.483 E2.76495
G1 X96.94 Y113.327 E2.8044
G1 X95.078 Y112.756 E2.90125
G1 X94.36 Y112.457 E2.93992
G1 X92.716 Y111.575 E3.03269
G1 X92.066 Y111.139 E3.07161
G1 X90.607 Y109.939 E3.16554
G1 X90.047 Y109.377 E3.20499
G1 X88.819 Y107.87 E3.30165
G1 X88.39 Y107.224 E3.34021
G1 X87.515 Y105.582 E3.43273
G1 X87.216 Y104.858 E3.47167
G1 X86.669 Y103.048 E3.5657
G1 X86.518 Y102.286 E3.60432
G1 X86.33 Y100.39 E3.69906
G1 X86.329 Y99.601 E3.73829
G1 X86.516 Y97.714 E3.83258
G1 X86.67 Y96.946 E3.87153
G1 X87.222 Y95.128 E3.966
G1 X87.522 Y94.403 E4.00502
G1 X88.421 Y92.723 E4.09976
G1 X88.857 Y92.071 E4.13876
G1 X90.041 Y90.63 E4.2315
G1 X90.585 Y90.085 E4.26979
G0 F3600 X90.84 Y90.393
G1 F1800 X92.322 Y89.169 E4.36536
G1 X92.917 Y88.77 E4.40098
G1 X94.589 Y87.876 E4.49526
G1 X95.242 Y87.606 E4.5304
G1 X97.077 Y87.05 E4.62574
G1 X97.768 Y86.912 E4.66077
G1 X99.637 Y86.728 E4.75416
G1 X100.342 Y86.728 E4.78921
G1 X102.248 Y86.915 E4.88444
G1 X102.941 Y87.053 E4.91958
G1 X104.751 Y87.602 E5.01363
G1 X105.403 Y87.872 E5.04872
G1 X107.079 Y88.768 E5.14322
G1 X107.679 Y89.171 E5.17915
G1 X109.185 Y90.419 E5.27641
G1 X109.681 Y90.92 E5.31146
G1 X110.873 Y92.386 E5.40542
G1 X111.257 Y92.964 E5.43992
G1 X112.132 Y94.606 E5.53244
G1 X112.401 Y95.257 E5.56746
G1 X112.948 Y97.066 E5.66143
G1 X113.084 Y97.752 E5.69621
G1 X113.272 Y99.643 E5.7907
G1 X113.272 Y100.354 E5.82605
G1 X113.085 Y102.242 E5.92039
G1 X112.945 Y102.942 E5.95589
G1 X112.374 Y104.804 E6.05273
G1 X112.105 Y105.449 E6.08748
G1 X111.23 Y107.082 E6.1796
G1 X110.84 Y107.666 E6.21452
G1 X109.651 Y109.115 E6.30772
G1 X109.16 Y109.607 E6.34228
G1 X107.678 Y110.831 E6.43786
G1 X107.083 Y111.23 E6.47348
G1 X105.411 Y112.124 E6.56776
G1 X104.752 Y112.396 E6.60321
G1 X102.895 Y112.955 E6.69964
G1 X102.208 Y113.091 E6.73446
G1 X100.348 Y113.273 E6.82739
G1 X99.641 Y113.272 E6.86254
G1 X97.757 Y113.085 E6.95668
G1 X97.058 Y112.945 E6.99213
G1 X95.196 Y112.374 E7.08897
G1 X94.549 Y112.104 E7.12383
G1 X92.905 Y111.222 E7.2166
G1 X92.32 Y110.83 E7.25161
G1 X90.861 Y109.63 E7.34555
G1 X90.357 Y109.124 E7.38106
G1 X89.129 Y107.617 E7.47772
G1 X88.743 Y107.036 E7.5124
G1 X87.868 Y105.394 E7.60492
G1 X87.599 Y104.742 E7.63999
G1 X87.052 Y102.932 E7.73401
G1 X86.916 Y102.246 E7.76879
G1 X86.728 Y100.35 E7.86353
G1 X86.728 Y99.64 E7.89883
G1 X86.915 Y97.753 E7.99312
G1 X87.052 Y97.062 E8.02815
G1 X87.604 Y95.244 E8.12262
G1 X87.875 Y94.591 E8.15777
G1 X88.774 Y92.911 E8.25252
G1 X89.166 Y92.325 E8.28757
G1 X90.35 Y90.884 E8.38031
G1 X90.84 Y90.393 E8.4148
G0 F3600 X91.094 Y90.702
G1 F1800 X92.576 Y89.478 E8.51038
G1 X93.105 Y89.123 E8.54206
G1 X94.777 Y88.229 E8.63633
G1 X95.358 Y87.988 E8.66761
G1 X97.193 Y87.432 E8.76295
G1 X97.807 Y87.31 E8.79408
G1 X99.676 Y87.126 E8.88746
G1 X100.302 Y87.126 E8.91859
G1 X102.208 Y87.313 E9.01382
G1 X102.825 Y87.436 E9.0451
G1 X104.635 Y87.985 E9.13915
G1 X105.215 Y88.225 E9.17036
G1 X106.891 Y89.121 E9.26486
G1 X107.424 Y89.479 E9.29678
G1 X108.93 Y90.727 E9.39404
G1 X109.371 Y91.172 E9.42519
G1 X110.563 Y92.638 E9.51914
G1 X110.904 Y93.152 E9.54981
G1 X111.779 Y94.794 E9.64233
G1 X112.018 Y95.373 E9.67348
G1 X112.565 Y97.182 E9.76745
G1 X112.686 Y97.791 E9.79832
G1 X112.874 Y99.682 E9.89281
G1 X112.874 Y100.314 E9.92424
G1 X112.687 Y102.202 E10.01858
G1 X112.562 Y102.825 E10.05017
G1 X111.991 Y104.687 E10.14701
G1 X111.753 Y105.26 E10.17787
G1 X110.878 Y106.893 E10.26999
G1 X110.531 Y107.412 E10.30103
G1 X109.342 Y108.861 E10.39423
G1 X108.906 Y109.298 E10.42493
G1 X107.424 Y110.522 E10.5205
G1 X106.895 Y110.877 E10.55218
G1 X105.223 Y111.771 E10.64646
G1 X104.636 Y112.013 E10.67803
G1 X102.779 Y112.572 E10.77446
G1 X102.169 Y112.693 E10.80538
G1 X100.309 Y112.875 E10.89831
G1 X99.681 Y112.874 E10.92953
G1 X97.797 Y112.687 E11.02367
G1 X97.175 Y112.562 E11.05522
G1 X95.313 Y111.991 E11.15206
G1 X94.738 Y111.752 E11.18303
G1 X93.094 Y110.87 E11.27579
G1 X92.574 Y110.521 E11.30693
G1 X91.115 Y109.321 E11.40087
G1 X90.667 Y108.871 E11.43244
G1 X89.439 Y107.364 E11.5291
G1 X89.096 Y106.848 E11.55991
G1 X88.221 Y105.206 E11.65243
G1 X87.982 Y104.627 E11.68357
G1 X87.435 Y102.817 E11.77759
G1 X87.314 Y102.207 E11.80852
G1 X87.126 Y100.311 E11.90326
G1 X87.126 Y99.679 E11.93468
G1 X87.313 Y97.792 E12.02897
G1 X87.435 Y97.178 E12.0601
G1 X87.987 Y95.36 E12.15457
G1 X88.228 Y94.78 E12.1858
G1 X89.127 Y93.1 E12.28054
G1 X89.476 Y92.579 E12.31173
G1 X90.66 Y91.138 E12.40446
G1 X91.094 Y90.702 E12.43505
G1 F1500 E5.93505
G0 F3600 X92.768 Y92.59
G0 X93.596 Y93.596
G0 X93.638 Y93.638
G0 X93.568 Y93.568
;TYPE:WALL-INNER
G1 F1500 E12.43505
G1 F1800 X94.948 Y92.435 E12.52384
G1 X96.519 Y91.595 E12.61242
G1 X98.225 Y91.078 E12.70106
G1 X98.772 Y91.024 E12.72839
G1 X98.832 Y91.019 E12.73138
G1 X99.094 Y90.993 E12.74447
G1 X99.382 Y90.964 E12.75887
G1 X99.663 Y90.936 E12.77291
G0 X99.387 Y91.02
G0 X99.111 Y91.168
G1 X98.867 Y91.367 E12.78249
G1 X98.829 Y91.414 E12.78532
G1 X98.668 Y91.611 E12.79797
G1 X98.52 Y91.887 E12.81354
G1 X98.429 Y92.188 E12.82917
G1 X98.398 Y92.5 E12.84476
G1 X98.429 Y92.813 E12.8604
G1 X98.52 Y93.114 E12.87604
G1 X98.668 Y93.39 E12.89161
G1 X98.867 Y93.634 E12.90727
G1 X99.111 Y93.833 E12.92292
G1 X99.387 Y93.981 E12.9385
G1 X99.688 Y94.072 E12.95413
G1 X100 Y94.103 E12.96972
G1 X100.312 Y94.072 E12.98531
G1 X100.613 Y93.981 E13.00095
G1 X100.889 Y93.833 E13.01652
G1 X101.133 Y93.634 E13.03218
G1 X101.332 Y93.39 E13.04783
G1 X101.48 Y93.114 E13.06341
G1 X101.571 Y92.815 E13.07895
G1 X101.603 Y92.501 E13.09464
G1 X101.571 Y92.186 E13.11039
G1 X101.48 Y91.887 E13.12593
G1 X101.332 Y91.611 E13.1415
G1 X101.171 Y91.413 E13.15419
G1 X101.133 Y91.367 E13.15715
G1 X100.889 Y91.168 E13.17281
G1 X100.613 Y91.02 E13.18838
G1 X100.337 Y90.936 E13.20273
G0 X100.619 Y90.963
G0 X100.906 Y90.992
G1 X101.168 Y91.018 E13.20687
G1 X101.227 Y91.023 E13.20965
G1 X101.775 Y91.078 E13.23703
G1 X103.481 Y91.595 E13.32567
G1 X105.052 Y92.435 E13.41426
G1 X106.432 Y93.568 E13.50304
G1 X107.565 Y94.948 E13.59182
G1 X108.405 Y96.519 E13.6804
G1 X108.922 Y98.225 E13.76904
G1 X108.976 Y98.772 E13.79637
G1 X108.981 Y98.832 E13.79937
G1 X109.007 Y99.094 E13.81246
G1 X109.036 Y99.382 E13.82685
G1 X109.064 Y99.663 E13.84089
G0 X108.98 Y99.387
G0 X108.832 Y99.111
G1 X108.633 Y98.867 E13.85047
G1 X108.586 Y98.829 E13.8533
G1 X108.389 Y98.668 E13.86595
G1 X108.113 Y98.52 E13.88152
G1 X107.814 Y98.429 E13.89707
G1 X107.5 Y98.397 E13.91276
G1 X107.185 Y98.429 E13.9285
G1 X106.886 Y98.52 E13.94404
G1 X106.61 Y98.668 E13.95962
G1 X106.366 Y98.867 E13.97527
G1 X106.167 Y99.111 E13.99093
G1 X106.019 Y99.387 E14.0065
G1 X105.928 Y99.688 E14.02214
G1 X105.897 Y100 E14.03773
G1 X105.928 Y100.312 E14.05332
G1 X106.019 Y100.613 E14.06895
G1 X106.167 Y100.889 E14.08453
G1 X106.366 Y101.133 E14.10018
G1 X106.61 Y101.332 E14.11584
G1 X106.886 Y101.48 E14.13141
G1 X107.185 Y101.571 E14.14695
G1 X107.5 Y101.603 E14.16269
G1 X107.814 Y101.571 E14.17839
G1 X108.113 Y101.48 E14.19393
G1 X108.389 Y101.332 E14.2095
G1 X108.587 Y101.171 E14.22219
G1 X108.633 Y101.133 E14.22516
G1 X108.832 Y100.889 E14.24081
G1 X108.98 Y100.613 E14.25639
G1 X109.064 Y100.337 E14.27073
G0 X109.037 Y100.619
G0 X109.008 Y100.906
G1 X108.982 Y101.168 E14.27488
G1 X108.977 Y101.227 E14.27765
G1 X108.922 Y101.775 E14.30504
G1 X108.405 Y103.481 E14.39368
G1 X107.565 Y105.052 E14.48226
G1 X106.432 Y106.432 E14.57104
G1 X105.052 Y107.565 E14.65983
G1 X103.481 Y108.405 E14.74841
G1 X101.775 Y108.922 E14.83705
G1 X101.228 Y108.976 E14.86438
G1 X101.168 Y108.981 E14.86737
G1 X100.906 Y109.007 E14.88046
G1 X100.618 Y109.036 E14.89486
G1 X100.335 Y109.064 E14.909
G0 X100.613 Y108.98
G0 X100.889 Y108.832
G1 X101.133 Y108.633 E14.91857
G1 X101.171 Y108.586 E14.9214
G1 X101.332 Y108.389 E14.93406
G1 X101.48 Y108.113 E14.94963
G1 X101.571 Y107.814 E14.96517
G1 X101.603 Y107.5 E14.98086
G1 X101.571 Y107.185 E14.99661
G1 X101.48 Y106.886 E15.01215
G1 X101.332 Y106.61 E15.02772
G1 X101.133 Y106.366 E15.04338
G1 X100.889 Y106.167 E15.05903
G1 X100.613 Y106.019 E15.0746
G1 X100.312 Y105.928 E15.09024
G1 X100 Y105.897 E15.10583
G1 X99.688 Y105.928 E15.12142
G1 X99.387 Y106.019 E15.13706
G1 X99.111 Y106.167 E15.15263
G1 X98.867 Y106.366 E15.16828
G1 X98.668 Y106.61 E15.18394
G1 X98.52 Y106.886 E15.19951
G1 X98.429 Y107.187 E15.21515
G1 X98.398 Y107.5 E15.23079
G1 X98.429 Y107.812 E15.24638
G1 X98.52 Y108.113 E15.26202
G1 X98.668 Y108.389 E15.27759
G1 X98.829 Y108.587 E15.29028
G1 X98.867 Y108.633 E15.29324
G1 X99.111 Y108.832 E15.3089
G1 X99.387 Y108.98 E15.32447
G1 X99.665 Y109.064 E15.33891
G0 X99.381 Y109.037
G0 X99.094 Y109.008
G1 X98.832 Y108.982 E15.34306
G1 X98.773 Y108.977 E15.34583
G1 X98.225 Y108.922 E15.37322
G1 X96.519 Y108.405 E15.46186
G1 X94.948 Y107.565 E15.55044
G1 X93.568 Y106.432 E15.63922
G1 X92.435 Y105.052 E15.72801
G1 X91.595 Y103.481 E15.81659
G1 X91.078 Y101.775 E15.90523
G1 X91.024 Y101.228 E15.93256
G1 X91.019 Y101.168 E15.93555
G1 X90.993 Y100.906 E15.94864
G1 X90.964 Y100.618 E15.96304
G1 X90.936 Y100.337 E15.97708
G0 X91.02 Y100.613
G0 X91.168 Y100.889
G1 X91.367 Y101.133 E15.98666
G1 X91.414 Y101.171 E15.98949
G1 X91.611 Y101.332 E16.00214
G1 X91.887 Y101.48 E16.01771
G1 X92.186 Y101.571 E16.03325
G1 X92.5 Y101.603 E16.04894
G1 X92.815 Y101.571 E16.06469
G1 X93.114 Y101.48 E16.08023
G1 X93.39 Y101.332 E16.0958
G1 X93.634 Y101.133 E16.11146
G1 X93.833 Y100.889 E16.12711
G1 X93.981 Y100.613 E16.14269
G1 X94.072 Y100.312 E16.15832
G1 X94.103 Y100 E16.17391
G1 X94.072 Y99.688 E16.1895
G1 X93.981 Y99.387 E16.20514
G1 X93.833 Y99.111 E16.22071
G1 X93.634 Y98.867 E16.23637
G1 X93.39 Y98.668 E16.25202
G1 X93.114 Y98.52 E16.26759
G1 X92.815 Y98.429 E16.28314
G1 X92.5 Y98.397 E16.29888
G1 X92.186 Y98.429 E16.31457
G1 X91.887 Y98.52 E16.33011
G1 X91.611 Y98.668 E16.34569
G1 X91.413 Y98.829 E16.35838
G1 X91.367 Y98.867 E16.36134
G1 X91.168 Y99.111 E16.377
G1 X91.02 Y99.387 E16.39257
G1 X90.936 Y99.663 E16.40692
G0 X90.963 Y99.381
G0 X90.992 Y99.094
G1 X91.018 Y98.832 E16.41106
G1 X91.023 Y98.773 E16.41384
G1 X91.078 Y98.225 E16.44122
G1 X91.595 Y96.519 E16.52986
G1 X92.435 Y94.948 E16.61844
G1 X93.568 Y93.568 E16.70723
G0 F3600 X93.638 Y93.638
G0 X98.444 Y98.444
G0 X98.514 Y98.514
G1 F1800 X98.252 Y98.831 E16.72768
G1 X98.058 Y99.195 E16.74819
G1 X97.938 Y99.591 E16.76876
G1 X97.898 Y100 E16.78919
G1 X97.938 Y100.409 E16.80963
G1 X98.058 Y100.805 E16.8302
G1 X98.252 Y101.169 E16.85071
G1 X98.514 Y101.486 E16.87116
G1 X98.831 Y101.748 E16.89161
G1 X99.195 Y101.942 E16.91212
G1 X99.591 Y102.062 E16.9327
G1 X100 Y102.102 E16.95313
G1 X100.409 Y102.062 E16.97356
G1 X100.805 Y101.942 E16.99414
G1 X101.169 Y101.748 E17.01465
G1 X101.486 Y101.486 E17.0351
G1 X101.748 Y101.169 E17.05555
G1 X101.942 Y100.805 E17.07606
G1 X102.062 Y100.41 E17.09658
G1 X102.103 Y100 E17.11707
G1 X102.062 Y99.59 E17.13756
G1 X101.942 Y99.195 E17.15809
G1 X101.748 Y98.831 E17.1786
G1 X101.486 Y98.514 E17.19905
G1 X101.169 Y98.252 E17.2195
G1 X100.805 Y98.058 E17.24001
G1 X100.409 Y97.938 E17.26058
G1 X100 Y97.898 E17.28102
G1 X99.591 Y97.938 E17.30145
G1 X99.195 Y98.058 E17.32202
G1 X98.831 Y98.252 E17.34253
G1 X98.514 Y98.514 E17.36298
G0 F3600 X98.798 Y98.798
;TYPE:WALL-OUTER
G1 F1800 X98.586 Y99.055 E17.37955
G1 X98.429 Y99.349 E17.39612
G1 X98.332 Y99.669 E17.41275
G1 X98.3 Y100 E17.42928
G1 X98.332 Y100.331 E17.44582
G1 X98.429 Y100.651 E17.46245
G1 X98.586 Y100.945 E17.47902
G1 X98.798 Y101.202 E17.49558
G1 X99.055 Y101.414 E17.51215
G1 X99.349 Y101.571 E17.52872
G1 X99.669 Y101.668 E17.54535
G1 X100 Y101.7 E17.56189
G1 X100.331 Y101.668 E17.57842
G1 X100.651 Y101.571 E17.59505
G1 X100.945 Y101.414 E17.61162
G1 X101.202 Y101.202 E17.62819
G1 X101.414 Y100.945 E17.64475
G1 X101.571 Y100.651 E17.66132
G1 X101.668 Y100.331 E17.67795
G1 X101.701 Y100 E17.69449
G1 X101.668 Y99.669 E17.71103
G1 X101.571 Y99.349 E17.72766
G1 X101.414 Y99.055 E17.74423
G1 X101.202 Y98.798 E17.7608
G1 X100.945 Y98.586 E17.77736
G1 X100.651 Y98.429 E17.79393
G1 X100.331 Y98.332 E17.81056
G1 X100 Y98.3 E17.8271
G1 X99.669 Y98.332 E17.84363
G1 X99.349 Y98.429 E17.86026
G1 X99.055 Y98.586 E17.87683
G1 X98.798 Y98.798 E17.8934
G0 F3600 X98.413 Y98.48
G0 X94.156 Y99.623
G0 X93.678 Y99.766
G1 F1800 X93.61 Y99.541 E17.90508
G1 X93.499 Y99.334 E17.91676
G1 X93.35 Y99.151 E17.9285
G1 X93.167 Y99.002 E17.94023
G1 X92.96 Y98.891 E17.95191
G1 X92.736 Y98.823 E17.96355
G1 X92.5 Y98.799 E17.97535
G1 X92.265 Y98.823 E17.98709
G1 X92.041 Y98.891 E17.99873
G1 X91.834 Y99.002 E18.01041
G1 X91.651 Y99.151 E18.02215
G1 X91.502 Y99.334 E18.03388
G1 X91.391 Y99.541 E18.04556
G1 X91.323 Y99.765 E18.0572
G1 X91.299 Y100 E18.06895
G1 X91.323 Y100.235 E18.08069
G1 X91.391 Y100.459 E18.09233
G1 X91.502 Y100.666 E18.10401
G1 X91.651 Y100.849 E18.11575
G1 X91.834 Y100.998 E18.12748
G1 X92.041 Y101.109 E18.13916
G1 X92.265 Y101.177 E18.1508
G1 X92.5 Y101.201 E18.16255
G1 X92.736 Y101.177 E18.17434
G1 X92.96 Y101.109 E18.18598
G1 X93.167 Y100.998 E18.19766
G1 X93.35 Y100.849 E18.20939
G1 X93.499 Y100.666 E18.22113
G1 X93.61 Y100.459 E18.23281
G1 X93.678 Y100.234 E18.2445
G1 X93.701 Y100 E18.25619
G1 X93.678 Y99.766 E18.26788
G0 F3600 X94.156 Y99.623
G0 X94.111 Y100.319
G0 X93.866 Y100.911
G0 X93.412 Y101.365
G0 X92.822 Y101.61
G0 X92.179 Y101.61
G0 X91.589 Y101.365
G0 X91.135 Y100.911
G0 X90.984 Y100.628
G0 X90.955 Y100.435
G0 X90.501 Y100
G1 F1800 X90.684 Y98.145 E18.36056
G1 X91.224 Y96.364 E18.4531
G1 X92.1 Y94.726 E18.54547
G1 X93.284 Y93.284 E18.63824
G1 X94.726 Y92.1 E18.73102
G1 X96.364 Y91.224 E18.82338
G1 X98.145 Y90.684 E18.91592
G1 X100 Y90.501 E19.00861
G1 X101.855 Y90.684 E19.10129
G1 X103.636 Y91.224 E19.19383
G1 X105.274 Y92.1 E19.28619
G1 X106.716 Y93.284 E19.37897
G1 X107.9 Y94.726 E19.47174
G1 X108.776 Y96.364 E19.56411
G1 X109.316 Y98.145 E19.65665
G1 X109.499 Y100 E19.74933
G1 X109.316 Y101.855 E19.84202
