;FLAVOR:RepRap
;TIME:527
;Generated with Cura_SteamEngine 2.3.1
M190 S60
M104 S200
M109 S200
G21 ;metric values
G90 ;absolute positioning
G92 E0 ;zero the extruded length
M107 ;start with the fan off
G1 X90 Y200 F6000 ;go to the middle of the front

G92 E0 ;zero the extruded length
G1 X150 E10 F300 ; make a thick line to prime extruder
G92 E0 ; reset extruder
;LAYER_COUNT:5
;LAYER:0
M107
G1 F1500 E-6.5
G0 F3600 X62.382 Y89.13 Z.299
;TYPE:SKIRT
G1 F1500 E0
G1 F1800 X62.964 Y88.743 E0.03475
G1 X64.606 Y87.868 E0.12727
G1 X65.258 Y87.599 E0.16234
G1 X67.068 Y87.052 E0.25636
G1 X67.753 Y86.916 E0.29109
G1 X69.645 Y86.728 E0.38563
G1 X70.297 Y86.722 E0.41805
G1 X73.15 Y86.957 E0.56039
G1 X78.627 Y87.19 E0.83297
G1 X84.096 Y87.112 E1.10494
G1 X89.718 Y86.721 E1.38517
G1 X90.216 Y86.721 E1.40993
G1 X95.887 Y87.112 E1.69258
G1 X101.357 Y87.19 E1.9646
G1 X106.831 Y86.958 E2.23703
G1 X108.275 Y86.835 E2.30909
G1 X108.304 Y86.833 E2.31054
G1 X109.74 Y86.722 E2.38216
G1 X110.268 Y86.72 E2.40841
G1 X115.891 Y87.112 E2.68869
G1 X121.356 Y87.19 E2.96045
G1 X126.83 Y86.958 E3.23289
G1 X128.275 Y86.835 E3.305
G1 X128.304 Y86.833 E3.30644
G1 X129.74 Y86.722 E3.37806
G1 X130.374 Y86.729 E3.40959
G1 X132.253 Y86.916 E3.50348
G1 X132.941 Y87.053 E3.53836
G1 X134.751 Y87.602 E3.63241
G1 X135.403 Y87.872 E3.6675
G1 X137.079 Y88.768 E3.762
G1 X137.679 Y89.171 E3.79794
G1 X139.185 Y90.419 E3.89519
G1 X139.681 Y90.92 E3.93025
G1 X140.873 Y92.386 E4.0242
G1 X141.257 Y92.964 E4.0587
G1 X142.132 Y94.606 E4.15122
G1 X142.401 Y95.257 E4.18625
G1 X142.948 Y97.066 E4.28022
G1 X143.084 Y97.752 E4.31499
G1 X143.272 Y99.643 E4.40948
G1 X143.272 Y100.354 E4.44484
G1 X143.085 Y102.242 E4.53918
G1 X142.945 Y102.942 E4.57467
G1 X142.374 Y104.804 E4.67151
G1 X142.105 Y105.449 E4.70626
G1 X141.23 Y107.082 E4.79838
G1 X140.84 Y107.666 E4.8333
G1 X139.651 Y109.115 E4.9265
G1 X139.16 Y109.607 E4.96107
G1 X137.678 Y110.831 E5.05664
G1 X137.083 Y111.23 E5.09226
G1 X135.411 Y112.124 E5.18654
G1 X134.752 Y112.396 E5.22199
G1 X132.895 Y112.955 E5.31842
G1 X132.208 Y113.091 E5.35324
G1 X130.348 Y113.273 E5.44617
G1 X129.703 Y113.278 E5.47824
G1 X126.796 Y113.04 E5.62328
G1 X121.318 Y112.809 E5.8959
G1 X115.849 Y112.89 E6.16787
G1 X110.261 Y113.28 E6.44641
G1 X109.759 Y113.28 E6.47137
G1 X104.225 Y112.893 E6.74721
G1 X98.772 Y112.809 E7.01839
G1 X90.198 Y113.284 E7.44538
G1 X89.703 Y113.278 E7.46999
G1 X86.851 Y113.043 E7.61228
G1 X81.374 Y112.81 E7.88487
G1 X75.905 Y112.888 E8.15684
G1 X70.283 Y113.279 E8.43706
G1 X69.687 Y113.271 E8.4667
G1 X67.758 Y113.085 E8.56306
G1 X67.059 Y112.947 E8.59849
G1 X65.249 Y112.398 E8.69254
G1 X64.597 Y112.128 E8.72763
G1 X62.921 Y111.232 E8.82213
G1 X62.334 Y110.84 E8.85722
G1 X60.885 Y109.651 E8.95043
G1 X60.393 Y109.16 E8.98499
G1 X59.167 Y107.675 E9.08074
G1 X58.768 Y107.08 E9.11636
G1 X57.875 Y105.409 E9.21057
G1 X57.604 Y104.755 E9.24577
G1 X57.049 Y102.922 E9.341
G1 X56.912 Y102.232 E9.37598
G1 X56.727 Y100.354 E9.46982
G1 X56.729 Y99.631 E9.50577
G1 X56.93 Y97.686 E9.60299
G1 X57.071 Y96.994 E9.63811
G1 X57.628 Y95.189 E9.73204
G1 X57.896 Y94.549 E9.76654
G1 X58.778 Y92.905 E9.85931
G1 X59.169 Y92.321 E9.89425
G1 X60.367 Y90.864 E9.98805
G1 X60.873 Y90.36 E10.02356
G1 X62.382 Y89.13 E10.12036
G0 F3600 X62.635 Y89.44
G1 F1800 X63.152 Y89.096 E10.15124
G1 X64.794 Y88.221 E10.24375
G1 X65.373 Y87.982 E10.2749
G1 X67.183 Y87.435 E10.36892
G1 X67.793 Y87.314 E10.39984
G1 X69.685 Y87.126 E10.49438
G1 X70.264 Y87.121 E10.52317
G1 X73.125 Y87.357 E10.66592
G1 X78.616 Y87.59 E10.9392
G1 X84.111 Y87.512 E11.21246
G1 X89.746 Y87.12 E11.49333
G1 X90.188 Y87.12 E11.51531
G1 X95.871 Y87.512 E11.79856
G1 X101.368 Y87.59 E12.07192
G1 X106.859 Y87.358 E12.3452
G1 X108.309 Y87.234 E12.41756
G1 X108.334 Y87.232 E12.41881
G1 X109.77 Y87.121 E12.49042
G1 X110.24 Y87.119 E12.51379
G1 X115.875 Y87.512 E12.79467
G1 X121.367 Y87.59 E13.06778
G1 X126.858 Y87.358 E13.34106
G1 X128.309 Y87.234 E13.41347
G1 X128.334 Y87.232 E13.41472
G1 X129.77 Y87.121 E13.48633
G1 X130.334 Y87.127 E13.51438
G1 X132.213 Y87.314 E13.60827
G1 X132.825 Y87.436 E13.6393
G1 X134.635 Y87.985 E13.73335
G1 X135.215 Y88.225 E13.76456
G1 X136.891 Y89.121 E13.85906
G1 X137.424 Y89.479 E13.89099
G1 X138.93 Y90.727 E13.98824
G1 X139.371 Y91.172 E14.01939
G1 X140.563 Y92.638 E14.11335
G1 X140.904 Y93.152 E14.14402
G1 X141.779 Y94.794 E14.23653
G1 X142.018 Y95.373 E14.26768
G1 X142.565 Y97.182 E14.36165
G1 X142.686 Y97.791 E14.39253
G1 X142.874 Y99.682 E14.48702
G1 X142.874 Y100.314 E14.51844
G1 X142.687 Y102.202 E14.61278
G1 X142.562 Y102.825 E14.64438
G1 X141.991 Y104.687 E14.74122
G1 X141.753 Y105.26 E14.77207
G1 X140.878 Y106.893 E14.86419
G1 X140.531 Y107.412 E14.89523
G1 X139.342 Y108.861 E14.98844
G1 X138.906 Y109.298 E15.01913
G1 X137.424 Y110.522 E15.1147
G1 X136.895 Y110.877 E15.14638
G1 X135.223 Y111.771 E15.24066
G1 X134.636 Y112.013 E15.27223
G1 X132.779 Y112.572 E15.36866
G1 X132.169 Y112.693 E15.39958
G1 X130.309 Y112.875 E15.49251
G1 X129.736 Y112.879 E15.521
G1 X126.822 Y112.641 E15.66638
G1 X121.328 Y112.409 E15.93981
G1 X115.833 Y112.49 E16.21307
G1 X110.233 Y112.881 E16.4922
G1 X109.787 Y112.881 E16.51438
G1 X104.24 Y112.493 E16.79087
G1 X98.77 Y112.409 E17.06289
G1 X90.176 Y112.885 E17.49088
G1 X89.736 Y112.879 E17.51276
G1 X86.876 Y112.643 E17.65545
G1 X81.385 Y112.41 E17.92873
G1 X75.89 Y112.488 E18.20199
G1 X70.255 Y112.88 E18.48286
G1 X69.726 Y112.873 E18.50917
G1 X67.797 Y112.687 E18.60553
G1 X67.175 Y112.564 E18.63706
G1 X65.365 Y112.015 E18.73111
G1 X64.785 Y111.775 E18.76232
G1 X63.109 Y110.879 E18.85682
G1 X62.588 Y110.531 E18.88797
G1 X61.139 Y109.342 E18.98117
G1 X60.701 Y108.905 E19.01194
G1 X59.475 Y107.42 E19.10769
G1 X59.121 Y106.891 E19.13934
G1 X58.228 Y105.22 E19.23355
G1 X57.987 Y104.639 E19.26483
G1 X57.432 Y102.806 E19.36006
G1 X57.31 Y102.193 E19.39113
G1 X57.125 Y100.315 E19.48497
G1 X57.127 Y99.672 E19.51694
G1 X57.328 Y97.727 E19.61417
G1 X57.453 Y97.112 E19.64537
G1 X58.01 Y95.307 E19.7393
G1 X58.248 Y94.738 E19.76997
G1 X59.13 Y93.094 E19.86274
G1 X59.478 Y92.575 E19.89381
G1 X60.676 Y91.118 E19.9876
G1 X61.126 Y90.67 E20.01918
G1 X62.635 Y89.44 E20.11598
G1 F1500 E13.61598
G0 F3600 X64.143 Y91.461
G0 X64.97 Y92.468
G0 X65.003 Y92.518
G0 X64.948 Y92.435
;TYPE:WALL-INNER
G1 F1500 E20.11598
G1 F1800 X66.519 Y91.595 E20.20456
G1 X68.225 Y91.078 E20.2932
G1 X69.12 Y90.99 E20.33792
G1 X69.358 Y90.967 E20.34981
G1 X69.662 Y90.937 E20.36499
G1 X69.977 Y90.906 E20.38073
G1 X70.001 Y90.903 E20.38194
G1 X70.022 Y90.905 E20.38299
G1 X70.338 Y90.936 E20.39877
G1 X70.644 Y90.966 E20.41406
G1 X70.88 Y90.989 E20.42585
G1 X71.776 Y91.078 E20.47062
G1 X73.482 Y91.595 E20.55926
G1 X75.053 Y92.435 E20.64784
G1 X76.433 Y93.568 E20.73663
G1 X77.566 Y94.948 E20.82541
G1 X78.406 Y96.519 E20.91399
G1 X78.923 Y98.225 E21.00263
G1 X79.011 Y99.12 E21.04735
G1 X79.034 Y99.358 E21.05924
G1 X79.064 Y99.664 E21.07453
G1 X79.095 Y99.977 E21.09017
G1 X79.098 Y100 E21.09132
G1 X79.096 Y100.022 E21.09242
G1 X79.066 Y100.335 E21.10805
G1 X79.035 Y100.643 E21.12345
G1 X79.012 Y100.879 E21.13524
G1 X78.923 Y101.775 E21.18001
G1 X78.406 Y103.481 E21.26865
G1 X77.566 Y105.052 E21.35723
G1 X76.433 Y106.432 E21.44601
G1 X75.054 Y107.564 E21.53472
G1 X73.482 Y108.405 E21.62337
G1 X71.776 Y108.922 E21.71201
G1 X70.881 Y109.01 E21.75673
G1 X70.643 Y109.033 E21.76862
G1 X70.339 Y109.063 E21.78381
G1 X70.023 Y109.094 E21.7996
G1 X70 Y109.097 E21.80075
G1 X69.978 Y109.095 E21.80185
G1 X69.663 Y109.064 E21.81759
G1 X69.357 Y109.034 E21.83288
G1 X69.121 Y109.011 E21.84467
G1 X68.225 Y108.922 E21.88944
G1 X66.519 Y108.405 E21.97808
G1 X64.947 Y107.564 E22.06673
G1 X63.568 Y106.432 E22.15544
G1 X62.435 Y105.052 E22.24422
G1 X61.595 Y103.481 E22.3328
G1 X61.078 Y101.775 E22.42144
G1 X60.99 Y100.88 E22.46616
G1 X60.967 Y100.642 E22.47805
G1 X60.937 Y100.338 E22.49324
G1 X60.906 Y100.023 E22.50898
G1 X60.903 Y100 E22.51013
G1 X60.905 Y99.978 E22.51123
G1 X60.936 Y99.663 E22.52697
G1 X60.966 Y99.357 E22.54226
G1 X60.989 Y99.121 E22.55405
G1 X61.078 Y98.225 E22.59882
G1 X61.595 Y96.519 E22.68746
G1 X62.435 Y94.948 E22.77604
G1 X63.568 Y93.568 E22.86482
G1 X64.948 Y92.435 E22.95361
G0 F3600 X65.003 Y92.518
G0 X68.297 Y92.75
G0 X68.397 Y92.75
G1 F1800 X68.429 Y93.065 E22.96935
G1 X68.52 Y93.364 E22.98489
G1 X68.668 Y93.64 E23.00046
G1 X68.867 Y93.884 E23.01612
G1 X69.111 Y94.083 E23.03177
G1 X69.387 Y94.231 E23.04735
G1 X69.688 Y94.322 E23.06298
G1 X70 Y94.353 E23.07857
G1 X70.313 Y94.322 E23.09421
G1 X70.614 Y94.231 E23.10985
G1 X70.89 Y94.083 E23.12542
G1 X71.134 Y93.884 E23.14108
G1 X71.333 Y93.64 E23.15673
G1 X71.481 Y93.364 E23.17231
G1 X71.572 Y93.065 E23.18785
G1 X71.604 Y92.751 E23.20354
G1 X71.572 Y92.436 E23.21928
G1 X71.481 Y92.137 E23.23482
G1 X71.333 Y91.861 E23.2504
G1 X71.134 Y91.617 E23.26605
G1 X70.89 Y91.418 E23.28171
G1 X70.823 Y91.382 E23.28549
G1 X70.614 Y91.27 E23.29591
G1 X70.315 Y91.179 E23.30405
G1 X70 Y91.147 E23.3089
G1 X69.686 Y91.179 E23.31502
G1 X69.387 Y91.27 E23.32469
G1 X69.176 Y91.383 E23.33519
G1 X69.111 Y91.418 E23.33886
G1 X68.867 Y91.617 E23.35452
G1 X68.668 Y91.861 E23.37017
G1 X68.52 Y92.137 E23.38575
G1 X68.429 Y92.436 E23.40129
G1 X68.397 Y92.75 E23.41698
G0 F3600 X68.297 Y92.75
G0 X69.571 Y97.84
G0 X69.59 Y97.938
G1 F1800 X69.195 Y98.058 E23.43751
G1 X68.831 Y98.252 E23.45802
G1 X68.514 Y98.514 E23.47847
G1 X68.252 Y98.831 E23.49892
G1 X68.058 Y99.195 E23.51943
G1 X67.938 Y99.59 E23.53995
G1 X67.897 Y100 E23.56044
G1 X67.938 Y100.41 E23.58093
G1 X68.058 Y100.805 E23.60146
G1 X68.252 Y101.169 E23.62197
G1 X68.514 Y101.486 E23.64242
G1 X68.831 Y101.748 E23.66287
G1 X69.195 Y101.942 E23.68338
G1 X69.59 Y102.062 E23.7039
G1 X70 Y102.103 E23.72439
G1 X70.411 Y102.062 E23.74493
G1 X70.806 Y101.942 E23.76546
G1 X71.17 Y101.748 E23.78597
G1 X71.487 Y101.486 E23.80642
G1 X71.749 Y101.169 E23.82687
G1 X71.943 Y100.805 E23.84738
G1 X72.063 Y100.409 E23.86795
G1 X72.103 Y100 E23.88838
G1 X72.063 Y99.591 E23.90882
G1 X71.943 Y99.195 E23.92939
G1 X71.749 Y98.831 E23.9499
G1 X71.487 Y98.514 E23.97035
G1 X71.17 Y98.252 E23.9908
G1 X70.806 Y98.058 E24.01131
G1 X70.411 Y97.938 E24.03184
G1 X70 Y97.897 E24.05238
G1 X69.59 Y97.938 E24.07287
G0 F3600 X69.571 Y97.84
G0 X64.323 Y99.349
G0 X64.231 Y99.387
G1 F1800 X64.083 Y99.111 E24.08844
G1 X63.884 Y98.867 E24.10409
G1 X63.64 Y98.668 E24.11975
G1 X63.364 Y98.52 E24.13532
G1 X63.063 Y98.429 E24.15096
G1 X62.75 Y98.398 E24.1666
G1 X62.438 Y98.429 E24.18219
G1 X62.137 Y98.52 E24.19782
G1 X61.861 Y98.668 E24.2134
G1 X61.617 Y98.867 E24.22905
G1 X61.418 Y99.111 E24.24471
G1 X61.382 Y99.178 E24.24849
G1 X61.27 Y99.387 E24.25891
G1 X61.179 Y99.686 E24.26705
G1 X61.147 Y100 E24.27165
G1 X61.179 Y100.314 E24.27777
G1 X61.27 Y100.613 E24.28744
G1 X61.383 Y100.824 E24.29794
G1 X61.418 Y100.889 E24.30161
G1 X61.617 Y101.133 E24.31726
G1 X61.861 Y101.332 E24.33292
G1 X62.137 Y101.48 E24.34849
G1 X62.436 Y101.571 E24.36403
G1 X62.75 Y101.603 E24.37973
G1 X63.065 Y101.571 E24.39547
G1 X63.364 Y101.48 E24.41101
G1 X63.64 Y101.332 E24.42658
G1 X63.884 Y101.133 E24.44224
G1 X64.083 Y100.889 E24.45789
G1 X64.231 Y100.613 E24.47347
G1 X64.322 Y100.312 E24.4891
G1 X64.353 Y100 E24.50469
G1 X64.322 Y99.688 E24.52028
G1 X64.231 Y99.387 E24.53592
G0 F3600 X64.323 Y99.349
G0 X69.056 Y105.834
G0 X69.111 Y105.917
G1 F1800 X68.867 Y106.116 E24.55158
G1 X68.668 Y106.36 E24.56723
G1 X68.52 Y106.636 E24.5828
G1 X68.429 Y106.935 E24.59834
G1 X68.397 Y107.25 E24.61409
G1 X68.429 Y107.564 E24.62978
G1 X68.52 Y107.863 E24.64532
G1 X68.668 Y108.139 E24.6609
G1 X68.867 Y108.383 E24.67655
G1 X69.111 Y108.582 E24.69221
G1 X69.178 Y108.618 E24.69599
G1 X69.387 Y108.73 E24.70641
G1 X69.686 Y108.821 E24.71455
G1 X70 Y108.853 E24.71915
G1 X70.315 Y108.821 E24.72532
G1 X70.614 Y108.73 E24.73499
G1 X70.825 Y108.617 E24.74549
G1 X70.89 Y108.582 E24.74916
G1 X71.134 Y108.383 E24.76482
G1 X71.333 Y108.139 E24.78047
G1 X71.481 Y107.863 E24.79604
G1 X71.572 Y107.562 E24.81168
G1 X71.603 Y107.25 E24.82727
G1 X71.572 Y106.937 E24.84291
G1 X71.481 Y106.636 E24.85855
G1 X71.333 Y106.36 E24.87412
G1 X71.134 Y106.116 E24.88977
G1 X70.89 Y105.917 E24.90543
G1 X70.614 Y105.769 E24.921
G1 X70.313 Y105.678 E24.93664
G1 X70 Y105.647 E24.95228
G1 X69.688 Y105.678 E24.96787
G1 X69.387 Y105.769 E24.9835
G1 X69.111 Y105.917 E24.99908
G0 F3600 X69.056 Y105.834
G0 X75.835 Y100.944
G0 X75.918 Y100.889
G1 F1800 X76.117 Y101.133 E25.01473
G1 X76.361 Y101.332 E25.03039
G1 X76.637 Y101.48 E25.04596
G1 X76.936 Y101.571 E25.0615
G1 X77.25 Y101.603 E25.0772
G1 X77.565 Y101.571 E25.09294
G1 X77.864 Y101.48 E25.10848
G1 X78.14 Y101.332 E25.12405
G1 X78.384 Y101.133 E25.13971
G1 X78.583 Y100.889 E25.15537
G1 X78.619 Y100.822 E25.15915
G1 X78.731 Y100.613 E25.16956
G1 X78.822 Y100.312 E25.17827
G1 X78.853 Y100 E25.18309
G1 X78.822 Y99.688 E25.18917
G1 X78.731 Y99.387 E25.19893
G1 X78.618 Y99.176 E25.20943
G1 X78.583 Y99.111 E25.2131
G1 X78.384 Y98.867 E25.22876
G1 X78.14 Y98.668 E25.24441
G1 X77.864 Y98.52 E25.25998
G1 X77.563 Y98.429 E25.27562
G1 X77.251 Y98.398 E25.29121
G1 X76.938 Y98.429 E25.30685
G1 X76.637 Y98.52 E25.32249
G1 X76.361 Y98.668 E25.33806
G1 X76.117 Y98.867 E25.35371
G1 X75.918 Y99.111 E25.36937
G1 X75.77 Y99.387 E25.38494
G1 X75.679 Y99.686 E25.40048
G1 X75.647 Y100 E25.41618
G1 X75.679 Y100.314 E25.43187
G1 X75.77 Y100.613 E25.44741
G1 X75.918 Y100.889 E25.46299
G0 F3600 X76.401 Y100.849
;TYPE:WALL-OUTER
G1 F1800 X76.584 Y100.998 E25.47472
G1 X76.791 Y101.109 E25.4864
G1 X77.015 Y101.177 E25.49804
G1 X77.25 Y101.201 E25.50978
G1 X77.486 Y101.177 E25.52158
G1 X77.71 Y101.109 E25.53322
G1 X77.917 Y100.998 E25.5449
G1 X78.1 Y100.849 E25.55663
G1 X78.249 Y100.666 E25.56837
G1 X78.36 Y100.459 E25.58005
G1 X78.428 Y100.234 E25.59173
G1 X78.451 Y100 E25.60343
G1 X78.428 Y99.766 E25.61512
G1 X78.36 Y99.541 E25.62681
G1 X78.249 Y99.334 E25.63848
G1 X78.1 Y99.151 E25.65022
G1 X77.917 Y99.002 E25.66195
G1 X77.71 Y98.891 E25.67363
G1 X77.485 Y98.823 E25.68532
G1 X77.251 Y98.8 E25.69701
G1 X77.016 Y98.823 E25.70875
G1 X76.791 Y98.891 E25.72044
G1 X76.584 Y99.002 E25.73212
G1 X76.401 Y99.151 E25.74385
G1 X76.252 Y99.334 E25.75559
G1 X76.141 Y99.541 E25.76727
G1 X76.073 Y99.765 E25.77891
G1 X76.049 Y100 E25.79065
G1 X76.073 Y100.235 E25.8024
G1 X76.141 Y100.459 E25.81404
G1 X76.252 Y100.666 E25.82572
G1 X76.401 Y100.849 E25.83745
G0 F3600 X76.015 Y101.165
G0 X76.622 Y101.516
G0 X77.25 Y101.643
G0 X78.825 Y101.756
G0 X79.317 Y101.855
G1 F1800 X78.777 Y103.636 E25.92999
G1 X77.901 Y105.274 E26.02236
G1 X76.717 Y106.716 E26.11513
G1 X75.275 Y107.9 E26.20791
G1 X73.637 Y108.776 E26.30027
G1 X71.856 Y109.316 E26.39281
G1 X70 Y109.499 E26.48554
G1 X68.145 Y109.316 E26.57823
G1 X66.364 Y108.776 E26.67077
G1 X64.726 Y107.9 E26.76313
G1 X63.284 Y106.716 E26.85591
G1 X62.1 Y105.274 E26.94868
G1 X61.224 Y103.636 E27.04105
G1 X60.684 Y101.855 E27.13359
G1 X60.501 Y100 E27.22627
G1 X60.684 Y98.145 E27.31896
G1 X61.224 Y96.364 E27.4115
G1 X62.1 Y94.726 E27.50386
G1 X63.284 Y93.284 E27.59663
G1 X64.726 Y92.1 E27.68941
G1 X66.364 Y91.224 E27.78177
G1 X68.145 Y90.684 E27.87431
G1 X70.001 Y90.501 E27.96705
G1 X71.856 Y90.684 E28.05973
G1 X73.637 Y91.224 E28.15227
G1 X75.275 Y92.1 E28.24464
G1 X76.717 Y93.284 E28.33741
G1 X77.901 Y94.726 E28.43019
G1 X78.777 Y96.364 E28.52255
G1 X79.317 Y98.145 E28.61509
G1 X79.5 Y100 E28.70778
G1 X79.317 Y101.855 E28.80046
G0 F3600 X78.825 Y101.756
G0 X76.929 Y101.61
G0 X72.165 Y100.38
G0 X71.669 Y100.331
