;FLAVOR:RepRap
;TIME:401
;Generated with Cura_SteamEngine 2.3.1
M190 S60
M104 S200
M109 S200
G21 ;metric values
G90 ;absolute positioning
G92 E0 ;zero the extruded length
M107 ;start with the fan off
G1 X90 Y200 F6000 ;go to the middle of the front

G92 E0 ;zero the extruded length
G1 X150 E10 F300 ; make a thick line to prime extruder
G92 E0 ; reset extruder
;LAYER_COUNT:5
;LAYER:0
M107
G1 F1500 E-6.5
G0 F3600 X72.382 Y89.13 Z.299
;TYPE:SKIRT
G1 F1500 E0
G1 F1800 X72.964 Y88.743 E0.03475
G1 X74.606 Y87.868 E0.12727
G1 X75.258 Y87.599 E0.16234
G1 X77.068 Y87.052 E0.25636
G1 X77.753 Y86.916 E0.29109
G1 X79.644 Y86.728 E0.38558
G1 X80.292 Y86.722 E0.4178
G1 X83.327 Y86.969 E0.56921
G1 X88.797 Y87.192 E0.84143
G1 X94.271 Y87.104 E1.11365
G1 X99.737 Y86.72 E1.38611
G1 X100.239 Y86.72 E1.41107
G1 X105.888 Y87.112 E1.69264
G1 X111.356 Y87.19 E1.96456
G1 X116.83 Y86.958 E2.23699
G1 X118.275 Y86.835 E2.3091
G1 X118.304 Y86.833 E2.31055
G1 X119.74 Y86.722 E2.38216
G1 X120.374 Y86.729 E2.41369
G1 X122.253 Y86.916 E2.50758
G1 X122.941 Y87.053 E2.54246
G1 X124.751 Y87.602 E2.63651
G1 X125.403 Y87.872 E2.6716
G1 X127.079 Y88.768 E2.7661
G1 X127.679 Y89.171 E2.80204
G1 X129.185 Y90.419 E2.8993
G1 X129.681 Y90.92 E2.93435
G1 X130.873 Y92.386 E3.0283
G1 X131.257 Y92.964 E3.06281
G1 X132.132 Y94.606 E3.15532
G1 X132.401 Y95.257 E3.19035
G1 X132.948 Y97.066 E3.28432
G1 X133.084 Y97.752 E3.31909
G1 X133.272 Y99.643 E3.41359
G1 X133.272 Y100.354 E3.44894
G1 X133.085 Y102.242 E3.54328
G1 X132.945 Y102.942 E3.57877
G1 X132.374 Y104.804 E3.67561
G1 X132.106 Y105.448 E3.7103
G1 X131.231 Y107.082 E3.80246
G1 X130.839 Y107.668 E3.83752
G1 X129.65 Y109.116 E3.93068
G1 X129.16 Y109.607 E3.96518
G1 X127.678 Y110.831 E4.06075
G1 X127.083 Y111.23 E4.09637
G1 X125.411 Y112.124 E4.19065
G1 X124.752 Y112.396 E4.2261
G1 X122.895 Y112.955 E4.32253
G1 X122.208 Y113.091 E4.35735
G1 X120.348 Y113.273 E4.45028
G1 X119.703 Y113.278 E4.48235
G1 X116.796 Y113.04 E4.62738
G1 X111.318 Y112.809 E4.90001
G1 X105.849 Y112.89 E5.17198
G1 X100.261 Y113.28 E5.45052
G1 X99.761 Y113.28 E5.47538
G1 X94.112 Y112.888 E5.75694
G1 X88.644 Y112.81 E6.02886
G1 X83.17 Y113.042 E6.3013
G1 X81.725 Y113.165 E6.37341
G1 X81.696 Y113.167 E6.37485
G1 X80.26 Y113.278 E6.44647
G1 X79.626 Y113.271 E6.478
G1 X77.747 Y113.084 E6.57189
G1 X77.059 Y112.947 E6.60677
G1 X75.249 Y112.398 E6.70082
G1 X74.597 Y112.128 E6.73591
G1 X72.921 Y111.232 E6.83041
G1 X72.334 Y110.84 E6.86551
G1 X70.885 Y109.651 E6.95871
G1 X70.393 Y109.16 E6.99327
G1 X69.167 Y107.675 E7.08902
G1 X68.768 Y107.08 E7.12464
G1 X67.875 Y105.409 E7.21885
G1 X67.604 Y104.755 E7.25406
G1 X67.049 Y102.922 E7.34929
G1 X66.912 Y102.232 E7.38426
G1 X66.727 Y100.354 E7.4781
G1 X66.729 Y99.631 E7.51405
G1 X66.93 Y97.686 E7.61128
G1 X67.071 Y96.994 E7.64639
G1 X67.628 Y95.189 E7.74032
G1 X67.896 Y94.549 E7.77482
G1 X68.778 Y92.905 E7.86759
G1 X69.169 Y92.321 E7.90253
G1 X70.367 Y90.864 E7.99633
G1 X70.873 Y90.36 E8.03184
G1 X72.382 Y89.13 E8.12864
G0 F3600 X72.635 Y89.44
G1 F1800 X73.152 Y89.096 E8.15952
G1 X74.794 Y88.221 E8.25204
G1 X75.373 Y87.982 E8.28318
G1 X77.183 Y87.435 E8.3772
G1 X77.792 Y87.314 E8.40808
G1 X79.683 Y87.126 E8.50257
G1 X80.259 Y87.121 E8.53121
G1 X83.301 Y87.368 E8.68297
G1 X88.787 Y87.592 E8.95598
G1 X94.288 Y87.504 E9.22955
G1 X99.766 Y87.119 E9.50261
G1 X100.212 Y87.119 E9.52478
G1 X105.874 Y87.512 E9.807
G1 X111.367 Y87.59 E10.08016
G1 X116.858 Y87.358 E10.35344
G1 X118.309 Y87.234 E10.42585
G1 X118.334 Y87.232 E10.42709
G1 X119.77 Y87.121 E10.49871
G1 X120.334 Y87.127 E10.52676
G1 X122.213 Y87.314 E10.62065
G1 X122.825 Y87.436 E10.65168
G1 X124.635 Y87.985 E10.74573
G1 X125.215 Y88.225 E10.77694
G1 X126.891 Y89.121 E10.87144
G1 X127.424 Y89.479 E10.90337
G1 X128.93 Y90.727 E11.00062
G1 X129.371 Y91.172 E11.03177
G1 X130.563 Y92.638 E11.12572
G1 X130.904 Y93.152 E11.15639
G1 X131.779 Y94.794 E11.24891
G1 X132.018 Y95.373 E11.28006
G1 X132.565 Y97.182 E11.37403
G1 X132.686 Y97.791 E11.4049
G1 X132.874 Y99.682 E11.49939
G1 X132.874 Y100.314 E11.53082
G1 X132.687 Y102.202 E11.62516
G1 X132.562 Y102.825 E11.65675
G1 X131.991 Y104.687 E11.75359
G1 X131.753 Y105.26 E11.78445
G1 X130.878 Y106.894 E11.87661
G1 X130.53 Y107.414 E11.90772
G1 X129.341 Y108.862 E12.00089
G1 X128.906 Y109.298 E12.03151
G1 X127.424 Y110.522 E12.12709
G1 X126.895 Y110.877 E12.15876
G1 X125.223 Y111.771 E12.25304
G1 X124.636 Y112.013 E12.28461
G1 X122.779 Y112.572 E12.38104
G1 X122.169 Y112.693 E12.41196
G1 X120.309 Y112.875 E12.50489
G1 X119.736 Y112.879 E12.53339
G1 X116.822 Y112.641 E12.67876
G1 X111.328 Y112.409 E12.95219
G1 X105.833 Y112.49 E13.22545
G1 X100.233 Y112.881 E13.50458
G1 X99.788 Y112.881 E13.52671
G1 X94.126 Y112.488 E13.80893
G1 X88.633 Y112.41 E14.08209
G1 X83.142 Y112.642 E14.35536
G1 X81.691 Y112.766 E14.42778
G1 X81.666 Y112.768 E14.42902
G1 X80.23 Y112.879 E14.50064
G1 X79.666 Y112.873 E14.52869
G1 X77.787 Y112.686 E14.62258
G1 X77.175 Y112.564 E14.65361
G1 X75.365 Y112.015 E14.74766
G1 X74.785 Y111.775 E14.77887
G1 X73.109 Y110.879 E14.87337
G1 X72.588 Y110.531 E14.90452
G1 X71.139 Y109.342 E14.99772
G1 X70.701 Y108.905 E15.02849
G1 X69.475 Y107.42 E15.12424
G1 X69.121 Y106.891 E15.15589
G1 X68.228 Y105.22 E15.2501
G1 X67.987 Y104.639 E15.28138
G1 X67.432 Y102.806 E15.37661
G1 X67.31 Y102.193 E15.40769
G1 X67.125 Y100.315 E15.50152
G1 X67.127 Y99.672 E15.53349
G1 X67.328 Y97.727 E15.63072
G1 X67.453 Y97.112 E15.66193
G1 X68.01 Y95.307 E15.75585
G1 X68.248 Y94.738 E15.78652
G1 X69.13 Y93.094 E15.87929
G1 X69.478 Y92.575 E15.91036
G1 X70.676 Y91.118 E16.00415
G1 X71.126 Y90.67 E16.03573
G1 X72.635 Y89.44 E16.13253
G1 F1500 E9.63253
G0 F3600 X74.143 Y91.461
G0 X74.97 Y92.468
G0 X75.003 Y92.518
G0 X74.948 Y92.435
;TYPE:WALL-INNER
G1 F1500 E16.13253
G1 F1800 X76.519 Y91.595 E16.22111
G1 X78.225 Y91.078 E16.30975
G1 X80.001 Y90.903 E16.39849
G1 X81.776 Y91.078 E16.48717
G1 X83.482 Y91.595 E16.57581
G1 X85.053 Y92.435 E16.6644
G1 X86.433 Y93.568 E16.75318
G1 X87.566 Y94.948 E16.84196
G1 X88.406 Y96.519 E16.93054
G1 X88.923 Y98.225 E17.01918
G1 X89.098 Y100 E17.10787
G1 X88.923 Y101.775 E17.19656
G1 X88.406 Y103.481 E17.2852
G1 X87.566 Y105.052 E17.37378
G1 X86.433 Y106.432 E17.46256
G1 X85.053 Y107.565 E17.55134
G1 X83.482 Y108.405 E17.63993
G1 X81.776 Y108.922 E17.72856
G1 X80 Y109.097 E17.8173
G1 X78.225 Y108.922 E17.90599
G1 X76.519 Y108.405 E17.99463
G1 X74.948 Y107.565 E18.08321
G1 X73.568 Y106.432 E18.17199
G1 X72.435 Y105.052 E18.26078
G1 X71.595 Y103.481 E18.34936
G1 X71.078 Y101.775 E18.438
G1 X70.903 Y100 E18.52668
G1 X71.078 Y98.225 E18.61537
G1 X71.595 Y96.519 E18.70401
G1 X72.435 Y94.948 E18.79259
G1 X73.568 Y93.568 E18.88138
G1 X74.948 Y92.435 E18.97016
G0 F3600 X75.003 Y92.518
G0 X78.297 Y93
G0 X78.397 Y93
G1 F1800 X78.429 Y93.315 E18.9859
G1 X78.52 Y93.614 E19.00144
G1 X78.668 Y93.89 E19.01702
G1 X78.867 Y94.134 E19.03267
G1 X79.111 Y94.333 E19.04833
G1 X79.387 Y94.481 E19.0639
G1 X79.688 Y94.572 E19.07954
G1 X80 Y94.603 E19.09513
G1 X80.313 Y94.572 E19.11077
G1 X80.614 Y94.481 E19.1264
G1 X80.89 Y94.333 E19.14197
G1 X81.134 Y94.134 E19.15763
G1 X81.333 Y93.89 E19.17329
G1 X81.481 Y93.614 E19.18886
G1 X81.572 Y93.313 E19.2045
G1 X81.603 Y93.001 E19.22009
G1 X81.572 Y92.688 E19.23573
G1 X81.481 Y92.387 E19.25136
G1 X81.333 Y92.111 E19.26693
G1 X81.134 Y91.867 E19.28259
G1 X80.89 Y91.668 E19.29825
G1 X80.614 Y91.52 E19.31382
G1 X80.315 Y91.429 E19.32936
G1 X80.001 Y91.397 E19.34505
G1 X79.686 Y91.429 E19.3608
G1 X79.387 Y91.52 E19.37634
G1 X79.111 Y91.668 E19.39191
G1 X78.867 Y91.867 E19.40757
G1 X78.668 Y92.111 E19.42322
G1 X78.52 Y92.387 E19.43879
G1 X78.429 Y92.686 E19.45434
G1 X78.397 Y93 E19.47003
G0 F3600 X78.297 Y93
G0 X79.571 Y97.84
G0 X79.59 Y97.938
G1 F1800 X79.195 Y98.058 E19.49056
G1 X78.831 Y98.252 E19.51107
G1 X78.514 Y98.514 E19.53152
G1 X78.252 Y98.831 E19.55196
G1 X78.058 Y99.195 E19.57247
G1 X77.938 Y99.59 E19.593
G1 X77.897 Y100 E19.61349
G1 X77.938 Y100.41 E19.63398
G1 X78.058 Y100.805 E19.65451
G1 X78.252 Y101.169 E19.67502
G1 X78.514 Y101.486 E19.69547
G1 X78.831 Y101.748 E19.71591
G1 X79.195 Y101.942 E19.73642
G1 X79.59 Y102.062 E19.75695
G1 X80 Y102.103 E19.77744
G1 X80.411 Y102.062 E19.79798
G1 X80.806 Y101.942 E19.81851
G1 X81.17 Y101.748 E19.83901
G1 X81.487 Y101.486 E19.85946
G1 X81.749 Y101.169 E19.87991
G1 X81.943 Y100.805 E19.90042
G1 X82.063 Y100.409 E19.921
G1 X82.103 Y100 E19.94143
G1 X82.063 Y99.591 E19.96187
G1 X81.943 Y99.195 E19.98244
G1 X81.749 Y98.831 E20.00295
G1 X81.487 Y98.514 E20.0234
G1 X81.17 Y98.252 E20.04385
G1 X80.806 Y98.058 E20.06436
G1 X80.411 Y97.938 E20.08489
G1 X80 Y97.897 E20.10542
G1 X79.59 Y97.938 E20.12591
G0 F3600 X79.571 Y97.84
G0 X74.573 Y99.349
G0 X74.481 Y99.387
G1 F1800 X74.333 Y99.111 E20.14149
G1 X74.134 Y98.867 E20.15714
G1 X73.89 Y98.668 E20.1728
G1 X73.614 Y98.52 E20.18837
G1 X73.313 Y98.429 E20.20401
G1 X73 Y98.398 E20.21965
G1 X72.688 Y98.429 E20.23524
G1 X72.387 Y98.52 E20.25087
G1 X72.111 Y98.668 E20.26644
G1 X71.867 Y98.867 E20.2821
G1 X71.668 Y99.111 E20.29776
G1 X71.52 Y99.387 E20.31333
G1 X71.429 Y99.686 E20.32887
G1 X71.397 Y100 E20.34456
G1 X71.429 Y100.314 E20.36026
G1 X71.52 Y100.613 E20.3758
G1 X71.668 Y100.889 E20.39137
G1 X71.867 Y101.133 E20.40703
G1 X72.111 Y101.332 E20.42268
G1 X72.387 Y101.48 E20.43826
G1 X72.686 Y101.571 E20.4538
G1 X73 Y101.603 E20.46949
G1 X73.315 Y101.571 E20.48523
G1 X73.614 Y101.48 E20.50077
G1 X73.89 Y101.332 E20.51635
G1 X74.134 Y101.133 E20.532
G1 X74.333 Y100.889 E20.54766
G1 X74.481 Y100.613 E20.56323
G1 X74.572 Y100.312 E20.57887
G1 X74.603 Y100 E20.59446
G1 X74.572 Y99.688 E20.61005
G1 X74.481 Y99.387 E20.62568
G0 F3600 X74.573 Y99.349
G0 X79.056 Y105.584
G0 X79.111 Y105.667
G1 F1800 X78.867 Y105.866 E20.64134
G1 X78.668 Y106.11 E20.657
G1 X78.52 Y106.386 E20.67257
G1 X78.429 Y106.685 E20.68811
G1 X78.397 Y107 E20.70385
G1 X78.429 Y107.314 E20.71955
G1 X78.52 Y107.613 E20.73509
G1 X78.668 Y107.889 E20.75066
G1 X78.867 Y108.133 E20.76632
G1 X79.111 Y108.332 E20.78197
G1 X79.387 Y108.48 E20.79754
G1 X79.686 Y108.571 E20.81309
G1 X80 Y108.603 E20.82878
G1 X80.315 Y108.571 E20.84452
G1 X80.614 Y108.48 E20.86006
G1 X80.89 Y108.332 E20.87564
G1 X81.134 Y108.133 E20.89129
G1 X81.333 Y107.889 E20.90695
G1 X81.481 Y107.613 E20.92252
G1 X81.572 Y107.312 E20.93816
G1 X81.603 Y107 E20.95375
G1 X81.572 Y106.687 E20.96939
G1 X81.481 Y106.386 E20.98502
G1 X81.333 Y106.11 E21.0006
G1 X81.134 Y105.866 E21.01625
G1 X80.89 Y105.667 E21.03191
G1 X80.614 Y105.519 E21.04748
G1 X80.313 Y105.428 E21.06312
G1 X80 Y105.397 E21.07876
G1 X79.688 Y105.428 E21.09435
G1 X79.387 Y105.519 E21.10998
G1 X79.111 Y105.667 E21.12555
G0 F3600 X79.056 Y105.584
G0 X85.585 Y100.944
G0 X85.668 Y100.889
G1 F1800 X85.867 Y101.133 E21.14121
G1 X86.111 Y101.332 E21.15687
G1 X86.387 Y101.48 E21.17244
G1 X86.686 Y101.571 E21.18798
G1 X87 Y101.603 E21.20367
G1 X87.315 Y101.571 E21.21942
G1 X87.614 Y101.48 E21.23496
G1 X87.89 Y101.332 E21.25053
G1 X88.134 Y101.133 E21.26619
G1 X88.333 Y100.889 E21.28184
G1 X88.481 Y100.613 E21.29742
G1 X88.572 Y100.314 E21.31296
G1 X88.604 Y100 E21.32865
G1 X88.572 Y99.686 E21.34434
G1 X88.481 Y99.387 E21.35989
G1 X88.333 Y99.111 E21.37546
G1 X88.134 Y98.867 E21.39111
G1 X87.89 Y98.668 E21.40677
G1 X87.614 Y98.52 E21.42234
G1 X87.313 Y98.429 E21.43798
G1 X87 Y98.398 E21.45362
G1 X86.688 Y98.429 E21.46921
G1 X86.387 Y98.52 E21.48484
G1 X86.111 Y98.668 E21.50042
G1 X85.867 Y98.867 E21.51607
G1 X85.668 Y99.111 E21.53173
G1 X85.52 Y99.387 E21.5473
G1 X85.429 Y99.686 E21.56284
G1 X85.397 Y100 E21.57854
G1 X85.429 Y100.314 E21.59423
G1 X85.52 Y100.613 E21.60977
G1 X85.668 Y100.889 E21.62534
G0 F3600 X86.151 Y100.849
;TYPE:WALL-OUTER
G1 F1800 X86.334 Y100.998 E21.63708
G1 X86.541 Y101.109 E21.64876
G1 X86.765 Y101.177 E21.6604
G1 X87 Y101.201 E21.67214
G1 X87.236 Y101.177 E21.68394
G1 X87.46 Y101.109 E21.69558
G1 X87.667 Y100.998 E21.70726
G1 X87.85 Y100.849 E21.71899
G1 X87.999 Y100.666 E21.73073
G1 X88.11 Y100.459 E21.7424
G1 X88.178 Y100.235 E21.75405
G1 X88.202 Y100 E21.76579
G1 X88.178 Y99.765 E21.77754
G1 X88.11 Y99.541 E21.78918
G1 X87.999 Y99.334 E21.80086
G1 X87.85 Y99.151 E21.81259
G1 X87.667 Y99.002 E21.82432
G1 X87.46 Y98.891 E21.836
G1 X87.235 Y98.823 E21.84769
G1 X87 Y98.8 E21.85943
G1 X86.766 Y98.823 E21.87112
G1 X86.541 Y98.891 E21.88281
G1 X86.334 Y99.002 E21.89449
G1 X86.151 Y99.151 E21.90623
G1 X86.002 Y99.334 E21.91796
G1 X85.891 Y99.541 E21.92964
G1 X85.823 Y99.765 E21.94128
G1 X85.799 Y100 E21.95302
G1 X85.823 Y100.235 E21.96477
G1 X85.891 Y100.459 E21.97641
G1 X86.002 Y100.666 E21.98809
G1 X86.151 Y100.849 E21.99982
G0 F3600 X85.765 Y101.165
G0 X86.372 Y101.516
G0 X87 Y101.643
G0 X88.825 Y101.756
G0 X89.317 Y101.855
G1 F1800 X88.777 Y103.636 E22.09236
G1 X87.901 Y105.274 E22.18473
G1 X86.717 Y106.716 E22.2775
G1 X85.275 Y107.9 E22.37028
G1 X83.637 Y108.776 E22.46264
G1 X81.856 Y109.316 E22.55518
G1 X80 Y109.499 E22.64792
G1 X78.145 Y109.316 E22.7406
G1 X76.364 Y108.776 E22.83314
G1 X74.726 Y107.9 E22.9255
G1 X73.284 Y106.716 E23.01828
G1 X72.1 Y105.274 E23.11105
G1 X71.224 Y103.636 E23.20342
G1 X70.684 Y101.855 E23.29596
G1 X70.501 Y100 E23.38864
G1 X70.684 Y98.145 E23.48133
G1 X71.224 Y96.364 E23.57387
G1 X72.1 Y94.726 E23.66623
G1 X73.284 Y93.284 E23.75901
G1 X74.726 Y92.1 E23.85178
G1 X76.364 Y91.224 E23.94414
G1 X78.145 Y90.684 E24.03668
G1 X80.001 Y90.501 E24.12942
G1 X81.856 Y90.684 E24.2221
G1 X83.637 Y91.224 E24.31464
G1 X85.275 Y92.1 E24.40701
G1 X86.717 Y93.284 E24.49978
G1 X87.901 Y94.726 E24.59256
G1 X88.777 Y96.364 E24.68492
G1 X89.317 Y98.145 E24.77746
G1 X89.5 Y100 E24.87015
G1 X89.317 Y101.855 E24.96283
G0 F3600 X88.825 Y101.756
G0 X86.679 Y101.61
G0 X82.165 Y100.38
G0 X81.669 Y100.331
G1 F1800 X81.701 Y100 E24.97937
G1 X81.669 Y99.669 E24.9959
G1 X81.572 Y99.349 E25.01253
G1 X81.415 Y99.055 E25.0291
G1 X81.203 Y98.798 E25.04567
G1 X80.946 Y98.586 E25.06223
G1 X80.652 Y98.429 E25.07881
G1 X80.332 Y98.332 E25.09543
G1 X80 Y98.299 E25.11202
G1 X79.669 Y98.332 E25.12856
G1 X79.349 Y98.429 E25.14519
G1 X79.055 Y98.586 E25.16176
G1 X78.798 Y98.798 E25.17833
G1 X78.586 Y99.055 E25.19489
G1 X78.429 Y99.349 E25.21147
G1 X78.332 Y99.669 E25.22809
G1 X78.299 Y100 E25.24463
G1 X78.332 Y100.331 E25.26117
G1 X78.429 Y100.651 E25.2778
G1 X78.586 Y100.945 E25.29437
G1 X78.798 Y101.202 E25.31094
G1 X79.055 Y101.414 E25.3275
G1 X79.349 Y101.571 E25.34408
G1 X79.669 Y101.668 E25.3607
G1 X80 Y101.701 E25.37724
G1 X80.332 Y101.668 E25.39383
G1 X80.652 Y101.571 E25.41046
G1 X80.946 Y101.414 E25.42703
G1 X81.203 Y101.202 E25.4436
G1 X81.415 Y100.945 E25.46016
G1 X81.572 Y100.651 E25.47674
G1 X81.669 Y100.331 E25.49336
G0 F3600 X82.165 Y100.38
G0 X80.285 Y105.326
G0 X80.235 Y105.822
G1 F1800 X80 Y105.799 E25.5051
G1 X79.766 Y105.822 E25.5168
G1 X79.541 Y105.89 E25.52848
G1 X79.334 Y106.001 E25.54016
G1 X79.151 Y106.15 E25.5519
G1 X79.002 Y106.333 E25.56363
G1 X78.891 Y106.54 E25.57531
G1 X78.823 Y106.764 E25.58695
G1 X78.799 Y107 E25.59875
G1 X78.823 Y107.235 E25.61049
G1 X78.891 Y107.459 E25.62213
G1 X79.002 Y107.666 E25.63381
G1 X79.151 Y107.849 E25.64555
G1 X79.334 Y107.998 E25.65728
G1 X79.541 Y108.109 E25.66896
G1 X79.765 Y108.177 E25.6806
G1 X80 Y108.201 E25.69235
G1 X80.236 Y108.177 E25.70414
G1 X80.46 Y108.109 E25.71578
G1 X80.667 Y107.998 E25.72746
G1 X80.85 Y107.849 E25.73919
G1 X80.999 Y107.666 E25.75093
G1 X81.11 Y107.459 E25.76261
G1 X81.178 Y107.234 E25.7743
G1 X81.201 Y107 E25.78599
G1 X81.178 Y106.765 E25.79773
