;FLAVOR:RepRap
;TIME:1369
;Generated with Cura_SteamEngine 2.3.1
M190 S60
M104 S200
M109 S200
G21 ;metric values
G90 ;absolute positioning
G92 E0 ;zero the extruded length
M107 ;start with the fan off
G1 X90 Y200 F6000 ;go to the middle of the front

G92 E0 ;zero the extruded length
G1 X150 E10 F300 ; make a thick line to prime extruder
G92 E0 ; reset extruder
;LAYER_COUNT:10
;LAYER:0
M107
G1 F1500 E-6.5
G0 F3600 X73.039 Y47.713 Z.299
;TYPE:SKIRT
G1 F1500 E0
G1 F1800 X73.355 Y47.238 E0.02837
G1 X73.667 Y46.84 E0.05351
G1 X73.858 Y46.65 E0.06691
G1 X74.393 Y46.16 E0.10298
G1 X74.791 Y45.849 E0.1281
G1 X75.117 Y45.661 E0.14681
G1 X75.71 Y45.363 E0.17981
G1 X76.178 Y45.172 E0.20495
G1 X76.505 Y45.087 E0.22175
G1 X77.203 Y44.944 E0.25717
G1 X77.705 Y44.882 E0.28233
G1 X78.054 Y44.886 E0.29968
G1 X78.681 Y44.927 E0.33092
G1 X79.181 Y45 E0.35605
G1 X79.477 Y45.082 E0.37132
G1 X80.142 Y45.302 E0.40615
G1 X80.608 Y45.498 E0.43129
G1 X80.951 Y45.704 E0.45118
G1 X81.621 Y46.165 E0.49162
G1 X82.013 Y46.483 E0.51672
G1 X82.326 Y46.827 E0.53985
G1 X82.743 Y47.359 E0.57346
G1 X83.022 Y47.78 E0.59857
G1 X83.253 Y48.3 E0.62686
G1 X85.386 Y54.556 E0.95552
G1 X87.416 Y59.662 E1.22874
G1 X89.713 Y64.606 E1.49981
G1 X92.306 Y69.454 E1.77319
G1 X95.154 Y74.117 E2.04488
G1 X98.267 Y78.622 E2.31716
G1 X101.65 Y82.972 E2.59117
G1 X103.374 Y85.006 E2.72375
G1 X107.114 Y89.052 E2.99772
G1 X111.055 Y92.861 E3.27025
G1 X115.201 Y96.435 E3.54243
G1 X119.536 Y99.766 E3.81427
G1 X124.104 Y102.882 E4.08922
G1 X126.283 Y104.242 E4.21694
G1 X126.689 Y104.543 E4.24207
G1 X127.043 Y104.904 E4.26721
G1 X127.336 Y105.316 E4.29235
G1 X127.56 Y105.769 E4.31748
G1 X127.71 Y106.252 E4.34263
G1 X127.788 Y106.956 E4.37785
G1 X127.789 Y151.94 E6.61463
G1 X127.749 Y152.444 E6.63977
G1 X127.63 Y152.935 E6.66489
G1 X127.436 Y153.402 E6.69004
G1 X127.17 Y153.832 E6.71518
G1 X126.84 Y154.215 E6.74032
G1 X126.453 Y154.541 E6.76548
G1 X126.02 Y154.802 E6.79062
G1 X125.552 Y154.992 E6.81573
G1 X125.059 Y155.105 E6.84088
G1 X124.582 Y155.14 E6.86466
G1 X100.336 Y155.084 E8.07027
G1 X99.832 Y155.043 E8.09541
G1 X99.455 Y154.958 E8.11463
G1 X97.607 Y154.424 E8.21028
G1 X97.299 Y154.318 E8.22648
G1 X96.224 Y153.885 E8.2841
G1 X95.962 Y153.765 E8.29843
G1 X94.708 Y153.123 E8.36848
G1 X94.422 Y152.958 E8.3849
G1 X93.154 Y152.134 E8.46009
G1 X92.899 Y151.95 E8.47573
G1 X91.823 Y151.089 E8.54425
G1 X91.592 Y150.885 E8.55958
G1 X90.593 Y149.914 E8.62885
G1 X90.382 Y149.688 E8.64422
G1 X89.492 Y148.638 E8.71267
G1 X89.295 Y148.381 E8.72877
G1 X88.428 Y147.119 E8.8049
G1 X88.261 Y146.848 E8.82073
G1 X87.599 Y145.643 E8.88909
G1 X87.476 Y145.392 E8.90299
G1 X86.994 Y144.298 E8.96244
G1 X86.887 Y144.023 E8.97711
G1 X86.446 Y142.705 E9.04622
G1 X86.401 Y142.559 E9.05381
G1 X82.059 Y127.17 E9.84889
G1 X82.033 Y127.072 E9.85393
G1 X80.208 Y119.718 E10.23069
G1 X80.188 Y119.632 E10.23508
G1 X78.291 Y110.972 E10.6759
G1 X78.275 Y110.892 E10.67996
G1 X77.079 Y104.682 E10.99442
G1 X77.065 Y104.609 E10.99811
G1 X75.804 Y97.124 E11.37554
G1 X75.792 Y97.044 E11.37956
G1 X74.727 Y89.573 E11.75481
G1 X74.717 Y89.492 E11.75887
G1 X73.83 Y81.902 E12.13884
G1 X73.821 Y81.821 E12.14289
G1 X73.132 Y74.249 E12.52096
G1 X73.126 Y74.169 E12.52494
G1 X72.632 Y66.641 E12.90007
G1 X72.628 Y66.559 E12.90415
G1 X72.325 Y58.982 E13.28121
G1 X72.322 Y58.901 E13.28524
G1 X72.211 Y51.373 E13.6596
G1 X72.214 Y51.189 E13.66876
G1 X72.259 Y50.142 E13.72086
G1 X72.32 Y49.64 E13.74601
G1 X72.4 Y49.328 E13.76203
G1 X72.647 Y48.534 E13.80337
G1 X72.835 Y48.065 E13.8285
G1 X73.039 Y47.713 E13.84873
G1 F1500 E7.34873
G0 F3600 X75.271 Y48.883
G0 X76.307 Y49.675
G0 X76.359 Y49.705
G0 X76.273 Y49.655
;TYPE:WALL-INNER
G1 F1500 E13.84873
G1 F1800 X76.591 Y49.24 E13.87472
G1 X77.005 Y48.922 E13.90068
G1 X77.483 Y48.724 E13.92641
G1 X77.999 Y48.656 E13.95229
G1 X78.515 Y48.724 E13.97817
G1 X78.993 Y48.922 E14.00389
G1 X79.408 Y49.24 E14.02989
G1 X79.725 Y49.653 E14.05578
G1 X79.924 Y50.133 E14.08161
G1 X79.998 Y50.694 E14.10975
G1 X80.141 Y55.757 E14.3616
G1 X80.577 Y60.849 E14.61572
G1 X81.302 Y65.909 E14.8699
G1 X82.313 Y70.918 E15.12399
G1 X83.607 Y75.863 E15.37815
G1 X85.18 Y80.726 E15.63229
G1 X87.028 Y85.492 E15.88647
G1 X89.144 Y90.147 E16.14072
G1 X90.322 Y92.335 E16.26429
G1 X91.668 Y94.428 E16.38802
G1 X93.173 Y96.408 E16.51169
G1 X94.828 Y98.267 E16.63545
G1 X96.622 Y99.991 E16.75917
G1 X98.544 Y101.569 E16.88282
G1 X100.582 Y102.995 E17.0065
G1 X102.725 Y104.258 E17.13019
G1 X104.961 Y105.35 E17.25392
G1 X107.275 Y106.266 E17.37767
G1 X108.749 Y106.72 E17.45436
G1 X109.374 Y106.912 E17.48687
G1 X108.748 Y107.101 E17.50381
G1 X108.655 Y107.13 E17.50866
G1 X106.874 Y108.083 E17.6091
G1 X105.381 Y109.309 E17.70516
G1 X105.313 Y109.364 E17.70951
G1 X105.241 Y109.452 E17.71516
G1 X105.149 Y109.564 E17.72237
G0 X105.106 Y109.432
G0 X105.066 Y109.309
G1 X105.024 Y109.232 E17.72673
G1 X104.913 Y109.033 E17.73806
G1 X104.707 Y108.795 E17.75371
G1 X104.464 Y108.602 E17.76914
G1 X104.183 Y108.458 E17.78484
G1 X103.879 Y108.372 E17.80055
G1 X103.566 Y108.348 E17.81616
G1 X103.255 Y108.385 E17.83173
G1 X102.957 Y108.482 E17.84731
G1 X102.683 Y108.635 E17.86292
G1 X102.445 Y108.839 E17.87851
G1 X102.251 Y109.083 E17.89401
G1 X102.107 Y109.364 E17.90971
G1 X102.021 Y109.668 E17.92542
G1 X101.997 Y109.981 E17.94103
G1 X102.034 Y110.292 E17.9566
G1 X102.13 Y110.589 E17.97212
G1 X102.284 Y110.865 E17.98783
G1 X102.489 Y111.103 E18.00345
G1 X102.734 Y111.296 E18.01896
G1 X103.014 Y111.44 E18.03462
G1 X103.286 Y111.518 E18.04869
G1 X103.316 Y111.526 E18.05023
G1 X103.63 Y111.55 E18.06589
G1 X103.703 Y111.541 E18.06955
G0 X103.684 Y111.578
G0 X103.624 Y111.69
G1 X103.609 Y111.718 E18.07105
G1 X103.08 Y112.706 E18.12677
G1 X102.494 Y114.64 E18.22726
G1 X102.295 Y116.649 E18.32764
G1 X102.494 Y118.659 E18.42807
G1 X102.696 Y119.326 E18.46273
G1 X102.465 Y119.515 E18.47757
G1 X102.266 Y119.757 E18.49315
G1 X102.117 Y120.035 E18.50883
G1 X102.026 Y120.337 E18.52451
G1 X101.995 Y120.649 E18.5401
G1 X102.026 Y120.961 E18.55569
G1 X102.117 Y121.263 E18.57138
G1 X102.266 Y121.541 E18.58706
G1 X102.465 Y121.783 E18.60264
G1 X102.707 Y121.981 E18.61819
G1 X102.985 Y122.13 E18.63387
G1 X103.286 Y122.221 E18.64951
G1 X103.598 Y122.252 E18.6651
G1 X103.91 Y122.221 E18.68069
G1 X103.945 Y122.21 E18.68251
G1 X104.032 Y122.373 E18.6917
G1 X105.313 Y123.934 E18.79211
G1 X106.874 Y125.215 E18.89252
G1 X108.655 Y126.168 E18.99296
G1 X110.589 Y126.754 E19.09344
G1 X112.598 Y126.952 E19.19382
G1 X114.608 Y126.754 E19.29425
G1 X116.541 Y126.168 E19.39468
G1 X118.322 Y125.215 E19.49512
G1 X119.883 Y123.934 E19.59553
G1 X121.164 Y122.373 E19.69594
G1 X121.251 Y122.21 E19.70513
G1 X121.286 Y122.221 E19.70695
G1 X121.598 Y122.252 E19.72254
G1 X121.91 Y122.221 E19.73813
G1 X122.212 Y122.13 E19.75382
G1 X122.49 Y121.981 E19.7695
G1 X122.731 Y121.783 E19.78501
G1 X122.931 Y121.541 E19.80062
G1 X123.08 Y121.262 E19.81635
G1 X123.17 Y120.961 E19.83197
G1 X123.201 Y120.649 E19.84756
G1 X123.17 Y120.337 E19.86315
G1 X123.08 Y120.036 E19.87877
G1 X122.931 Y119.757 E19.8945
G1 X122.731 Y119.515 E19.91011
G1 X122.503 Y119.327 E19.9248
G1 X122.703 Y118.658 E19.95952
G1 X122.901 Y116.649 E20.0599
G1 X122.703 Y114.64 E20.16028
G1 X122.117 Y112.706 E20.26077
G1 X121.627 Y111.788 E20.31251
G1 X121.529 Y111.605 E20.32283
G1 X121.494 Y111.54 E20.3265
G0 X121.63 Y111.55
G1 X121.836 Y111.526 E20.33377
G1 X121.941 Y111.513 E20.33903
G1 X122.238 Y111.417 E20.35455
G1 X122.514 Y111.264 E20.37024
G1 X122.752 Y111.058 E20.38589
G1 X122.946 Y110.814 E20.40139
G1 X123.089 Y110.532 E20.41712
G1 X123.175 Y110.231 E20.43268
G1 X123.199 Y109.917 E20.44834
G1 X123.162 Y109.606 E20.46391
G1 X123.066 Y109.309 E20.47943
G1 X122.913 Y109.033 E20.49513
G1 X122.707 Y108.795 E20.51078
G1 X122.464 Y108.602 E20.52621
G1 X122.183 Y108.458 E20.54191
G1 X121.879 Y108.372 E20.55762
G1 X121.566 Y108.348 E20.57323
G1 X121.255 Y108.385 E20.5888
G1 X120.957 Y108.482 E20.60438
G1 X120.683 Y108.635 E20.61999
G1 X120.445 Y108.839 E20.63557
G1 X120.251 Y109.084 E20.65111
G1 X120.156 Y109.269 E20.66145
G1 X120.107 Y109.366 E20.66686
G1 X120.091 Y109.423 E20.6698
G1 X120.05 Y109.567 E20.67725
G0 X119.975 Y109.475
G0 X119.883 Y109.364
G1 X119.799 Y109.295 E20.68265
G1 X118.322 Y108.083 E20.77765
G1 X118.03 Y107.927 E20.79412
G1 X117.328 Y107.551 E20.83371
G1 X118.124 Y107.551 E20.8541
G1 X118.125 Y107.551 E20.85415
G1 X123.798 Y107.549 E21.13623
G1 X123.998 Y107.549 E21.14618
G1 X123.998 Y107.749 E21.15262
G1 X123.998 Y151.349 E23.32058
G1 X100.67 Y151.349 E24.48054
G1 X99.371 Y151.027 E24.54709
G1 X98.061 Y150.557 E24.61629
G1 X96.802 Y149.958 E24.68562
G1 X95.617 Y149.241 E24.75449
G1 X94.507 Y148.407 E24.82352
G1 X93.486 Y147.463 E24.89266
G1 X92.565 Y146.423 E24.96174
G1 X91.749 Y145.289 E25.03121
G1 X91.058 Y144.098 E25.09968
G1 X90.488 Y142.833 E25.16867
G1 X90.042 Y141.503 E25.23842
G1 X89.727 Y140.107 E25.30958
G1 X87.54 Y132.824 E25.68769
G1 X85.548 Y125.522 E26.06404
G1 X83.743 Y118.181 E26.43994
G1 X82.123 Y110.777 E26.81681
G1 X80.691 Y103.345 E27.19315
G1 X79.45 Y95.88 E27.56943
G1 X78.397 Y88.384 E27.94582
G1 X77.535 Y80.865 E28.32215
G1 X76.864 Y73.331 E28.69825
G1 X76.386 Y65.783 E29.07432
G1 X76.098 Y58.209 E29.4512
G1 X76.002 Y50.684 E29.8254
G1 X76.075 Y50.132 E29.85309
G1 X76.273 Y49.655 E29.87877
G0 F3600 X76.359 Y49.705
G0 X84.332 Y90.322
G0 X84.291 Y90.412
G1 F1800 X83.294 Y90.7 E29.93037
G1 X83.926 Y95.202 E30.15642
G1 X85.149 Y102.554 E30.52702
G1 X86.558 Y109.873 E30.89763
G1 X88.153 Y117.155 E31.2683
G1 X89.932 Y124.393 E31.63891
G1 X91.894 Y131.584 E32.00955
G1 X94.108 Y138.959 E32.39243
G1 X94.407 Y140.276 E32.45958
G1 X95.473 Y140.155 E32.51293
G1 X95.473 Y112.611 E33.88252
G1 X95.7 Y105.092 E34.25657
G1 X93.613 Y103.376 E34.39092
G1 X91.564 Y101.408 E34.53218
G1 X89.678 Y99.29 E34.6732
G1 X87.947 Y97.011 E34.8155
G1 X86.425 Y94.646 E34.95535
G1 X85.086 Y92.16 E35.09575
G1 X84.291 Y90.412 E35.19124
G0 F3600 X84.332 Y90.322
G0 X95.736 Y105.076
G0 X102.917 Y147.391
G0 X102.957 Y147.482
G1 F1800 X102.683 Y147.635 E35.20684
G1 X102.445 Y147.839 E35.22243
G1 X102.251 Y148.083 E35.23793
G1 X102.107 Y148.364 E35.25363
G1 X102.021 Y148.668 E35.26934
G1 X101.997 Y148.981 E35.28495
G1 X102.034 Y149.292 E35.30052
G1 X102.13 Y149.589 E35.31604
G1 X102.284 Y149.865 E35.33176
G1 X102.489 Y150.103 E35.34738
G1 X102.734 Y150.296 E35.36288
G1 X103.014 Y150.44 E35.37854
G1 X103.316 Y150.526 E35.39415
G1 X103.63 Y150.55 E35.40981
G1 X103.941 Y150.513 E35.42539
G1 X104.238 Y150.417 E35.44091
G1 X104.514 Y150.263 E35.45662
G1 X104.751 Y150.059 E35.47217
G1 X104.946 Y149.814 E35.48774
G1 X105.089 Y149.532 E35.50346
G1 X105.175 Y149.231 E35.51903
G1 X105.199 Y148.917 E35.53469
G1 X105.162 Y148.606 E35.55026
G1 X105.066 Y148.309 E35.56578
G1 X104.913 Y148.033 E35.58147
G1 X104.707 Y147.795 E35.59712
G1 X104.464 Y147.602 E35.61255
G1 X104.183 Y147.458 E35.62825
G1 X103.879 Y147.372 E35.64396
G1 X103.566 Y147.348 E35.65957
G1 X103.255 Y147.385 E35.67515
G1 X102.957 Y147.482 E35.69073
G0 F3600 X102.917 Y147.391
G0 X103.566 Y147.309
G0 X119.898 Y148.983
G0 X119.997 Y148.981
G1 F1800 X120.036 Y149.292 E35.70631
G1 X120.13 Y149.589 E35.7218
G1 X120.284 Y149.865 E35.73752
G1 X120.489 Y150.103 E35.75314
G1 X120.734 Y150.296 E35.76865
G1 X121.014 Y150.44 E35.7843
G1 X121.316 Y150.526 E35.79992
G1 X121.63 Y150.55 E35.81558
G1 X121.941 Y150.513 E35.83115
G1 X122.238 Y150.417 E35.84667
G1 X122.514 Y150.263 E35.86238
G1 X122.751 Y150.059 E35.87793
G1 X122.946 Y149.814 E35.8935
G1 X123.089 Y149.532 E35.90923
G1 X123.175 Y149.231 E35.92479
G1 X123.199 Y148.917 E35.94045
G1 X123.162 Y148.606 E35.95602
G1 X123.066 Y148.309 E35.97154
G1 X122.913 Y148.033 E35.98723
G1 X122.707 Y147.795 E36.00289
G1 X122.464 Y147.602 E36.01832
G1 X122.183 Y147.458 E36.03402
G1 X121.879 Y147.372 E36.04973
G1 X121.566 Y147.348 E36.06534
G1 X121.255 Y147.385 E36.08091
G1 X120.957 Y147.482 E36.09649
G1 X120.683 Y147.635 E36.1121
G1 X120.445 Y147.839 E36.12768
G1 X120.251 Y148.084 E36.14322
G1 X120.107 Y148.366 E36.15897
G1 X120.022 Y148.667 E36.17452
G1 X119.997 Y148.981 E36.19018
G0 F3600 X120.399 Y148.972
;TYPE:WALL-OUTER
G1 F1800 X120.428 Y149.206 E36.20191
G1 X120.499 Y149.429 E36.21354
G1 X120.614 Y149.635 E36.22527
G1 X120.767 Y149.813 E36.23694
G1 X120.951 Y149.958 E36.24859
G1 X121.161 Y150.066 E36.26034
G1 X121.387 Y150.13 E36.27201
G1 X121.621 Y150.148 E36.28368
G1 X121.855 Y150.12 E36.2954
G1 X122.078 Y150.048 E36.30706
G1 X122.284 Y149.933 E36.31879
G1 X122.462 Y149.78 E36.33046
G1 X122.608 Y149.597 E36.3421
G1 X122.715 Y149.386 E36.35386
G1 X122.779 Y149.16 E36.36554
G1 X122.797 Y148.926 E36.37721
G1 X122.769 Y148.692 E36.38893
G1 X122.697 Y148.469 E36.40058
G1 X122.583 Y148.263 E36.41229
G1 X122.429 Y148.085 E36.42399
G1 X122.246 Y147.94 E36.4356
G1 X122.036 Y147.832 E36.44734
G1 X121.809 Y147.768 E36.45907
G1 X121.575 Y147.75 E36.47074
G1 X121.341 Y147.778 E36.48246
G1 X121.118 Y147.85 E36.49411
G1 X120.913 Y147.965 E36.5058
G1 X120.734 Y148.118 E36.51751
G1 X120.589 Y148.301 E36.52912
G1 X120.481 Y148.512 E36.5409
G1 X120.418 Y148.738 E36.55257
G1 X120.399 Y148.972 E36.56424
G0 F3600 X119.901 Y148.934
G0 X120.094 Y149.604
G0 X120.462 Y150.131
G0 X121 Y150.477
G0 X123.928 Y151.279
G0 X124.398 Y151.749
G1 F1800 X100.622 Y151.749 E37.74648
G1 X99.248 Y151.408 E37.81687
G1 X97.912 Y150.929 E37.88744
G1 X96.613 Y150.311 E37.95897
G1 X95.391 Y149.571 E38.03001
G1 X94.252 Y148.715 E38.10085
G1 X93.202 Y147.745 E38.17193
G1 X92.246 Y146.666 E38.24362
G1 X91.417 Y145.514 E38.31419
G1 X90.7 Y144.276 E38.38532
G1 X90.117 Y142.983 E38.45585
G1 X89.656 Y141.61 E38.52787
G1 X89.34 Y140.209 E38.59928
G1 X87.157 Y132.939 E38.97672
G1 X85.162 Y125.627 E39.35359
G1 X83.353 Y118.267 E39.73045
G1 X81.732 Y110.863 E40.10733
G1 X80.298 Y103.421 E40.48418
G1 X79.055 Y95.946 E40.86097
G1 X78.001 Y88.44 E41.23786
G1 X77.138 Y80.911 E41.61468
G1 X76.466 Y73.366 E41.99133
G1 X75.986 Y65.798 E42.3684
G1 X75.698 Y58.224 E42.74528
G1 X75.602 Y50.658 E43.12152
G1 X75.684 Y50.031 E43.15296
G1 X75.925 Y49.451 E43.18419
G1 X76.305 Y48.955 E43.21526
G1 X76.801 Y48.574 E43.24636
G1 X77.382 Y48.333 E43.27764
G1 X77.999 Y48.252 E43.30858
G1 X78.616 Y48.333 E43.33952
G1 X79.197 Y48.574 E43.3708
G1 X79.693 Y48.955 E43.4019
G1 X80.075 Y49.452 E43.43307
G1 X80.314 Y50.029 E43.46412
G1 X80.397 Y50.66 E43.49577
G1 X80.541 Y55.734 E43.74817
G1 X80.975 Y60.804 E44.00119
G1 X81.696 Y65.841 E44.2542
G1 X82.703 Y70.828 E44.50718
G1 X83.991 Y75.751 E44.76021
G1 X85.557 Y80.592 E45.01321
G1 X87.397 Y85.337 E45.26627
G1 X89.503 Y89.969 E45.51927
G1 X90.667 Y92.132 E45.64141
G1 X91.996 Y94.198 E45.76356
G1 X93.482 Y96.154 E45.88571
G1 X95.116 Y97.989 E46.00788
G1 X96.888 Y99.692 E46.13009
G1 X98.786 Y101.25 E46.25219
G1 X100.799 Y102.658 E46.37433
G1 X102.915 Y103.905 E46.49646
G1 X105.123 Y104.984 E46.61866
G1 X107.408 Y105.888 E46.74085
G1 X109.756 Y106.611 E46.86301
G1 X110.172 Y106.705 E46.88422
G1 X110.692 Y106.821 E46.91071
G1 X111.045 Y106.901 E46.92871
G0 X110.667 Y106.938
G1 X110.157 Y107.092 E46.94619
G1 X108.809 Y107.501 E47.01623
G1 X107.097 Y108.417 E47.11278
G1 X105.597 Y109.648 E47.20927
G1 X105.11 Y110.242 E47.24746
G1 X105.017 Y110.355 E47.25474
G1 X104.88 Y110.522 E47.26548
G1 X104.734 Y110.7 E47.27693
G1 X104.585 Y110.881 E47.28858
G1 X104.439 Y111.059 E47.30003
G1 X104.366 Y111.148 E47.30575
G1 X104.344 Y111.189 E47.30807
G1 X104.287 Y111.296 E47.3141
G1 X103.451 Y112.86 E47.40228
G1 X102.888 Y114.718 E47.49881
