;FLAVOR:RepRap
;TIME:797
;Generated with Cura_SteamEngine 2.3.1
M190 S60
M104 S200
M109 S200
G21 ;metric values
G90 ;absolute positioning
G92 E0 ;zero the extruded length
M107 ;start with the fan off
G1 X90 Y200 F6000 ;go to the middle of the front

G92 E0 ;zero the extruded length
G1 X150 E10 F300 ; make a thick line to prime extruder
G92 E0 ; reset extruder
;LAYER_COUNT:5
;LAYER:0
M107
G1 F1500 E-6.5
G0 F3600 X73.3 Y48.672 Z.299
;TYPE:SKIRT
G1 F1500 E0
G1 F1800 X73.651 Y48.158 E0.03095
G1 X73.969 Y47.765 E0.05609
G1 X74.182 Y47.559 E0.07082
G1 X74.676 Y47.125 E0.10352
G1 X75.081 Y46.822 E0.12867
G1 X75.345 Y46.673 E0.14374
G1 X75.899 Y46.393 E0.17461
G1 X76.366 Y46.201 E0.19971
G1 X76.673 Y46.12 E0.2155
G1 X77.365 Y45.972 E0.25069
G1 X77.866 Y45.905 E0.27582
G1 X78.169 Y45.904 E0.29089
G1 X78.739 Y45.928 E0.31926
G1 X79.24 Y45.989 E0.34435
G1 X79.547 Y46.067 E0.3601
G1 X80.286 Y46.295 E0.39856
G1 X80.756 Y46.482 E0.42371
G1 X81.071 Y46.66 E0.4417
G1 X81.554 Y46.97 E0.47024
G1 X81.957 Y47.276 E0.4954
G1 X82.211 Y47.53 E0.51326
G1 X82.804 Y48.193 E0.55749
G1 X83.11 Y48.595 E0.58261
G1 X83.429 Y49.241 E0.61844
G1 X85.004 Y53.61 E0.84936
G1 X87.055 Y58.713 E1.12283
G1 X89.385 Y63.677 E1.3955
G1 X91.99 Y68.502 E1.66815
G1 X94.859 Y73.159 E1.94013
G1 X97.988 Y77.652 E2.21238
G1 X101.38 Y81.976 E2.48565
G1 X103.133 Y84.028 E2.61984
G1 X106.876 Y88.046 E2.89289
G1 X110.823 Y91.83 E3.16478
G1 X114.998 Y95.402 E3.43798
G1 X119.343 Y98.714 E3.70964
G1 X123.905 Y101.8 E3.98351
G1 X126.032 Y103.121 E4.10801
G1 X126.439 Y103.42 E4.13312
G1 X126.794 Y103.781 E4.1583
G1 X127.088 Y104.192 E4.18343
G1 X127.313 Y104.645 E4.20858
G1 X127.464 Y105.127 E4.23369
G1 X127.544 Y105.839 E4.26932
G1 X127.545 Y150.919 E6.51087
G1 X127.505 Y151.423 E6.53601
G1 X127.386 Y151.914 E6.56113
G1 X127.192 Y152.381 E6.58628
G1 X126.926 Y152.811 E6.61142
G1 X126.596 Y153.194 E6.63656
G1 X126.209 Y153.52 E6.66172
G1 X125.776 Y153.781 E6.68686
G1 X125.308 Y153.971 E6.71197
G1 X124.815 Y154.084 E6.73712
G1 X124.347 Y154.119 E6.76046
G1 X101.301 Y154.13 E7.9064
G1 X101.047 Y154.12 E7.91903
G1 X100.007 Y154.038 E7.97091
G1 X99.406 Y153.932 E8.00125
G1 X97.927 Y153.523 E8.07756
G1 X97.636 Y153.427 E8.09279
G1 X96.411 Y152.958 E8.15802
G1 X96.164 Y152.852 E8.17138
G1 X95.151 Y152.363 E8.22731
G1 X94.817 Y152.176 E8.24635
G1 X93.036 Y151.036 E8.35149
G1 X92.724 Y150.809 E8.37068
G1 X91.618 Y149.896 E8.44199
G1 X91.378 Y149.676 E8.45818
G1 X90.358 Y148.643 E8.53036
G1 X90.174 Y148.441 E8.54395
G1 X89.469 Y147.593 E8.59879
G1 X89.293 Y147.359 E8.61334
G1 X88.513 Y146.224 E8.68182
G1 X88.344 Y145.95 E8.69783
G1 X87.651 Y144.686 E8.76951
G1 X87.513 Y144.402 E8.78521
G1 X86.981 Y143.153 E8.85271
G1 X86.856 Y142.805 E8.8711
G1 X83.849 Y132.618 E9.39924
G1 X83.831 Y132.555 E9.4025
G1 X81.886 Y125.436 E9.76946
G1 X81.866 Y125.357 E9.77351
G1 X80.083 Y118.105 E10.14485
G1 X80.064 Y118.025 E10.14894
G1 X78.464 Y110.718 E10.52088
G1 X78.449 Y110.644 E10.52463
G1 X77.28 Y104.628 E10.82937
G1 X77.266 Y104.555 E10.83306
G1 X76.016 Y97.214 E11.20334
G1 X76.004 Y97.133 E11.20741
G1 X74.942 Y89.756 E11.57801
G1 X74.931 Y89.675 E11.58207
G1 X74.057 Y82.259 E11.95337
G1 X74.048 Y82.177 E11.95748
G1 X73.376 Y74.876 E12.32205
G1 X73.37 Y74.795 E12.32608
G1 X72.874 Y67.328 E12.69819
G1 X72.87 Y67.246 E12.70227
G1 X72.568 Y59.82 E13.07183
G1 X72.565 Y59.738 E13.07591
G1 X72.454 Y52.329 E13.44435
G1 X72.458 Y52.13 E13.45425
G1 X72.508 Y51.073 E13.50687
G1 X72.571 Y50.571 E13.53202
G1 X72.656 Y50.249 E13.54858
G1 X72.895 Y49.502 E13.58758
G1 X73.087 Y49.034 E13.61274
G1 X73.3 Y48.672 E13.63362
G1 F1500 E7.13362
G0 F3600 X75.515 Y49.87
G0 X76.546 Y50.668
G0 X76.598 Y50.698
G0 X76.512 Y50.648
;TYPE:WALL-INNER
G1 F1500 E13.63362
G1 F1800 X76.825 Y50.245 E13.65899
G1 X77.229 Y49.937 E13.68425
G1 X77.706 Y49.741 E13.7099
G1 X78.217 Y49.675 E13.73552
G1 X78.728 Y49.741 E13.76114
G1 X79.202 Y49.936 E13.78662
G1 X79.612 Y50.247 E13.81221
G1 X79.922 Y50.648 E13.83741
G1 X80.117 Y51.116 E13.86262
G1 X80.189 Y51.654 E13.88961
G1 X80.332 Y56.625 E14.13689
G1 X80.763 Y61.619 E14.38614
G1 X81.482 Y66.58 E14.63539
G1 X82.482 Y71.493 E14.8847
G1 X83.764 Y76.341 E15.13404
G1 X85.322 Y81.11 E15.38351
G1 X87.152 Y85.782 E15.63301
G1 X89.247 Y90.348 E15.8828
G1 X90.414 Y92.493 E16.00423
G1 X91.748 Y94.546 E16.12597
G1 X93.238 Y96.489 E16.24772
G1 X94.876 Y98.312 E16.36958
G1 X96.654 Y100.002 E16.49155
G1 X98.558 Y101.55 E16.61357
G1 X100.576 Y102.948 E16.73564
G1 X102.698 Y104.186 E16.8578
G1 X104.944 Y105.273 E16.98187
G1 X108.451 Y106.181 E17.162
G1 X109.617 Y106.264 E17.22013
G1 X110.489 Y106.326 E17.2636
G1 X110.952 Y106.359 E17.28668
G1 X110.483 Y106.405 E17.28921
G1 X109.645 Y106.656 E17.31554
G1 X108.57 Y106.979 E17.37135
G1 X106.805 Y107.912 E17.47062
G1 X105.339 Y109.103 E17.56454
G1 X105.258 Y109.169 E17.56974
G1 X105.177 Y109.266 E17.57602
G1 X105.099 Y109.36 E17.58209
G0 X105.059 Y109.231
G0 X105.033 Y109.147
G1 X104.984 Y109.055 E17.58728
G1 X104.887 Y108.873 E17.59753
G1 X104.686 Y108.632 E17.61314
G1 X104.447 Y108.437 E17.62847
G1 X104.172 Y108.29 E17.64398
G1 X103.871 Y108.201 E17.65959
G1 X103.563 Y108.171 E17.67497
G1 X103.253 Y108.201 E17.69046
G1 X102.953 Y108.291 E17.70603
G1 X102.679 Y108.437 E17.72147
G1 X102.441 Y108.631 E17.73674
G1 X102.239 Y108.87 E17.7523
G1 X102.091 Y109.149 E17.768
G1 X102.001 Y109.446 E17.78344
G1 X101.97 Y109.754 E17.79883
G1 X102.001 Y110.062 E17.81422
G1 X102.091 Y110.359 E17.82965
G1 X102.239 Y110.638 E17.84536
G1 X102.441 Y110.877 E17.86092
G1 X102.68 Y111.071 E17.87622
G1 X102.955 Y111.218 E17.89173
G1 X103.229 Y111.299 E17.90593
G1 X103.253 Y111.306 E17.90718
G1 X103.563 Y111.337 E17.92267
G1 X103.65 Y111.328 E17.92702
G0 X103.627 Y111.371
G0 X103.57 Y111.476
G1 X103.559 Y111.498 E17.92824
G1 X103.045 Y112.45 E17.98204
G1 X102.463 Y114.348 E18.08075
G1 X102.267 Y116.323 E18.17944
G1 X102.463 Y118.297 E18.27807
G1 X102.605 Y118.76 E18.30216
G1 X102.611 Y118.78 E18.30319
G1 X102.483 Y118.798 E18.30681
G0 X102.498 Y118.831
G1 X103.632 Y121.282 E18.4411
G1 X103.988 Y121.943 E18.47843
G1 X105.258 Y123.476 E18.57742
G1 X106.805 Y124.733 E18.67653
G1 X108.57 Y125.667 E18.77582
G1 X110.483 Y126.241 E18.87514
G1 X112.473 Y126.435 E18.97456
G1 X114.464 Y126.241 E19.07402
G1 X116.377 Y125.667 E19.17334
G1 X118.142 Y124.733 E19.27263
G1 X119.689 Y123.476 E19.37174
G1 X120.959 Y121.943 E19.47073
G1 X121.317 Y121.28 E19.5082
G1 X122.118 Y119.491 E19.60566
G1 X122.484 Y118.297 E19.66776
G1 X122.68 Y116.323 E19.7664
G1 X122.484 Y114.348 E19.86508
G1 X121.902 Y112.45 E19.9638
G1 X121.388 Y111.498 E20.01759
G1 X121.377 Y111.476 E20.01882
G1 X121.32 Y111.371 E20.02476
G1 X121.297 Y111.328 E20.02718
G0 X121.384 Y111.337
G1 X121.694 Y111.306 E20.03838
G1 X121.718 Y111.299 E20.03962
G1 X121.991 Y111.218 E20.05378
G1 X122.268 Y111.072 E20.06935
G1 X122.509 Y110.875 E20.08483
G1 X122.709 Y110.635 E20.10036
G1 X122.855 Y110.361 E20.1158
G1 X122.947 Y110.065 E20.13121
G1 X122.978 Y109.754 E20.14675
G1 X122.947 Y109.443 E20.16229
G1 X122.855 Y109.147 E20.17771
G1 X122.709 Y108.873 E20.19314
G1 X122.509 Y108.633 E20.20868
G1 X122.268 Y108.436 E20.22416
G1 X121.991 Y108.29 E20.23973
G1 X121.694 Y108.201 E20.25514
G1 X121.384 Y108.171 E20.27063
G1 X121.075 Y108.201 E20.28607
G1 X120.778 Y108.29 E20.30148
G1 X120.501 Y108.436 E20.31705
G1 X120.26 Y108.633 E20.33253
G1 X120.06 Y108.873 E20.34806
G1 X119.963 Y109.055 E20.35832
G1 X119.914 Y109.147 E20.3635
G1 X119.888 Y109.231 E20.36787
G1 X119.848 Y109.36 E20.37459
G0 X119.771 Y109.267
G0 X119.689 Y109.169
G1 X119.608 Y109.103 E20.37978
G1 X118.142 Y107.912 E20.4737
G1 X116.377 Y106.979 E20.57297
G1 X115.87 Y106.826 E20.59931
G1 X114.567 Y106.436 E20.66694
G1 X115.927 Y106.436 E20.70111
G1 X123.554 Y106.432 E21.08035
G1 X123.754 Y106.432 E21.0903
G1 X123.754 Y106.632 E21.09674
G1 X123.755 Y150.13 E23.25963
G1 X123.755 Y150.33 E23.26957
G1 X123.555 Y150.33 E23.27601
G1 X100.662 Y150.33 E24.41434
G1 X99.386 Y150.016 E24.47968
G1 X98.072 Y149.55 E24.54901
G1 X96.835 Y148.968 E24.61698
G1 X95.66 Y148.263 E24.68512
G1 X94.567 Y147.448 E24.75291
G1 X93.55 Y146.52 E24.82137
G1 X92.645 Y145.508 E24.88888
G1 X91.841 Y144.404 E24.95679
G1 X91.147 Y143.214 E25.02529
G1 X90.583 Y141.978 E25.09284
G1 X90.151 Y140.701 E25.15987
G1 X89.833 Y139.317 E25.23048
G1 X87.67 Y132.181 E25.60126
G1 X85.697 Y125.017 E25.97074
G1 X83.911 Y117.822 E26.33936
G1 X82.305 Y110.564 E26.70899
G1 X80.888 Y103.277 E27.07811
G1 X79.66 Y95.969 E27.44659
G1 X78.617 Y88.611 E27.81611
G1 X77.764 Y81.239 E28.18512
G1 X77.099 Y73.852 E28.55392
G1 X76.626 Y66.453 E28.92258
G1 X76.34 Y59.028 E29.29205
G1 X76.245 Y51.647 E29.65909
G1 X76.317 Y51.116 E29.68574
G1 X76.512 Y50.648 E29.71095
G0 F3600 X76.598 Y50.698
G0 X84.489 Y90.492
G0 X84.448 Y90.583
G1 F1800 X83.453 Y90.877 E29.76254
G1 X84.079 Y95.298 E29.98456
G1 X85.29 Y102.507 E30.34804
G1 X86.685 Y109.683 E30.71154
G1 X88.265 Y116.822 E31.07511
G1 X90.027 Y123.919 E31.43872
G1 X91.969 Y130.97 E31.80237
G1 X94.159 Y138.191 E32.17758
G1 X94.458 Y139.498 E32.24425
G1 X95.523 Y139.378 E32.29754
G1 X95.523 Y112.365 E33.64073
G1 X95.749 Y104.985 E34.00786
G1 X93.689 Y103.309 E34.13992
G1 X91.649 Y101.368 E34.27993
G1 X89.775 Y99.285 E34.41925
G1 X88.081 Y97.076 E34.55767
G1 X86.56 Y94.735 E34.69649
G1 X85.241 Y92.31 E34.83375
G1 X84.448 Y90.583 E34.92824
G0 F3600 X84.489 Y90.492
G0 X95.785 Y104.969
G0 X102.918 Y146.433
G0 X102.955 Y146.525
G1 F1800 X102.68 Y146.672 E34.94375
G1 X102.44 Y146.867 E34.95913
G1 X102.239 Y147.107 E34.97469
G1 X102.091 Y147.383 E34.99026
G1 X102.001 Y147.681 E35.00574
G1 X101.97 Y147.989 E35.02114
G1 X102.001 Y148.297 E35.03653
G1 X102.091 Y148.594 E35.05196
G1 X102.239 Y148.873 E35.06766
G1 X102.441 Y149.112 E35.08322
G1 X102.679 Y149.306 E35.09849
G1 X102.953 Y149.452 E35.11393
G1 X103.252 Y149.542 E35.12945
G1 X103.563 Y149.573 E35.145
G1 X103.873 Y149.542 E35.16049
G1 X104.172 Y149.453 E35.176
G1 X104.447 Y149.306 E35.1915
G1 X104.686 Y149.111 E35.20684
G1 X104.887 Y148.87 E35.22245
G1 X105.033 Y148.596 E35.23788
G1 X105.125 Y148.3 E35.2533
G1 X105.156 Y147.989 E35.26884
G1 X105.125 Y147.678 E35.28438
G1 X105.033 Y147.381 E35.29984
G1 X104.887 Y147.109 E35.31519
G1 X104.688 Y146.867 E35.33077
G1 X104.446 Y146.672 E35.34622
G1 X104.17 Y146.525 E35.36177
G1 X103.871 Y146.437 E35.37727
G1 X103.563 Y146.406 E35.39266
G1 X103.253 Y146.437 E35.40815
G1 X102.955 Y146.525 E35.4236
G0 F3600 X102.918 Y146.433
G0 X103.563 Y146.366
G0 X119.691 Y147.989
G0 X119.791 Y147.989
G1 F1800 X119.822 Y148.3 E35.43914
G1 X119.914 Y148.596 E35.45456
G1 X120.06 Y148.87 E35.46999
G1 X120.26 Y149.11 E35.48553
G1 X120.501 Y149.307 E35.50101
G1 X120.778 Y149.453 E35.51658
G1 X121.074 Y149.542 E35.53194
G1 X121.384 Y149.573 E35.54744
G1 X121.695 Y149.542 E35.56298
G1 X121.991 Y149.453 E35.57835
G1 X122.268 Y149.307 E35.59392
G1 X122.509 Y149.11 E35.60939
G1 X122.709 Y148.87 E35.62493
G1 X122.855 Y148.596 E35.64036
G1 X122.947 Y148.3 E35.65578
G1 X122.978 Y147.989 E35.67132
G1 X122.947 Y147.678 E35.68686
G1 X122.855 Y147.381 E35.70232
G1 X122.709 Y147.109 E35.71767
G1 X122.51 Y146.868 E35.73321
G1 X122.267 Y146.671 E35.74877
G1 X121.991 Y146.525 E35.76429
G1 X121.694 Y146.437 E35.77969
G1 X121.384 Y146.406 E35.79518
G1 X121.075 Y146.437 E35.81063
G1 X120.778 Y146.525 E35.82603
G1 X120.502 Y146.671 E35.84155
G1 X120.259 Y146.868 E35.85711
G1 X120.06 Y147.109 E35.87265
G1 X119.914 Y147.381 E35.888
G1 X119.822 Y147.678 E35.90346
G1 X119.791 Y147.989 E35.919
G0 F3600 X120.193 Y147.989
;TYPE:WALL-OUTER
G1 F1800 X120.216 Y148.22 E35.93054
G1 X120.285 Y148.441 E35.94206
G1 X120.394 Y148.646 E35.9536
G1 X120.543 Y148.825 E35.96518
G1 X120.723 Y148.972 E35.97674
G1 X120.93 Y149.081 E35.98837
G1 X121.152 Y149.148 E35.9999
G1 X121.384 Y149.171 E36.01149
G1 X121.617 Y149.148 E36.02314
G1 X121.839 Y149.081 E36.03467
G1 X122.046 Y148.972 E36.0463
G1 X122.226 Y148.825 E36.05785
G1 X122.375 Y148.646 E36.06943
G1 X122.484 Y148.441 E36.08098
G1 X122.553 Y148.22 E36.09249
G1 X122.576 Y147.989 E36.10403
G1 X122.553 Y147.758 E36.11558
G1 X122.484 Y147.536 E36.12714
G1 X122.375 Y147.333 E36.13859
G1 X122.227 Y147.153 E36.15018
G1 X122.046 Y147.006 E36.16178
G1 X121.839 Y146.897 E36.17341
G1 X121.617 Y146.831 E36.18492
G1 X121.384 Y146.808 E36.19657
G1 X121.152 Y146.831 E36.20816
G1 X120.93 Y146.897 E36.21968
G1 X120.723 Y147.006 E36.23131
G1 X120.542 Y147.153 E36.2429
G1 X120.394 Y147.333 E36.25449
G1 X120.285 Y147.536 E36.26595
G1 X120.216 Y147.758 E36.27751
G1 X120.193 Y147.989 E36.28905
G0 F3600 X119.696 Y147.941
G0 X119.878 Y148.611
G0 X120.232 Y149.138
G0 X120.763 Y149.49
G0 X123.685 Y150.26
G0 X123.955 Y150.73
G1 F1800 X100.616 Y150.73 E37.44956
G1 X99.265 Y150.398 E37.51873
G1 X97.921 Y149.921 E37.58964
G1 X96.645 Y149.321 E37.65976
G1 X95.436 Y148.595 E37.72988
G1 X94.314 Y147.759 E37.79945
G1 X93.264 Y146.8 E37.87016
G1 X92.334 Y145.76 E37.93954
G1 X91.502 Y144.618 E38.00979
G1 X90.794 Y143.404 E38.07967
G1 X90.211 Y142.126 E38.14952
G1 X89.765 Y140.808 E38.21871
G1 X89.446 Y139.42 E38.28952
G1 X87.287 Y132.297 E38.65962
G1 X85.311 Y125.123 E39.02962
G1 X83.52 Y117.908 E39.39927
G1 X81.914 Y110.65 E39.76889
G1 X80.495 Y103.353 E40.13852
G1 X79.264 Y96.025 E40.50801
G1 X78.221 Y88.667 E40.87753
G1 X77.367 Y81.285 E41.24704
G1 X76.701 Y73.888 E41.61634
G1 X76.226 Y66.468 E41.98604
G1 X75.94 Y59.043 E42.35552
G1 X75.845 Y51.626 E42.72435
G1 X75.928 Y51.009 E42.75531
G1 X76.164 Y50.445 E42.78571
G1 X76.54 Y49.959 E42.81626
G1 X77.03 Y49.586 E42.84688
G1 X77.604 Y49.351 E42.87772
G1 X78.217 Y49.271 E42.90846
G1 X78.83 Y49.351 E42.9392
G1 X79.404 Y49.586 E42.97004
G1 X79.895 Y49.959 E43.0007
G1 X80.27 Y50.445 E43.03123
G1 X80.506 Y51.009 E43.06163
G1 X80.589 Y51.628 E43.09268
G1 X80.732 Y56.602 E43.34011
G1 X81.161 Y61.573 E43.58821
G1 X81.876 Y66.511 E43.8363
G1 X82.872 Y71.402 E44.08449
G1 X84.148 Y76.228 E44.33271
G1 X85.699 Y80.975 E44.58103
G1 X87.52 Y85.626 E44.82939
G1 X89.605 Y90.169 E45.07794
G1 X90.758 Y92.288 E45.19789
G1 X92.075 Y94.315 E45.31809
G1 X93.546 Y96.233 E45.43828
G1 X95.163 Y98.033 E45.55859
G1 X96.918 Y99.701 E45.67898
G1 X98.798 Y101.23 E45.79948
G1 X100.791 Y102.61 E45.92001
G1 X102.886 Y103.833 E46.04064
G1 X105.083 Y104.896 E46.162
G1 X108.516 Y105.785 E46.33833
G1 X112.061 Y106.037 E46.51504
G1 X123.954 Y106.032 E47.10641
G1 X124.154 Y106.032 E47.11636
G1 X124.154 Y106.232 E47.1228
G1 X124.155 Y150.53 E49.32546
G1 X124.155 Y150.73 E49.33541
G1 X123.955 Y150.73 E49.34185
G0 F3600 X123.685 Y150.26
G0 X105.227 Y148.27
G0 X104.731 Y148.22
G1 F1800 X104.754 Y147.989 E49.35339
G1 X104.731 Y147.758 E49.36493
G1 X104.662 Y147.536 E49.37649
G1 X104.553 Y147.333 E49.38795
G1 X104.405 Y147.153 E49.39954
G1 X104.224 Y147.007 E49.4111
G1 X104.018 Y146.897 E49.42271
G1 X103.794 Y146.831 E49.43433
G1 X103.563 Y146.808 E49.44587
G1 X103.33 Y146.831 E49.45751
G1 X103.108 Y146.897 E49.46903
G1 X102.902 Y147.007 E49.48064
G1 X102.722 Y147.153 E49.49216
G1 X102.572 Y147.332 E49.50378
G1 X102.462 Y147.537 E49.51534
G1 X102.395 Y147.759 E49.52687
G1 X102.372 Y147.989 E49.53837
G1 X102.395 Y148.219 E49.54986
G1 X102.462 Y148.441 E49.56139
G1 X102.572 Y148.647 E49.573
G1 X102.722 Y148.825 E49.58458
G1 X102.902 Y148.971 E49.5961
G1 X103.107 Y149.081 E49.60767
G1 X103.33 Y149.148 E49.61925
G1 X103.563 Y149.171 E49.63089
G1 X103.795 Y149.148 E49.64248
G1 X104.019 Y149.081 E49.65411
G1 X104.224 Y148.971 E49.66568
G1 X104.404 Y148.825 E49.6772
G1 X104.553 Y148.646 E49.68878
