;FLAVOR:RepRap
;TIME:194
;Generated with Cura_SteamEngine 2.3.1
M190 S60
M104 S200
M109 S200
G21 ;metric values
G90 ;absolute positioning
G92 E0 ;zero the extruded length
M107 ;start with the fan off
G1 X90 Y200 F6000 ;go to the middle of the front

G92 E0 ;zero the extruded length
G1 X150 E10 F300 ; make a thick line to prime extruder
G92 E0 ; reset extruder
;LAYER_COUNT:2
;LAYER:0
M107
G1 F1500 E-6.5
G0 F3600 X48.99 Y94.717 Z.299
;TYPE:SKIRT
G1 F1500 E0
G1 F1800 X54.893 Y91.662 E0.3305
G1 X59.579 Y88.864 E0.60188
G1 X64.118 Y85.791 E0.87444
G1 X68.472 Y82.472 E1.14667
G1 X72.625 Y78.916 E1.41853
G1 X76.599 Y75.105 E1.69231
G1 X78.447 Y73.175 E1.82517
G1 X82.093 Y69.029 E2.0997
G1 X85.476 Y64.713 E2.37238
G1 X88.596 Y60.231 E2.64393
G1 X91.463 Y55.573 E2.9159
G1 X94.711 Y49.484 E3.25905
G1 X94.983 Y49.058 E3.28418
G1 X95.319 Y48.68 E3.30933
G1 X95.711 Y48.36 E3.33449
G1 X96.147 Y48.106 E3.35958
G1 X96.619 Y47.924 E3.38473
G1 X97.113 Y47.818 E3.40986
G1 X97.535 Y47.79 E3.43088
G1 X102.472 Y47.791 E3.67637
G1 X102.976 Y47.831 E3.70151
G1 X103.467 Y47.95 E3.72663
G1 X103.934 Y48.145 E3.7518
G1 X104.364 Y48.411 E3.77694
G1 X104.746 Y48.741 E3.80204
G1 X105.072 Y49.127 E3.82716
G1 X105.327 Y49.548 E3.85164
G1 X106.579 Y52.027 E3.98973
G1 X109.276 Y56.846 E4.26432
G1 X112.21 Y61.456 E4.53604
G1 X115.417 Y65.914 E4.80911
G1 X118.849 Y70.158 E5.0805
G1 X122.548 Y74.239 E5.35438
G1 X124.417 Y76.132 E5.48665
G1 X128.466 Y79.9 E5.76168
G1 X132.673 Y83.392 E6.03354
G1 X137.076 Y86.644 E6.30571
G1 X141.655 Y89.642 E6.57786
G1 X146.408 Y92.383 E6.85068
G1 X150.987 Y94.704 E7.10595
G1 X151.418 Y94.967 E7.13105
G1 X151.803 Y95.295 E7.1562
G1 X152.131 Y95.68 E7.18135
G1 X152.394 Y96.111 E7.20646
G1 X152.587 Y96.579 E7.23163
G1 X152.703 Y97.071 E7.25676
G1 X152.74 Y97.559 E7.2811
G1 X152.739 Y102.443 E7.52395
G1 X152.699 Y102.947 E7.54909
G1 X152.58 Y103.438 E7.57421
G1 X152.385 Y103.905 E7.59937
G1 X152.119 Y104.335 E7.62452
G1 X151.789 Y104.717 E7.64962
G1 X151.403 Y105.043 E7.67474
G1 X150.971 Y105.304 E7.69984
G1 X147.547 Y107.018 E7.89023
G1 X142.742 Y109.706 E8.164
G1 X138.134 Y112.638 E8.43558
G1 X133.68 Y115.839 E8.70831
G1 X129.417 Y119.285 E8.98088
G1 X125.346 Y122.974 E9.25405
G1 X123.44 Y124.854 E9.38717
G1 X119.689 Y128.885 E9.66096
G1 X116.19 Y133.096 E9.9332
G1 X112.942 Y137.493 E10.20502
G1 X109.933 Y142.086 E10.47805
G1 X107.192 Y146.837 E10.75078
G1 X105.314 Y150.476 E10.9544
G1 X105.047 Y150.906 E10.97957
G1 X104.716 Y151.288 E11.0047
G1 X104.329 Y151.614 E11.02986
G1 X103.896 Y151.874 E11.05498
G1 X103.427 Y152.063 E11.08012
G1 X102.934 Y152.175 E11.10526
G1 X102.47 Y152.209 E11.12839
G1 X97.529 Y152.209 E11.37408
G1 X97.025 Y152.169 E11.39922
G1 X96.534 Y152.05 E11.42434
G1 X96.067 Y151.856 E11.44948
G1 X95.637 Y151.59 E11.47462
G1 X95.254 Y151.26 E11.49976
G1 X94.928 Y150.873 E11.52492
G1 X94.693 Y150.492 E11.54718
G1 X92.094 Y145.521 E11.8261
G1 X89.294 Y140.835 E12.09754
G1 X86.217 Y136.293 E12.37033
G1 X82.9 Y131.943 E12.64234
G1 X79.335 Y127.781 E12.91483
G1 X75.553 Y123.842 E13.18636
G1 X73.577 Y121.948 E13.32246
G1 X69.463 Y118.331 E13.59484
G1 X65.149 Y114.951 E13.86735
G1 X60.647 Y111.819 E14.14005
G1 X55.99 Y108.955 E14.4119
G1 X51.135 Y106.335 E14.68622
G1 X49.055 Y105.317 E14.80137
G1 X48.619 Y105.06 E14.82653
G1 X48.23 Y104.737 E14.85167
G1 X47.897 Y104.357 E14.8768
G1 X47.627 Y103.93 E14.90192
G1 X47.428 Y103.465 E14.92707
G1 X47.305 Y102.974 E14.95224
G1 X47.261 Y102.443 E14.97873
G1 X47.261 Y97.559 E15.22158
G1 X47.301 Y97.055 E15.24672
G1 X47.42 Y96.564 E15.27184
G1 X47.614 Y96.097 E15.29699
G1 X47.88 Y95.667 E15.32213
G1 X48.21 Y95.284 E15.34727
G1 X48.597 Y94.958 E15.37243
G1 X48.99 Y94.717 E15.39535
G1 F1500 E8.89535
G0 F3600 X51.079 Y96.885
G0 X51.079 Y98.178
G0 X51.121 Y98.22
G0 X51.051 Y98.15
;TYPE:WALL-INNER
G1 F1500 E15.39535
G1 F1800 X98.123 Y98.15 E17.73596
G1 X98.123 Y51.581 E20.05155
G1 X101.877 Y51.581 E20.23821
G1 X101.877 Y98.15 E22.5538
G1 X148.949 Y98.15 E24.89441
G1 X148.949 Y101.85 E25.07839
G1 X101.877 Y101.85 E27.41899
G1 X101.877 Y148.419 E29.73458
G1 X98.123 Y148.419 E29.92125
G1 X98.123 Y101.85 E32.23684
G1 X51.051 Y101.85 E34.57744
G1 X51.051 Y98.15 E34.76142
G0 F3600 X50.651 Y97.75
;TYPE:WALL-OUTER
G1 F1800 X97.723 Y97.75 E37.10202
G1 X97.723 Y51.181 E39.41762
G1 X102.277 Y51.181 E39.64406
G1 X102.277 Y97.75 E41.95965
G1 X149.349 Y97.75 E44.30025
G1 X149.349 Y102.25 E44.52401
G1 X102.277 Y102.25 E46.86461
G1 X102.277 Y148.819 E49.18021
G1 X97.723 Y148.819 E49.40665
G1 X97.723 Y102.25 E51.72224
G1 X50.651 Y102.25 E54.06285
G1 X50.651 Y97.75 E54.2866
G0 F3600 X51.121 Y98.22
G0 X51.377 Y98.329
;TYPE:SKIN
G1 F1800 X54.717 Y101.669 E54.52147
G0 X54.787 Y101.739
G0 F3600 X55.283 Y101.669
G1 F1800 X51.943 Y98.329 E54.75634
G0 X51.873 Y98.259
G0 F3600 X52.509 Y98.329
G1 F1800 X55.848 Y101.669 E54.99118
G0 X55.918 Y101.739
G0 F3600 X56.414 Y101.669
G1 F1800 X53.074 Y98.329 E55.22605
G0 X53.004 Y98.259
G0 F3600 X53.64 Y98.329
G1 F1800 X56.98 Y101.669 E55.46092
G0 X57.05 Y101.739
G0 F3600 X57.545 Y101.669
G1 F1800 X54.206 Y98.329 E55.69575
G0 X54.136 Y98.259
G0 F3600 X54.771 Y98.329
G1 F1800 X58.111 Y101.669 E55.93062
G0 X58.181 Y101.739
G0 F3600 X58.677 Y101.669
G1 F1800 X55.337 Y98.329 E56.16549
G0 X55.267 Y98.259
G0 F3600 X55.903 Y98.329
G1 F1800 X59.242 Y101.669 E56.40032
G0 X59.312 Y101.739
G0 F3600 X59.808 Y101.669
G1 F1800 X56.468 Y98.329 E56.63519
G0 X56.398 Y98.259
G0 F3600 X57.034 Y98.329
G1 F1800 X60.374 Y101.669 E56.87006
G0 X60.444 Y101.739
G0 F3600 X60.939 Y101.669
G1 F1800 X57.6 Y98.329 E57.1049
G0 X57.53 Y98.259
G0 F3600 X58.165 Y98.329
G1 F1800 X61.505 Y101.669 E57.33977
G0 X61.575 Y101.739
G0 F3600 X62.071 Y101.669
G1 F1800 X58.731 Y98.329 E57.57464
G0 X58.661 Y98.259
G0 F3600 X59.297 Y98.329
G1 F1800 X62.636 Y101.669 E57.80947
G0 X62.706 Y101.739
G0 F3600 X63.202 Y101.669
G1 F1800 X59.862 Y98.329 E58.04434
G0 X59.792 Y98.259
G0 F3600 X60.428 Y98.329
G1 F1800 X63.768 Y101.669 E58.27921
G0 X63.838 Y101.739
G0 F3600 X64.333 Y101.669
G1 F1800 X60.994 Y98.329 E58.51404
G0 X60.924 Y98.259
G0 F3600 X61.56 Y98.329
G1 F1800 X64.899 Y101.669 E58.74888
G0 X64.969 Y101.739
G0 F3600 X65.465 Y101.669
G1 F1800 X62.125 Y98.329 E58.98375
G0 X62.055 Y98.259
G0 F3600 X62.691 Y98.329
G1 F1800 X66.031 Y101.669 E59.21862
G0 X66.101 Y101.739
G0 F3600 X66.596 Y101.669
G1 F1800 X63.257 Y98.329 E59.45345
G0 X63.187 Y98.259
G0 F3600 X63.822 Y98.329
G1 F1800 X67.162 Y101.669 E59.68832
G0 X67.232 Y101.739
G0 F3600 X67.728 Y101.669
G1 F1800 X64.388 Y98.329 E59.92319
G0 X64.318 Y98.259
G0 F3600 X64.954 Y98.329
G1 F1800 X68.293 Y101.669 E60.15803
G0 X68.363 Y101.739
G0 F3600 X68.859 Y101.669
G1 F1800 X65.519 Y98.329 E60.39289
G0 X65.449 Y98.259
G0 F3600 X66.085 Y98.329
G1 F1800 X69.425 Y101.669 E60.62776
G0 X69.495 Y101.739
G0 F3600 X69.99 Y101.669
G1 F1800 X66.651 Y98.329 E60.8626
G0 X66.581 Y98.259
G0 F3600 X67.216 Y98.329
G1 F1800 X70.556 Y101.669 E61.09747
G0 X70.626 Y101.739
G0 F3600 X71.122 Y101.669
G1 F1800 X67.782 Y98.329 E61.33234
G0 X67.712 Y98.259
G0 F3600 X68.348 Y98.329
G1 F1800 X71.687 Y101.669 E61.56717
G0 X71.757 Y101.739
G0 F3600 X72.253 Y101.669
G1 F1800 X68.913 Y98.329 E61.80204
G0 X68.843 Y98.259
G0 F3600 X69.479 Y98.329
G1 F1800 X72.819 Y101.669 E62.03691
G0 X72.889 Y101.739
G0 F3600 X73.384 Y101.669
G1 F1800 X70.045 Y98.329 E62.27175
G0 X69.975 Y98.259
G0 F3600 X70.61 Y98.329
G1 F1800 X73.95 Y101.669 E62.50661
G0 X74.02 Y101.739
G0 F3600 X74.516 Y101.669
G1 F1800 X71.176 Y98.329 E62.74148
G0 X71.106 Y98.259
G0 F3600 X71.742 Y98.329
G1 F1800 X75.082 Y101.669 E62.97635
G0 X75.152 Y101.739
G0 F3600 X75.647 Y101.669
G1 F1800 X72.308 Y98.329 E63.21119
G0 X72.238 Y98.259
G0 F3600 X72.873 Y98.329
G1 F1800 X76.213 Y101.669 E63.44606
G0 X76.283 Y101.739
G0 F3600 X76.779 Y101.669
G1 F1800 X73.439 Y98.329 E63.68093
G0 X73.369 Y98.259
G0 F3600 X74.005 Y98.329
G1 F1800 X77.344 Y101.669 E63.91576
G0 X77.414 Y101.739
G0 F3600 X77.91 Y101.669
G1 F1800 X74.57 Y98.329 E64.15063
G0 X74.5 Y98.259
G0 F3600 X75.136 Y98.329
G1 F1800 X78.476 Y101.669 E64.3855
G0 X78.546 Y101.739
G0 F3600 X79.041 Y101.669
G1 F1800 X75.702 Y98.329 E64.62034
G0 X75.632 Y98.259
G0 F3600 X76.267 Y98.329
G1 F1800 X79.607 Y101.669 E64.8552
G0 X79.677 Y101.739
G0 F3600 X80.173 Y101.669
G1 F1800 X76.833 Y98.329 E65.09007
G0 X76.763 Y98.259
G0 F3600 X77.399 Y98.329
G1 F1800 X80.738 Y101.669 E65.32491
G0 X80.808 Y101.739
G0 F3600 X81.304 Y101.669
G1 F1800 X77.964 Y98.329 E65.55978
G0 X77.894 Y98.259
G0 F3600 X78.53 Y98.329
G1 F1800 X81.87 Y101.669 E65.79465
G0 X81.94 Y101.739
G0 F3600 X82.435 Y101.669
G1 F1800 X79.096 Y98.329 E66.02948
G0 X79.026 Y98.259
G0 F3600 X79.661 Y98.329
G1 F1800 X83.001 Y101.669 E66.26435
G0 X83.071 Y101.739
G0 F3600 X83.567 Y101.669
G1 F1800 X80.227 Y98.329 E66.49922
G0 X80.157 Y98.259
G0 F3600 X80.793 Y98.329
G1 F1800 X84.132 Y101.669 E66.73406
G0 X84.202 Y101.739
G0 F3600 X84.698 Y101.669
G1 F1800 X81.358 Y98.329 E66.96892
G0 X81.288 Y98.259
G0 F3600 X81.924 Y98.329
G1 F1800 X85.264 Y101.669 E67.20379
G0 X85.334 Y101.739
G0 F3600 X85.83 Y101.669
G1 F1800 X82.49 Y98.329 E67.43866
G0 X82.42 Y98.259
G0 F3600 X83.056 Y98.329
G1 F1800 X86.395 Y101.669 E67.6735
G0 X86.465 Y101.739
G0 F3600 X86.961 Y101.669
G1 F1800 X83.621 Y98.329 E67.90837
G0 X83.551 Y98.259
G0 F3600 X84.187 Y98.329
G1 F1800 X87.527 Y101.669 E68.14324
G0 X87.597 Y101.739
G0 F3600 X88.092 Y101.669
G1 F1800 X84.753 Y98.329 E68.37807
G0 X84.683 Y98.259
G0 F3600 X85.318 Y98.329
G1 F1800 X88.658 Y101.669 E68.61294
G0 X88.728 Y101.739
G0 F3600 X89.224 Y101.669
G1 F1800 X85.884 Y98.329 E68.84781
G0 X85.814 Y98.259
G0 F3600 X86.45 Y98.329
G1 F1800 X89.789 Y101.669 E69.08265
G0 X89.859 Y101.739
G0 F3600 X90.355 Y101.669
G1 F1800 X87.015 Y98.329 E69.31751
G0 X86.945 Y98.259
G0 F3600 X87.581 Y98.329
G1 F1800 X90.921 Y101.669 E69.55238
G0 X90.991 Y101.739
G0 F3600 X91.486 Y101.669
G1 F1800 X88.147 Y98.329 E69.78722
G0 X88.077 Y98.259
G0 F3600 X88.712 Y98.329
G1 F1800 X92.052 Y101.669 E70.02209
G0 X92.122 Y101.739
G0 F3600 X92.618 Y101.669
G1 F1800 X89.278 Y98.329 E70.25696
G0 X89.208 Y98.259
G0 F3600 X89.844 Y98.329
G1 F1800 X93.183 Y101.669 E70.49179
G0 X93.253 Y101.739
G0 F3600 X93.749 Y101.669
G1 F1800 X90.409 Y98.329 E70.72666
G0 X90.339 Y98.259
G0 F3600 X90.975 Y98.329
G1 F1800 X94.315 Y101.669 E70.96153
G0 X94.385 Y101.739
G0 F3600 X94.881 Y101.669
G1 F1800 X91.541 Y98.329 E71.1964
G0 X91.471 Y98.259
G0 F3600 X92.107 Y98.329
G1 F1800 X95.446 Y101.669 E71.43123
G0 X95.516 Y101.739
G0 F3600 X96.012 Y101.669
G1 F1800 X92.672 Y98.329 E71.6661
G0 X92.602 Y98.259
G0 F3600 X93.238 Y98.329
G1 F1800 X96.578 Y101.669 E71.90097
G0 X96.648 Y101.739
G0 F3600 X97.143 Y101.669
G1 F1800 X93.804 Y98.329 E72.13581
G0 X93.734 Y98.259
G0 F3600 X94.369 Y98.329
G1 F1800 X97.709 Y101.669 E72.37068
G0 X97.779 Y101.739
G0 F3600 X98.275 Y101.669
G1 F1800 X94.935 Y98.329 E72.60555
G0 X94.865 Y98.259
G0 F3600 X95.501 Y98.329
G1 F1800 X101.696 Y104.525 E73.04122
G0 X101.766 Y104.595
G0 F3600 X101.696 Y105.09
G1 F1800 X98.302 Y101.696 E73.27988
G0 X98.232 Y101.626
G0 F3600 X98.302 Y102.262
G1 F1800 X101.696 Y105.656 E73.51855
G0 X101.766 Y105.726
G0 F3600 X101.696 Y106.222
G1 F1800 X98.302 Y102.828 E73.75722
G0 X98.232 Y102.758
G0 F3600 X98.302 Y103.393
G1 F1800 X101.696 Y106.787 E73.99588
G0 X101.766 Y106.857
G0 F3600 X101.696 Y107.353
G1 F1800 X98.302 Y103.959 E74.23455
G0 X98.232 Y103.889
G0 F3600 X98.302 Y104.525
G1 F1800 X101.696 Y107.919 E74.47322
G0 X101.766 Y107.989
G0 F3600 X101.696 Y108.485
G1 F1800 X98.302 Y105.09 E74.71192
G0 X98.232 Y105.02
G0 F3600 X98.302 Y105.656
G1 F1800 X101.696 Y109.05 E74.95059
G0 X101.766 Y109.12
G0 F3600 X101.696 Y109.616
G1 F1800 X98.302 Y106.222 E75.18925
G0 X98.232 Y106.152
G0 F3600 X98.302 Y106.787
G1 F1800 X101.696 Y110.182 E75.42795
G0 X101.766 Y110.252
G0 F3600 X101.696 Y110.747
G1 F1800 X98.302 Y107.353 E75.66662
G0 X98.232 Y107.283
G0 F3600 X98.302 Y107.919
G1 F1800 X101.696 Y111.313 E75.90529
G0 X101.766 Y111.383
G0 F3600 X101.696 Y111.879
G1 F1800 X98.302 Y108.485 E76.14396
G0 X98.232 Y108.415
G0 F3600 X98.302 Y109.05
G1 F1800 X101.696 Y112.444 E76.38262
G0 X101.766 Y112.514
G0 F3600 X101.696 Y113.01
G1 F1800 X98.302 Y109.616 E76.62129
G0 X98.232 Y109.546
G0 F3600 X98.302 Y110.182
G1 F1800 X101.696 Y113.576 E76.85996
G0 X101.766 Y113.646
G0 F3600 X101.696 Y114.141
G1 F1800 X98.302 Y110.747 E77.09862
G0 X98.232 Y110.677
G0 F3600 X98.302 Y111.313
G1 F1800 X101.696 Y114.707 E77.33729
G0 X101.766 Y114.777
G0 F3600 X101.696 Y115.273
G1 F1800 X98.302 Y111.879 E77.57596
G0 X98.232 Y111.809
G0 F3600 X98.302 Y112.444
G1 F1800 X101.696 Y115.838 E77.81462
G0 X101.766 Y115.908
G0 F3600 X101.696 Y116.404
G1 F1800 X98.302 Y113.01 E78.05329
G0 X98.232 Y112.94
G0 F3600 X98.302 Y113.576
G1 F1800 X101.696 Y116.97 E78.29196
G0 X101.766 Y117.04
G0 F3600 X101.696 Y117.535
G1 F1800 X98.302 Y114.141 E78.53062
G0 X98.232 Y114.071
G0 F3600 X98.302 Y114.707
G1 F1800 X101.696 Y118.101 E78.76929
G0 X101.766 Y118.171
G0 F3600 X101.696 Y118.667
G1 F1800 X98.302 Y115.273 E79.00796
G0 X98.232 Y115.203
G0 F3600 X98.302 Y115.838
G1 F1800 X101.696 Y119.233 E79.24666
G0 X101.766 Y119.303
G0 F3600 X101.696 Y119.798
G1 F1800 X98.302 Y116.404 E79.48533
G0 X98.232 Y116.334
G0 F3600 X98.302 Y116.97
G1 F1800 X101.696 Y120.364 E79.72399
G0 X101.766 Y120.434
G0 F3600 X101.696 Y120.93
G1 F1800 X98.302 Y117.535 E79.96269
G0 X98.232 Y117.465
G0 F3600 X98.302 Y118.101
G1 F1800 X101.696 Y121.495 E80.20136
G0 X101.766 Y121.565
G0 F3600 X101.696 Y122.061
G1 F1800 X98.302 Y118.667 E80.44003
G0 X98.232 Y118.597
G0 F3600 X98.302 Y119.233
G1 F1800 X101.696 Y122.627 E80.67869
G0 X101.766 Y122.697
G0 F3600 X101.696 Y123.192
G1 F1800 X98.302 Y119.798 E80.91736
G0 X98.232 Y119.728
G0 F3600 X98.302 Y120.364
G1 F1800 X101.696 Y123.758 E81.15603
G0 X101.766 Y123.828
G0 F3600 X101.696 Y124.324
G1 F1800 X98.302 Y120.93 E81.3947
G0 X98.232 Y120.86
G0 F3600 X98.302 Y121.495
G1 F1800 X101.696 Y124.889 E81.63336
G0 X101.766 Y124.959
G0 F3600 X101.696 Y125.455
G1 F1800 X98.302 Y122.061 E81.87203
G0 X98.232 Y121.991
G0 F3600 X98.302 Y122.627
G1 F1800 X101.696 Y126.021 E82.1107
G0 X101.766 Y126.091
G0 F3600 X101.696 Y126.586
G1 F1800 X98.302 Y123.192 E82.34936
G0 X98.232 Y123.122
G0 F3600 X98.302 Y123.758
G1 F1800 X101.696 Y127.152 E82.58803
G0 X101.766 Y127.222
G0 F3600 X101.696 Y127.718
G1 F1800 X98.302 Y124.324 E82.8267
G0 X98.232 Y124.254
G0 F3600 X98.302 Y124.889
G1 F1800 X101.696 Y128.284 E83.0654
G0 X101.766 Y128.354
G0 F3600 X101.696 Y128.849
G1 F1800 X98.302 Y125.455 E83.30406
G0 X98.232 Y125.385
G0 F3600 X98.302 Y126.021
G1 F1800 X101.696 Y129.415 E83.54273
G0 X101.766 Y129.485
G0 F3600 X101.696 Y129.981
G1 F1800 X98.302 Y126.586 E83.78143
G0 X98.232 Y126.516
G0 F3600 X98.302 Y127.152
G1 F1800 X101.696 Y130.546 E84.0201
G0 X101.766 Y130.616
G0 F3600 X101.696 Y131.112
G1 F1800 X98.302 Y127.718 E84.25877
G0 X98.232 Y127.648
G0 F3600 X98.302 Y128.284
G1 F1800 X101.696 Y131.678 E84.49743
G0 X101.766 Y131.748
G0 F3600 X101.696 Y132.243
G1 F1800 X98.302 Y128.849 E84.7361
G0 X98.232 Y128.779
G0 F3600 X98.302 Y129.415
G1 F1800 X101.696 Y132.809 E84.97477
G0 X101.766 Y132.879
G0 F3600 X101.696 Y133.375
G1 F1800 X98.302 Y129.981 E85.21343
G0 X98.232 Y129.911
G0 F3600 X98.302 Y130.546
G1 F1800 X101.696 Y133.94 E85.4521
G0 X101.766 Y134.01
G0 F3600 X101.696 Y134.506
G1 F1800 X98.302 Y131.112 E85.69077
G0 X98.232 Y131.042
G0 F3600 X98.302 Y131.678
G1 F1800 X101.696 Y135.072 E85.92944
G0 X101.766 Y135.142
