;FLAVOR:RepRap
;TIME:199
;Generated with Cura_SteamEngine 2.3.1
M190 S60
M104 S200
M109 S200
G21 ;metric values
G90 ;absolute positioning
G92 E0 ;zero the extruded length
M107 ;start with the fan off
G1 X90 Y200 F6000 ;go to the middle of the front

G92 E0 ;zero the extruded length
G1 X150 E10 F300 ; make a thick line to prime extruder
G92 E0 ; reset extruder
;LAYER_COUNT:2
;LAYER:0
M107
G1 F1500 E-6.5
G0 F3600 X48.54 Y94.663 Z.299
;TYPE:SKIRT
G1 F1500 E0
G1 F1800 X54.429 Y91.619 E0.32963
G1 X59.115 Y88.819 E0.60106
G1 X63.641 Y85.758 E0.87275
G1 X68.002 Y82.433 E1.14543
G1 X72.166 Y78.868 E1.418
G1 X76.118 Y75.077 E1.69031
G1 X77.988 Y73.126 E1.82468
G1 X81.625 Y68.99 E2.09854
G1 X84.993 Y64.694 E2.36998
G1 X88.133 Y60.185 E2.64319
G1 X90.99 Y55.543 E2.91423
G1 X93.619 Y50.675 E3.18933
G1 X94.633 Y48.603 E3.30403
G1 X94.89 Y48.168 E3.32915
G1 X95.213 Y47.779 E3.35429
G1 X95.593 Y47.445 E3.37945
G1 X96.021 Y47.176 E3.40459
G1 X96.486 Y46.977 E3.42974
G1 X96.976 Y46.854 E3.45486
G1 X97.507 Y46.81 E3.48135
G1 X102.494 Y46.81 E3.72932
G1 X102.998 Y46.85 E3.75446
G1 X103.489 Y46.969 E3.77958
G1 X103.956 Y47.163 E3.80473
G1 X104.386 Y47.429 E3.82987
G1 X104.769 Y47.759 E3.85501
G1 X105.095 Y48.146 E3.88017
G1 X105.356 Y48.579 E3.90531
G1 X107.071 Y52.009 E4.09599
G1 X109.748 Y56.79 E4.36845
G1 X112.688 Y61.411 E4.64079
G1 X115.898 Y65.877 E4.91427
G1 X119.327 Y70.117 E5.18541
G1 X123.016 Y74.187 E5.45855
G1 X124.907 Y76.104 E5.59244
G1 X128.944 Y79.861 E5.86666
G1 X133.151 Y83.353 E6.13852
G1 X137.554 Y86.605 E6.4107
G1 X142.132 Y89.604 E6.68283
G1 X146.877 Y92.341 E6.9552
G1 X151.439 Y94.655 E7.20956
G1 X151.87 Y94.919 E7.23469
G1 X152.254 Y95.247 E7.2598
G1 X152.582 Y95.632 E7.28495
G1 X152.846 Y96.063 E7.31008
G1 X153.038 Y96.531 E7.33523
G1 X153.154 Y97.023 E7.36037
G1 X153.191 Y97.51 E7.38465
G1 X153.19 Y102.495 E7.63253
G1 X153.15 Y102.999 E7.65767
G1 X153.031 Y103.49 E7.68279
G1 X152.836 Y103.957 E7.70795
G1 X152.57 Y104.387 E7.7331
G1 X152.24 Y104.769 E7.7582
G1 X151.854 Y105.095 E7.78332
G1 X151.46 Y105.337 E7.80631
G1 X145.571 Y108.381 E8.13594
G1 X140.885 Y111.181 E8.40737
G1 X136.359 Y114.242 E8.67906
G1 X131.998 Y117.567 E8.95174
G1 X127.834 Y121.132 E9.22431
G1 X123.882 Y124.923 E9.49662
G1 X122.012 Y126.874 E9.63099
G1 X118.375 Y131.01 E9.90485
G1 X115.007 Y135.306 E10.17629
G1 X111.867 Y139.815 E10.4495
G1 X109.01 Y144.457 E10.72054
G1 X106.381 Y149.325 E10.99564
G1 X105.367 Y151.397 E11.11034
G1 X105.11 Y151.832 E11.13546
G1 X104.787 Y152.221 E11.1606
G1 X104.407 Y152.555 E11.18576
G1 X103.979 Y152.824 E11.2109
G1 X103.514 Y153.023 E11.23605
G1 X103.024 Y153.146 E11.26117
G1 X102.493 Y153.19 E11.28766
G1 X97.509 Y153.19 E11.53548
G1 X97.005 Y153.15 E11.56062
G1 X96.514 Y153.031 E11.58574
G1 X96.047 Y152.837 E11.61089
G1 X95.617 Y152.571 E11.63603
G1 X95.234 Y152.241 E11.66117
G1 X94.908 Y151.854 E11.68633
G1 X94.648 Y151.423 E11.71136
G1 X92.929 Y147.992 E11.90218
G1 X90.252 Y143.21 E12.17468
G1 X87.312 Y138.589 E12.44702
G1 X84.102 Y134.123 E12.72049
G1 X80.673 Y129.883 E12.99164
G1 X76.984 Y125.813 E13.26478
G1 X75.093 Y123.896 E13.39867
G1 X71.055 Y120.138 E13.67295
G1 X66.848 Y116.646 E13.94482
G1 X62.446 Y113.394 E14.21695
G1 X57.868 Y110.396 E14.48906
G1 X53.116 Y107.655 E14.76183
G1 X48.561 Y105.345 E15.01579
G1 X48.129 Y105.081 E15.04096
G1 X47.745 Y104.753 E15.06607
G1 X47.417 Y104.369 E15.09118
G1 X47.153 Y103.937 E15.11636
G1 X46.961 Y103.469 E15.14151
G1 X46.845 Y102.977 E15.16665
G1 X46.808 Y102.49 E15.19093
G1 X46.81 Y97.505 E15.43881
G1 X46.85 Y97.001 E15.46395
G1 X46.969 Y96.509 E15.48912
G1 X47.164 Y96.043 E15.51423
G1 X47.43 Y95.613 E15.53937
G1 X47.76 Y95.23 E15.56451
G1 X48.147 Y94.904 E15.58967
G1 X48.54 Y94.663 E15.6126
G1 F1500 E9.1126
G0 F3600 X50.628 Y96.835
G0 X50.628 Y98.128
G0 X50.67 Y98.17
G0 X50.6 Y98.1
;TYPE:WALL-INNER
G1 F1500 E15.6126
G1 F1800 X98.1 Y98.1 E17.97448
G1 X98.1 Y50.6 E20.33637
G1 X101.9 Y50.6 E20.52532
G1 X101.9 Y98.101 E22.88725
G1 X149.4 Y98.101 E25.24914
G1 X149.4 Y101.9 E25.43804
G1 X101.9 Y101.9 E27.79993
G1 X101.9 Y149.4 E30.16181
G1 X98.1 Y149.4 E30.35076
G1 X98.1 Y101.899 E32.7127
G1 X50.6 Y101.899 E35.07458
G1 X50.6 Y98.1 E35.26348
G0 F3600 X50.2 Y97.7
;TYPE:WALL-OUTER
G1 F1800 X97.7 Y97.7 E37.62537
G1 X97.7 Y50.2 E39.98725
G1 X102.3 Y50.2 E40.21598
G1 X102.3 Y97.701 E42.57792
G1 X149.8 Y97.701 E44.9398
G1 X149.8 Y102.3 E45.16848
G1 X102.3 Y102.3 E47.53037
G1 X102.3 Y149.8 E49.89226
G1 X97.7 Y149.8 E50.12099
G1 X97.7 Y102.299 E52.48292
G1 X50.2 Y102.299 E54.84481
G1 X50.2 Y97.7 E55.07349
G0 F3600 X50.67 Y98.17
G0 X50.78 Y98.297
;TYPE:SKIN
G1 F1800 X54.2 Y101.718 E55.31402
G0 X54.27 Y101.788
G0 F3600 X54.766 Y101.718
G1 F1800 X51.327 Y98.279 E55.55585
G0 X51.257 Y98.209
G0 F3600 X51.893 Y98.279
G1 F1800 X55.331 Y101.718 E55.79764
G0 X55.401 Y101.788
G0 F3600 X55.897 Y101.718
G1 F1800 X52.458 Y98.279 E56.03947
G0 X52.388 Y98.209
G0 F3600 X53.024 Y98.279
G1 F1800 X56.463 Y101.718 E56.28131
G0 X56.533 Y101.788
G0 F3600 X57.028 Y101.718
G1 F1800 X53.59 Y98.279 E56.5231
G0 X53.52 Y98.209
G0 F3600 X54.155 Y98.279
G1 F1800 X57.594 Y101.718 E56.76493
G0 X57.664 Y101.788
G0 F3600 X58.16 Y101.718
G1 F1800 X54.721 Y98.279 E57.00676
G0 X54.651 Y98.209
G0 F3600 X55.287 Y98.279
G1 F1800 X58.725 Y101.718 E57.24856
G0 X58.795 Y101.788
G0 F3600 X59.291 Y101.718
G1 F1800 X55.852 Y98.279 E57.49039
G0 X55.782 Y98.209
G0 F3600 X56.418 Y98.279
G1 F1800 X59.857 Y101.718 E57.73222
G0 X59.927 Y101.788
G0 F3600 X60.422 Y101.718
G1 F1800 X56.984 Y98.279 E57.97402
G0 X56.914 Y98.209
G0 F3600 X57.55 Y98.279
G1 F1800 X60.988 Y101.718 E58.21581
G0 X61.058 Y101.788
G0 F3600 X61.554 Y101.718
G1 F1800 X58.115 Y98.279 E58.45765
G0 X58.045 Y98.209
G0 F3600 X58.681 Y98.279
G1 F1800 X62.12 Y101.718 E58.69948
G0 X62.19 Y101.788
G0 F3600 X62.685 Y101.718
G1 F1800 X59.247 Y98.279 E58.94127
G0 X59.177 Y98.209
G0 F3600 X59.812 Y98.279
G1 F1800 X63.251 Y101.718 E59.1831
G0 X63.321 Y101.788
G0 F3600 X63.817 Y101.718
G1 F1800 X60.378 Y98.279 E59.42494
G0 X60.308 Y98.209
G0 F3600 X60.944 Y98.279
G1 F1800 X64.382 Y101.718 E59.66673
G0 X64.452 Y101.788
G0 F3600 X64.948 Y101.718
G1 F1800 X61.509 Y98.279 E59.90856
G0 X61.439 Y98.209
G0 F3600 X62.075 Y98.279
G1 F1800 X65.514 Y101.718 E60.15039
G0 X65.584 Y101.788
G0 F3600 X66.079 Y101.718
G1 F1800 X62.641 Y98.279 E60.39219
G0 X62.571 Y98.209
G0 F3600 X63.206 Y98.279
G1 F1800 X66.645 Y101.718 E60.63402
G0 X66.715 Y101.788
G0 F3600 X67.211 Y101.718
G1 F1800 X63.772 Y98.279 E60.87585
G0 X63.702 Y98.209
G0 F3600 X64.338 Y98.279
G1 F1800 X67.776 Y101.718 E61.11765
G0 X67.846 Y101.788
G0 F3600 X68.342 Y101.718
G1 F1800 X64.903 Y98.279 E61.35948
G0 X64.833 Y98.209
G0 F3600 X65.469 Y98.279
G1 F1800 X68.908 Y101.718 E61.60131
G0 X68.978 Y101.788
G0 F3600 X69.473 Y101.718
G1 F1800 X66.035 Y98.279 E61.84311
G0 X65.965 Y98.209
G0 F3600 X66.6 Y98.279
G1 F1800 X70.039 Y101.718 E62.08494
G0 X70.109 Y101.788
G0 F3600 X70.605 Y101.718
G1 F1800 X67.166 Y98.279 E62.32677
G0 X67.096 Y98.209
G0 F3600 X67.732 Y98.279
G1 F1800 X71.171 Y101.718 E62.5686
G0 X71.241 Y101.788
G0 F3600 X71.736 Y101.718
G1 F1800 X68.298 Y98.279 E62.8104
G0 X68.228 Y98.209
G0 F3600 X68.863 Y98.279
G1 F1800 X72.302 Y101.718 E63.05223
G0 X72.372 Y101.788
G0 F3600 X72.868 Y101.718
G1 F1800 X69.429 Y98.279 E63.29406
G0 X69.359 Y98.209
G0 F3600 X69.995 Y98.279
G1 F1800 X73.433 Y101.718 E63.53586
G0 X73.503 Y101.788
G0 F3600 X73.999 Y101.718
G1 F1800 X70.56 Y98.279 E63.77769
G0 X70.49 Y98.209
G0 F3600 X71.126 Y98.279
G1 F1800 X74.565 Y101.718 E64.01952
G0 X74.635 Y101.788
G0 F3600 X75.13 Y101.718
G1 F1800 X71.692 Y98.279 E64.26131
G0 X71.622 Y98.209
G0 F3600 X72.257 Y98.279
G1 F1800 X75.696 Y101.718 E64.50315
G0 X75.766 Y101.788
G0 F3600 X76.262 Y101.718
G1 F1800 X72.823 Y98.279 E64.74498
G0 X72.753 Y98.209
G0 F3600 X73.389 Y98.279
G1 F1800 X76.827 Y101.718 E64.98677
G0 X76.897 Y101.788
G0 F3600 X77.393 Y101.718
G1 F1800 X73.954 Y98.279 E65.2286
G0 X73.884 Y98.209
G0 F3600 X74.52 Y98.279
G1 F1800 X77.959 Y101.718 E65.47044
G0 X78.029 Y101.788
G0 F3600 X78.524 Y101.718
G1 F1800 X75.086 Y98.279 E65.71223
G0 X75.016 Y98.209
G0 F3600 X75.651 Y98.279
G1 F1800 X79.09 Y101.718 E65.95406
G0 X79.16 Y101.788
G0 F3600 X79.656 Y101.718
G1 F1800 X76.217 Y98.279 E66.19589
G0 X76.147 Y98.209
G0 F3600 X76.783 Y98.279
G1 F1800 X80.221 Y101.718 E66.43769
G0 X80.291 Y101.788
G0 F3600 X80.787 Y101.718
G1 F1800 X77.348 Y98.279 E66.67952
G0 X77.278 Y98.209
G0 F3600 X77.914 Y98.279
G1 F1800 X81.353 Y101.718 E66.92135
G0 X81.423 Y101.788
G0 F3600 X81.919 Y101.718
G1 F1800 X78.48 Y98.279 E67.16318
G0 X78.41 Y98.209
G0 F3600 X79.046 Y98.279
G1 F1800 X82.484 Y101.718 E67.40498
G0 X82.554 Y101.788
G0 F3600 X83.05 Y101.718
G1 F1800 X79.611 Y98.279 E67.64681
G0 X79.541 Y98.209
G0 F3600 X80.177 Y98.279
G1 F1800 X83.616 Y101.718 E67.88864
G0 X83.686 Y101.788
G0 F3600 X84.181 Y101.718
G1 F1800 X80.743 Y98.279 E68.13044
G0 X80.673 Y98.209
G0 F3600 X81.308 Y98.279
G1 F1800 X84.747 Y101.718 E68.37227
G0 X84.817 Y101.788
G0 F3600 X85.313 Y101.718
G1 F1800 X81.874 Y98.279 E68.6141
G0 X81.804 Y98.209
G0 F3600 X82.44 Y98.279
G1 F1800 X85.878 Y101.718 E68.8559
G0 X85.948 Y101.788
G0 F3600 X86.444 Y101.718
G1 F1800 X83.005 Y98.279 E69.09773
G0 X82.935 Y98.209
G0 F3600 X83.571 Y98.279
G1 F1800 X87.01 Y101.718 E69.33956
G0 X87.08 Y101.788
G0 F3600 X87.575 Y101.718
G1 F1800 X84.137 Y98.279 E69.58136
G0 X84.067 Y98.209
G0 F3600 X84.702 Y98.279
G1 F1800 X88.141 Y101.718 E69.82319
G0 X88.211 Y101.788
G0 F3600 X88.707 Y101.718
G1 F1800 X85.268 Y98.279 E70.06502
G0 X85.198 Y98.209
G0 F3600 X85.834 Y98.279
G1 F1800 X89.272 Y101.718 E70.30681
G0 X89.342 Y101.788
G0 F3600 X89.838 Y101.718
G1 F1800 X86.399 Y98.279 E70.54864
G0 X86.329 Y98.209
G0 F3600 X86.965 Y98.279
G1 F1800 X90.404 Y101.718 E70.79048
G0 X90.474 Y101.788
G0 F3600 X90.969 Y101.718
G1 F1800 X87.531 Y98.279 E71.03227
G0 X87.461 Y98.209
G0 F3600 X88.097 Y98.279
G1 F1800 X91.535 Y101.718 E71.27407
G0 X91.605 Y101.788
G0 F3600 X92.101 Y101.718
G1 F1800 X88.662 Y98.279 E71.5159
G0 X88.592 Y98.209
G0 F3600 X89.228 Y98.279
G1 F1800 X92.667 Y101.718 E71.75773
G0 X92.737 Y101.788
G0 F3600 X93.232 Y101.718
G1 F1800 X89.794 Y98.279 E71.99953
G0 X89.724 Y98.209
G0 F3600 X90.359 Y98.279
G1 F1800 X93.798 Y101.718 E72.24136
G0 X93.868 Y101.788
G0 F3600 X94.364 Y101.718
G1 F1800 X90.925 Y98.279 E72.48319
G0 X90.855 Y98.209
G0 F3600 X91.491 Y98.279
G1 F1800 X94.929 Y101.718 E72.72499
G0 X94.999 Y101.788
G0 F3600 X95.495 Y101.718
G1 F1800 X92.056 Y98.279 E72.96682
G0 X91.986 Y98.209
G0 F3600 X92.622 Y98.279
G1 F1800 X96.061 Y101.718 E73.20865
G0 X96.131 Y101.788
G0 F3600 X96.626 Y101.718
G1 F1800 X93.188 Y98.279 E73.45044
G0 X93.118 Y98.209
G0 F3600 X93.753 Y98.279
G1 F1800 X97.192 Y101.718 E73.69227
G0 X97.262 Y101.788
G0 F3600 X97.758 Y101.718
G1 F1800 X94.319 Y98.279 E73.93411
G0 X94.249 Y98.209
G0 F3600 X94.885 Y98.279
G1 F1800 X101.72 Y105.114 E74.41474
G0 X101.79 Y105.184
G0 F3600 X101.72 Y105.679
G1 F1800 X98.279 Y102.239 E74.65668
G0 X98.209 Y102.169
G0 F3600 X98.279 Y102.804
G1 F1800 X101.72 Y106.245 E74.89865
G0 X101.79 Y106.315
G0 F3600 X101.72 Y106.811
G1 F1800 X98.279 Y103.37 E75.14063
G0 X98.209 Y103.3
G0 F3600 X98.279 Y103.936
G1 F1800 X101.72 Y107.376 E75.38256
G0 X101.79 Y107.446
G0 F3600 X101.72 Y107.942
G1 F1800 X98.279 Y104.501 E75.62453
G0 X98.209 Y104.431
G0 F3600 X98.279 Y105.067
G1 F1800 X101.72 Y108.508 E75.86651
G0 X101.79 Y108.578
G0 F3600 X101.72 Y109.074
G1 F1800 X98.279 Y105.633 E76.10848
G0 X98.209 Y105.563
G0 F3600 X98.279 Y106.198
G1 F1800 X101.72 Y109.639 E76.35045
G0 X101.79 Y109.709
G0 F3600 X101.72 Y110.205
G1 F1800 X98.279 Y106.764 E76.59242
G0 X98.209 Y106.694
G0 F3600 X98.279 Y107.33
G1 F1800 X101.72 Y110.771 E76.83439
G0 X101.79 Y110.841
G0 F3600 X101.72 Y111.336
G1 F1800 X98.279 Y107.896 E77.07633
G0 X98.209 Y107.826
G0 F3600 X98.279 Y108.461
G1 F1800 X101.72 Y111.902 E77.3183
G0 X101.79 Y111.972
G0 F3600 X101.72 Y112.468
G1 F1800 X98.279 Y109.027 E77.56027
G0 X98.209 Y108.957
G0 F3600 X98.279 Y109.593
G1 F1800 X101.72 Y113.033 E77.80221
G0 X101.79 Y113.103
G0 F3600 X101.72 Y113.599
G1 F1800 X98.279 Y110.158 E78.04418
G0 X98.209 Y110.088
G0 F3600 X98.279 Y110.724
G1 F1800 X101.72 Y114.165 E78.28615
G0 X101.79 Y114.235
G0 F3600 X101.72 Y114.73
G1 F1800 X98.279 Y111.29 E78.52809
G0 X98.209 Y111.22
G0 F3600 X98.279 Y111.855
G1 F1800 X101.72 Y115.296 E78.77006
G0 X101.79 Y115.366
G0 F3600 X101.72 Y115.862
G1 F1800 X98.279 Y112.421 E79.01203
G0 X98.209 Y112.351
G0 F3600 X98.279 Y112.987
G1 F1800 X101.72 Y116.427 E79.25397
G0 X101.79 Y116.497
G0 F3600 X101.72 Y116.993
G1 F1800 X98.279 Y113.552 E79.49594
G0 X98.209 Y113.482
G0 F3600 X98.279 Y114.118
G1 F1800 X101.72 Y117.559 E79.73791
G0 X101.79 Y117.629
G0 F3600 X101.72 Y118.125
G1 F1800 X98.279 Y114.684 E79.97989
G0 X98.209 Y114.614
G0 F3600 X98.279 Y115.249
G1 F1800 X101.72 Y118.69 E80.22186
G0 X101.79 Y118.76
G0 F3600 X101.72 Y119.256
G1 F1800 X98.279 Y115.815 E80.46383
G0 X98.209 Y115.745
G0 F3600 X98.279 Y116.381
G1 F1800 X101.72 Y119.822 E80.7058
G0 X101.79 Y119.892
G0 F3600 X101.72 Y120.387
G1 F1800 X98.279 Y116.946 E80.94777
G0 X98.209 Y116.876
G0 F3600 X98.279 Y117.512
G1 F1800 X101.72 Y120.953 E81.18975
G0 X101.79 Y121.023
G0 F3600 X101.72 Y121.519
G1 F1800 X98.279 Y118.078 E81.43172
G0 X98.209 Y118.008
G0 F3600 X98.279 Y118.644
G1 F1800 X101.72 Y122.084 E81.67365
G0 X101.79 Y122.154
G0 F3600 X101.72 Y122.65
G1 F1800 X98.279 Y119.209 E81.91563
G0 X98.209 Y119.139
G0 F3600 X98.279 Y119.775
G1 F1800 X101.72 Y123.216 E82.1576
G0 X101.79 Y123.286
G0 F3600 X101.72 Y123.781
G1 F1800 X98.279 Y120.341 E82.39954
G0 X98.209 Y120.271
G0 F3600 X98.279 Y120.906
G1 F1800 X101.72 Y124.347 E82.64151
G0 X101.79 Y124.417
G0 F3600 X101.72 Y124.913
G1 F1800 X98.279 Y121.472 E82.88348
G0 X98.209 Y121.402
G0 F3600 X98.279 Y122.038
G1 F1800 X101.72 Y125.478 E83.12542
G0 X101.79 Y125.548
G0 F3600 X101.72 Y126.044
G1 F1800 X98.279 Y122.603 E83.36739
G0 X98.209 Y122.533
G0 F3600 X98.279 Y123.169
G1 F1800 X101.72 Y126.61 E83.60936
G0 X101.79 Y126.68
G0 F3600 X101.72 Y127.175
G1 F1800 X98.279 Y123.735 E83.8513
G0 X98.209 Y123.665
G0 F3600 X98.279 Y124.3
G1 F1800 X101.72 Y127.741 E84.09327
G0 X101.79 Y127.811
G0 F3600 X101.72 Y128.307
G1 F1800 X98.279 Y124.866 E84.33524
G0 X98.209 Y124.796
G0 F3600 X98.279 Y125.432
G1 F1800 X101.72 Y128.873 E84.57721
G0 X101.79 Y128.943
G0 F3600 X101.72 Y129.438
G1 F1800 X98.279 Y125.997 E84.81918
G0 X98.209 Y125.927
G0 F3600 X98.279 Y126.563
G1 F1800 X101.72 Y130.004 E85.06116
G0 X101.79 Y130.074
G0 F3600 X101.72 Y130.57
G1 F1800 X98.279 Y127.129 E85.30313
G0 X98.209 Y127.059
G0 F3600 X98.279 Y127.694
G1 F1800 X101.72 Y131.135 E85.5451
G0 X101.79 Y131.205
G0 F3600 X101.72 Y131.701
G1 F1800 X98.279 Y128.26 E85.78707
G0 X98.209 Y128.19
G0 F3600 X98.279 Y128.826
G1 F1800 X101.72 Y132.267 E86.02904
G0 X101.79 Y132.337
G0 F3600 X101.72 Y132.832
G1 F1800 X98.279 Y129.392 E86.27098
G0 X98.209 Y129.322
G0 F3600 X98.279 Y129.957
G1 F1800 X101.72 Y133.398 E86.51295
G0 X101.79 Y133.468
G0 F3600 X101.72 Y133.964
G1 F1800 X98.279 Y130.523 E86.75492
G0 X98.209 Y130.453
G0 F3600 X98.279 Y131.089
G1 F1800 X101.72 Y134.529 E86.99686
G0 X101.79 Y134.599
G0 F3600 X101.72 Y135.095
G1 F1800 X98.279 Y131.654 E87.23883
G0 X98.209 Y131.584
G0 F3600 X98.279 Y132.22
G1 F1800 X101.72 Y135.661 E87.4808
G0 X101.79 Y135.731
G0 F3600 X101.72 Y136.226
G1 F1800 X98.279 Y132.786 E87.72274
G0 X98.209 Y132.716
G0 F3600 X98.279 Y133.351
